rust/creative_luts/lofi/lut.cube
TITLE "Pixel Craft Creative: lofi"
LUT_3D_SIZE 9
DOMAIN_MIN 0.0 0.0 0.0
DOMAIN_MAX 1.0 1.0 1.0
0.0000000 0.0000000 0.0000000
0.0196078 0.0000000 0.0000000
0.1803922 0.0000000 0.0000000
0.3411765 0.0000000 0.0000000
0.5019608 0.0000000 0.0000000
0.6549020 0.0000000 0.0000000
0.8117647 0.0000000 0.0000000
0.9725490 0.0000000 0.0000000
1.0000000 0.0000000 0.0000000
0.0000000 0.0196078 0.0000000
0.0196078 0.0196078 0.0000000
0.1803922 0.0235294 0.0000000
0.3411765 0.0196078 0.0000000
0.5019608 0.0235294 0.0000000
0.6549020 0.0196078 0.0000000
0.8117647 0.0196078 0.0000000
0.9725490 0.0196078 0.0000000
1.0000000 0.0196078 0.0000000
0.0000000 0.1803922 0.0000000
0.0235294 0.1803922 0.0000000
0.1803922 0.1803922 0.0000000
0.3411765 0.1843137 0.0000000
0.5019608 0.1843137 0.0000000
0.6549020 0.1843137 0.0000000
0.8117647 0.1843137 0.0000000
0.9725490 0.1843137 0.0000000
1.0000000 0.1803922 0.0000000
0.0000000 0.3411765 0.0000000
0.0235294 0.3411765 0.0000000
0.1803922 0.3411765 0.0000000
0.3411765 0.3411765 0.0000000
0.5019608 0.3411765 0.0000000
0.6549020 0.3411765 0.0000000
0.8117647 0.3411765 0.0000000
0.9725490 0.3411765 0.0000000
1.0000000 0.3411765 0.0000000
0.0000000 0.5019608 0.0000000
0.0235294 0.5019608 0.0000000
0.1843137 0.5019608 0.0000000
0.3411765 0.5019608 0.0000000
0.5019608 0.5019608 0.0000000
0.6549020 0.5019608 0.0000000
0.8117647 0.5019608 0.0000000
0.9725490 0.5019608 0.0000000
1.0000000 0.5019608 0.0000000
0.0000000 0.6549020 0.0000000
0.0196078 0.6549020 0.0000000
0.1843137 0.6549020 0.0000000
0.3411765 0.6549020 0.0000000
0.4980392 0.6549020 0.0000000
0.6549020 0.6549020 0.0000000
0.8117647 0.6549020 0.0000000
0.9725490 0.6549020 0.0000000
1.0000000 0.6549020 0.0000000
0.0000000 0.8117647 0.0000000
0.0196078 0.8117647 0.0000000
0.1843137 0.8117647 0.0000000
0.3411765 0.8117647 0.0000000
0.5019608 0.8117647 0.0000000
0.6549020 0.8117647 0.0000000
0.8117647 0.8117647 0.0000000
0.9725490 0.8117647 0.0000000
1.0000000 0.8117647 0.0000000
0.0000000 0.9725490 0.0000000
0.0196078 0.9725490 0.0000000
0.1803922 0.9725490 0.0000000
0.3411765 0.9725490 0.0000000
0.4980392 0.9725490 0.0000000
0.6509804 0.9725490 0.0000000
0.8117647 0.9725490 0.0000000
0.9725490 0.9725490 0.0000000
1.0000000 0.9725490 0.0000000
0.0000000 1.0000000 0.0000000
0.0196078 1.0000000 0.0000000
0.1803922 1.0000000 0.0000000
0.3411765 1.0000000 0.0000000
0.4980392 1.0000000 0.0000000
0.6549020 1.0000000 0.0000000
0.8117647 1.0000000 0.0000000
0.9686275 1.0000000 0.0000000
1.0000000 1.0000000 0.0000000
0.0000000 0.0000000 0.0196078
0.0196078 0.0000000 0.0196078
0.1803922 0.0000000 0.0235294
0.3411765 0.0000000 0.0196078
0.5019608 0.0000000 0.0235294
0.6549020 0.0000000 0.0235294
0.8117647 0.0000000 0.0196078
0.9725490 0.0000000 0.0196078
1.0000000 0.0000000 0.0235294
0.0000000 0.0196078 0.0196078
0.0274510 0.0156863 0.0156863
0.1882353 0.0156863 0.0156863
0.3450980 0.0156863 0.0156863
0.5058824 0.0156863 0.0156863
0.6588235 0.0156863 0.0156863
0.8156863 0.0156863 0.0156863
0.9764706 0.0156863 0.0156863
1.0000000 0.0196078 0.0196078
0.0000000 0.1803922 0.0235294
0.0156863 0.1882353 0.0156863
0.1882353 0.1882353 0.0156863
0.3450980 0.1843137 0.0156863
0.5058824 0.1803922 0.0156863
0.6588235 0.1803922 0.0156863
0.8156863 0.1803922 0.0156863
0.9764706 0.1803922 0.0156863
1.0000000 0.1843137 0.0196078
0.0000000 0.3411765 0.0196078
0.0156863 0.3450980 0.0156863
0.1843137 0.3450980 0.0156863
0.3450980 0.3450980 0.0156863
0.5058824 0.3411765 0.0156863
0.6588235 0.3411765 0.0156863
0.8156863 0.3372549 0.0156863
0.9764706 0.3372549 0.0156863
1.0000000 0.3411765 0.0196078
0.0000000 0.5019608 0.0235294
0.0156863 0.5058824 0.0156863
0.1803922 0.5058824 0.0156863
0.3411765 0.5058824 0.0156863
0.5058824 0.5058824 0.0156863
0.6588235 0.5019608 0.0156863
0.8156863 0.5019608 0.0156863
0.9764706 0.5019608 0.0156863
1.0000000 0.4980392 0.0196078
0.0000000 0.6549020 0.0235294
0.0156863 0.6588235 0.0156863
0.1803922 0.6588235 0.0156863
0.3411765 0.6588235 0.0156863
0.5019608 0.6588235 0.0156863
0.6588235 0.6588235 0.0156863
0.8156863 0.6549020 0.0156863
0.9764706 0.6549020 0.0156863
1.0000000 0.6549020 0.0196078
0.0000000 0.8117647 0.0196078
0.0156863 0.8156863 0.0156863
0.1803922 0.8156863 0.0156863
0.3372549 0.8156863 0.0156863
0.5019608 0.8156863 0.0156863
0.6549020 0.8156863 0.0156863
0.8156863 0.8156863 0.0156863
0.9764706 0.8117647 0.0156863
1.0000000 0.8117647 0.0196078
0.0000000 0.9725490 0.0196078
0.0156863 0.9764706 0.0156863
0.1803922 0.9764706 0.0156863
0.3372549 0.9764706 0.0156863
0.5019608 0.9764706 0.0156863
0.6549020 0.9764706 0.0156863
0.8117647 0.9764706 0.0156863
0.9764706 0.9764706 0.0156863
1.0000000 0.9725490 0.0196078
0.0000000 1.0000000 0.0235294
0.0196078 1.0000000 0.0196078
0.1843137 1.0000000 0.0196078
0.3372549 1.0000000 0.0196078
0.4980392 1.0000000 0.0196078
0.6509804 1.0000000 0.0196078
0.8117647 1.0000000 0.0196078
0.9725490 1.0000000 0.0196078
1.0000000 1.0000000 0.0196078
0.0000000 0.0000000 0.1803922
0.0235294 0.0000000 0.1803922
0.1803922 0.0000000 0.1803922
0.3411765 0.0000000 0.1803922
0.5019608 0.0000000 0.1843137
0.6549020 0.0000000 0.1843137
0.8117647 0.0000000 0.1843137
0.9725490 0.0000000 0.1803922
1.0000000 0.0000000 0.1843137
0.0000000 0.0235294 0.1803922
0.0156863 0.0156863 0.1882353
0.1882353 0.0156863 0.1882353
0.3450980 0.0156863 0.1843137
0.5058824 0.0156863 0.1803922
0.6588235 0.0156863 0.1803922
0.8156863 0.0156863 0.1803922
0.9764706 0.0156863 0.1803922
1.0000000 0.0196078 0.1803922
0.0000000 0.1803922 0.1803922
0.0156863 0.1882353 0.1882353
0.2196078 0.1450980 0.1450980
0.3764706 0.1450980 0.1450980
0.5372549 0.1450980 0.1450980
0.6901961 0.1450980 0.1450980
0.8470588 0.1450980 0.1450980
0.9764706 0.1764706 0.1764706
1.0000000 0.1843137 0.1843137
0.0000000 0.3411765 0.1803922
0.0156863 0.3450980 0.1843137
0.1450980 0.3764706 0.1450980
0.3764706 0.3764706 0.1450980
0.5372549 0.3372549 0.1450980
0.6901961 0.3254902 0.1450980
0.8470588 0.3215686 0.1450980
0.9764706 0.3372549 0.1764706
1.0000000 0.3411765 0.1843137
0.0000000 0.5019608 0.1843137
0.0156863 0.5058824 0.1803922
0.1450980 0.5372549 0.1450980
0.3372549 0.5372549 0.1450980
0.5372549 0.5372549 0.1450980
0.6901961 0.5137255 0.1450980
0.8470588 0.5019608 0.1450980
0.9764706 0.4980392 0.1764706
1.0000000 0.5019608 0.1843137
0.0000000 0.6549020 0.1843137
0.0156863 0.6588235 0.1803922
0.1450980 0.6901961 0.1450980
0.3254902 0.6901961 0.1450980
0.5137255 0.6901961 0.1450980
0.6901961 0.6901961 0.1450980
0.8470588 0.6705883 0.1450980
0.9764706 0.6549020 0.1764706
1.0000000 0.6549020 0.1843137
0.0000000 0.8117647 0.1843137
0.0156863 0.8156863 0.1803922
0.1450980 0.8470588 0.1450980
0.3215686 0.8470588 0.1450980
0.5019608 0.8470588 0.1450980
0.6705883 0.8470588 0.1450980
0.8470588 0.8470588 0.1450980
0.9764706 0.8117647 0.1764706
1.0000000 0.8117647 0.1843137
0.0000000 0.9725490 0.1843137
0.0156863 0.9764706 0.1803922
0.1764706 0.9764706 0.1764706
0.3372549 0.9764706 0.1764706
0.4980392 0.9764706 0.1764706
0.6549020 0.9764706 0.1764706
0.8117647 0.9764706 0.1764706
0.9764706 0.9764706 0.1764706
1.0000000 0.9725490 0.1843137
0.0000000 1.0000000 0.1843137
0.0196078 1.0000000 0.1803922
0.1843137 1.0000000 0.1843137
0.3411765 1.0000000 0.1843137
0.5019608 1.0000000 0.1843137
0.6549020 1.0000000 0.1843137
0.8117647 1.0000000 0.1843137
0.9725490 1.0000000 0.1843137
1.0000000 1.0000000 0.1843137
0.0000000 0.0000000 0.3411765
0.0196078 0.0000000 0.3411765
0.1803922 0.0000000 0.3411765
0.3411765 0.0000000 0.3411765
0.5019608 0.0000000 0.3411765
0.6549020 0.0000000 0.3372549
0.8117647 0.0000000 0.3411765
0.9725490 0.0000000 0.3411765
1.0000000 0.0000000 0.3411765
0.0000000 0.0196078 0.3411765
0.0156863 0.0156863 0.3450980
0.1843137 0.0156863 0.3450980
0.3450980 0.0156863 0.3450980
0.5058824 0.0156863 0.3411765
0.6588235 0.0156863 0.3411765
0.8156863 0.0156863 0.3372549
0.9764706 0.0156863 0.3372549
1.0000000 0.0196078 0.3372549
0.0000000 0.1803922 0.3411765
0.0156863 0.1843137 0.3450980
0.1450980 0.1450980 0.3764706
0.3764706 0.1450980 0.3764706
0.5372549 0.1450980 0.3372549
0.6901961 0.1450980 0.3254902
0.8470588 0.1450980 0.3215686
0.9764706 0.1764706 0.3372549
1.0000000 0.1843137 0.3372549
0.0000000 0.3411765 0.3411765
0.0156863 0.3450980 0.3450980
0.1450980 0.3764706 0.3764706
0.4078431 0.2705882 0.2705882
0.5686275 0.2705882 0.2705882
0.7215686 0.2705882 0.2705882
0.8470588 0.3019608 0.3019608
0.9764706 0.3333333 0.3333333
1.0000000 0.3411765 0.3411765
0.0000000 0.5019608 0.3411765
0.0156863 0.5058824 0.3411765
0.1450980 0.5372549 0.3372549
0.2705882 0.5686275 0.2705882
0.5686275 0.5686275 0.2705882
0.7215686 0.5019608 0.2705882
0.8470588 0.4862745 0.3019608
0.9764706 0.4980392 0.3333333
1.0000000 0.5019608 0.3411765
0.0000000 0.6549020 0.3372549
0.0156863 0.6588235 0.3411765
0.1450980 0.6901961 0.3254902
0.2705882 0.7215686 0.2705882
0.5019608 0.7215686 0.2705882
0.7215686 0.7215686 0.2705882
0.8470588 0.6666667 0.3019608
0.9764706 0.6509804 0.3333333
1.0000000 0.6549020 0.3411765
0.0000000 0.8117647 0.3411765
0.0156863 0.8156863 0.3372549
0.1450980 0.8470588 0.3215686
0.3019608 0.8470588 0.3019608
0.4862745 0.8470588 0.3019608
0.6666667 0.8470588 0.3019608
0.8470588 0.8470588 0.3019608
0.9764706 0.8117647 0.3333333
1.0000000 0.8117647 0.3411765
0.0000000 0.9725490 0.3411765
0.0156863 0.9764706 0.3372549
0.1764706 0.9764706 0.3372549
0.3333333 0.9764706 0.3333333
0.4980392 0.9764706 0.3333333
0.6509804 0.9764706 0.3333333
0.8117647 0.9764706 0.3333333
0.9764706 0.9764706 0.3333333
1.0000000 0.9725490 0.3411765
0.0000000 1.0000000 0.3411765
0.0196078 1.0000000 0.3372549
0.1843137 1.0000000 0.3411765
0.3411765 1.0000000 0.3411765
0.5019608 1.0000000 0.3411765
0.6549020 1.0000000 0.3411765
0.8117647 1.0000000 0.3411765
0.9725490 1.0000000 0.3411765
1.0000000 1.0000000 0.3411765
0.0000000 0.0000000 0.5019608
0.0235294 0.0000000 0.5019608
0.1843137 0.0000000 0.5019608
0.3411765 0.0000000 0.5019608
0.5019608 0.0000000 0.5019608
0.6549020 0.0000000 0.5019608
0.8117647 0.0000000 0.4980392
0.9725490 0.0000000 0.4980392
1.0000000 0.0000000 0.4980392
0.0000000 0.0235294 0.5019608
0.0156863 0.0156863 0.5058824
0.1803922 0.0156863 0.5058824
0.3411765 0.0156863 0.5058824
0.5058824 0.0156863 0.5058824
0.6588235 0.0156863 0.5019608
0.8156863 0.0156863 0.5019608
0.9764706 0.0156863 0.5019608
1.0000000 0.0196078 0.4980392
0.0000000 0.1843137 0.5019608
0.0156863 0.1803922 0.5058824
0.1450980 0.1450980 0.5372549
0.3372549 0.1450980 0.5372549
0.5372549 0.1450980 0.5372549
0.6901961 0.1450980 0.5137255
0.8470588 0.1450980 0.5019608
0.9764706 0.1764706 0.4980392
1.0000000 0.1843137 0.4980392
0.0000000 0.3411765 0.5019608
0.0156863 0.3411765 0.5058824
0.1450980 0.3372549 0.5372549
0.2705882 0.2705882 0.5686275
0.5686275 0.2705882 0.5686275
0.7215686 0.2705882 0.5019608
0.8470588 0.3019608 0.4862745
0.9764706 0.3333333 0.4980392
1.0000000 0.3411765 0.5019608
0.0000000 0.5019608 0.5019608
0.0156863 0.5058824 0.5058824
0.1450980 0.5372549 0.5372549
0.2705882 0.5686275 0.5686275
0.6000000 0.4000000 0.4000000
0.7215686 0.4313726 0.4313726
0.8470588 0.4627451 0.4627451
0.9764706 0.4941176 0.4941176
0.9960784 0.4980392 0.4980392
0.0000000 0.6549020 0.5019608
0.0156863 0.6588235 0.5019608
0.1450980 0.6901961 0.5137255
0.2705882 0.7215686 0.5019608
0.4313726 0.7215686 0.4313726
0.7215686 0.7215686 0.4313726
0.8470588 0.6509804 0.4627451
0.9764706 0.6509804 0.4941176
0.9960784 0.6509804 0.4980392
0.0000000 0.8117647 0.5019608
0.0156863 0.8156863 0.5019608
0.1450980 0.8470588 0.5019608
0.3019608 0.8470588 0.4862745
0.4627451 0.8470588 0.4627451
0.6509804 0.8470588 0.4627451
0.8470588 0.8470588 0.4627451
0.9764706 0.8117647 0.4941176
0.9960784 0.8078431 0.4980392
0.0000000 0.9725490 0.4980392
0.0156863 0.9764706 0.5019608
0.1764706 0.9764706 0.4980392
0.3333333 0.9764706 0.4980392
0.4941176 0.9764706 0.4941176
0.6509804 0.9764706 0.4941176
0.8117647 0.9764706 0.4941176
0.9764706 0.9764706 0.4941176
0.9960784 0.9686275 0.4980392
0.0000000 1.0000000 0.4980392
0.0196078 1.0000000 0.5019608
0.1843137 1.0000000 0.5019608
0.3411765 1.0000000 0.5019608
0.4980392 0.9960784 0.4980392
0.6509804 0.9960784 0.4980392
0.8078431 0.9960784 0.4980392
0.9686275 0.9960784 0.4980392
0.9960784 0.9960784 0.4980392
0.0000000 0.0000000 0.6549020
0.0235294 0.0000000 0.6549020
0.1843137 0.0000000 0.6549020
0.3372549 0.0000000 0.6549020
0.5019608 0.0000000 0.6549020
0.6549020 0.0000000 0.6549020
0.8117647 0.0000000 0.6509804
0.9725490 0.0000000 0.6509804
1.0000000 0.0000000 0.6549020
0.0000000 0.0235294 0.6549020
0.0156863 0.0156863 0.6588235
0.1803922 0.0156863 0.6588235
0.3411765 0.0156863 0.6588235
0.5019608 0.0156863 0.6588235
0.6588235 0.0156863 0.6588235
0.8156863 0.0156863 0.6549020
0.9764706 0.0156863 0.6549020
1.0000000 0.0196078 0.6509804
0.0000000 0.1843137 0.6549020
0.0156863 0.1803922 0.6588235
0.1450980 0.1450980 0.6901961
0.3254902 0.1450980 0.6901961
0.5137255 0.1450980 0.6901961
0.6901961 0.1450980 0.6901961
0.8470588 0.1450980 0.6705883
0.9764706 0.1764706 0.6549020
1.0000000 0.1843137 0.6509804
0.0000000 0.3372549 0.6549020
0.0156863 0.3411765 0.6588235
0.1450980 0.3254902 0.6901961
0.2705882 0.2705882 0.7215686
0.5019608 0.2705882 0.7215686
0.7215686 0.2705882 0.7215686
0.8470588 0.3019608 0.6666667
0.9764706 0.3333333 0.6509804
1.0000000 0.3411765 0.6549020
0.0000000 0.5019608 0.6549020
0.0156863 0.5019608 0.6588235
0.1450980 0.5137255 0.6901961
0.2705882 0.5019608 0.7215686
0.4313726 0.4313726 0.7215686
0.7215686 0.4313726 0.7215686
0.8470588 0.4627451 0.6509804
0.9764706 0.4941176 0.6509804
0.9960784 0.4980392 0.6509804
0.0000000 0.6549020 0.6549020
0.0156863 0.6588235 0.6588235
0.1450980 0.6901961 0.6901961
0.2705882 0.7215686 0.7215686
0.4313726 0.7215686 0.7215686
0.7215686 0.5843138 0.5843138
0.8470588 0.6156863 0.6156863
0.9764706 0.6470588 0.6470588
1.0000000 0.6549020 0.6549020
0.0000000 0.8117647 0.6509804
0.0156863 0.8156863 0.6549020
0.1450980 0.8470588 0.6705883
0.3019608 0.8470588 0.6666667
0.4627451 0.8470588 0.6509804
0.6156863 0.8470588 0.6156863
0.8470588 0.8470588 0.6156863
0.9764706 0.8078431 0.6470588
1.0000000 0.8117647 0.6549020
0.0000000 0.9725490 0.6509804
0.0156863 0.9764706 0.6549020
0.1764706 0.9764706 0.6549020
0.3333333 0.9764706 0.6509804
0.4941176 0.9764706 0.6509804
0.6470588 0.9764706 0.6470588
0.8078431 0.9764706 0.6470588
0.9764706 0.9764706 0.6470588
1.0000000 0.9725490 0.6549020
0.0000000 1.0000000 0.6549020
0.0196078 1.0000000 0.6549020
0.1843137 1.0000000 0.6549020
0.3411765 1.0000000 0.6549020
0.4980392 0.9960784 0.6549020
0.6549020 1.0000000 0.6549020
0.8117647 1.0000000 0.6549020
0.9686275 1.0000000 0.6549020
1.0000000 1.0000000 0.6549020
0.0000000 0.0000000 0.8117647
0.0196078 0.0000000 0.8117647
0.1843137 0.0000000 0.8117647
0.3411765 0.0000000 0.8117647
0.5019608 0.0000000 0.8117647
0.6509804 0.0000000 0.8117647
0.8117647 0.0000000 0.8117647
0.9725490 0.0000000 0.8117647
1.0000000 0.0000000 0.8117647
0.0000000 0.0196078 0.8117647
0.0156863 0.0156863 0.8156863
0.1803922 0.0156863 0.8156863
0.3372549 0.0156863 0.8156863
0.5019608 0.0156863 0.8156863
0.6549020 0.0156863 0.8156863
0.8156863 0.0156863 0.8156863
0.9764706 0.0156863 0.8117647
1.0000000 0.0196078 0.8117647
0.0000000 0.1843137 0.8117647
0.0156863 0.1803922 0.8156863
0.1450980 0.1450980 0.8470588
0.3215686 0.1450980 0.8470588
0.5019608 0.1450980 0.8470588
0.6705883 0.1450980 0.8470588
0.8470588 0.1450980 0.8470588
0.9764706 0.1764706 0.8117647
1.0000000 0.1843137 0.8117647
0.0000000 0.3411765 0.8117647
0.0156863 0.3372549 0.8156863
0.1450980 0.3215686 0.8470588
0.3019608 0.3019608 0.8470588
0.4862745 0.3019608 0.8470588
0.6666667 0.3019608 0.8470588
0.8470588 0.3019608 0.8470588
0.9764706 0.3333333 0.8117647
1.0000000 0.3411765 0.8117647
0.0000000 0.5019608 0.8117647
0.0156863 0.5019608 0.8156863
0.1450980 0.5019608 0.8470588
0.3019608 0.4862745 0.8470588
0.4627451 0.4627451 0.8470588
0.6509804 0.4627451 0.8470588
0.8470588 0.4627451 0.8470588
0.9764706 0.4941176 0.8117647
0.9960784 0.4980392 0.8117647
0.0000000 0.6509804 0.8117647
0.0156863 0.6549020 0.8156863
0.1450980 0.6705883 0.8470588
0.3019608 0.6666667 0.8470588
0.4627451 0.6509804 0.8470588
0.6156863 0.6156863 0.8470588
0.8470588 0.6156863 0.8470588
0.9764706 0.6470588 0.8078431
1.0000000 0.6549020 0.8117647
0.0000000 0.8117647 0.8117647
0.0156863 0.8156863 0.8156863
0.1450980 0.8470588 0.8470588
0.3019608 0.8470588 0.8470588
0.4627451 0.8470588 0.8470588
0.6156863 0.8470588 0.8470588
0.8470588 0.7725490 0.7725490
0.9764706 0.8039216 0.8039216
1.0000000 0.8117647 0.8117647
0.0000000 0.9725490 0.8117647
0.0156863 0.9764706 0.8117647
0.1764706 0.9764706 0.8117647
0.3333333 0.9764706 0.8117647
0.4941176 0.9764706 0.8117647
0.6470588 0.9764706 0.8078431
0.8039216 0.9764706 0.8039216
0.9764706 0.9764706 0.8039216
1.0000000 0.9725490 0.8117647
0.0000000 1.0000000 0.8117647
0.0196078 1.0000000 0.8117647
0.1843137 1.0000000 0.8117647
0.3411765 1.0000000 0.8117647
0.4980392 0.9960784 0.8078431
0.6549020 1.0000000 0.8117647
0.8117647 1.0000000 0.8117647
0.9725490 1.0000000 0.8117647
1.0000000 1.0000000 0.8117647
0.0000000 0.0000000 0.9725490
0.0235294 0.0000000 0.9725490
0.1803922 0.0000000 0.9725490
0.3372549 0.0000000 0.9725490
0.4980392 0.0000000 0.9725490
0.6509804 0.0000000 0.9725490
0.8117647 0.0000000 0.9725490
0.9725490 0.0000000 0.9725490
1.0000000 0.0000000 0.9686275
0.0000000 0.0196078 0.9725490
0.0156863 0.0156863 0.9764706
0.1803922 0.0156863 0.9764706
0.3372549 0.0156863 0.9764706
0.5019608 0.0156863 0.9764706
0.6549020 0.0156863 0.9764706
0.8117647 0.0156863 0.9764706
0.9764706 0.0156863 0.9764706
1.0000000 0.0196078 0.9725490
0.0000000 0.1843137 0.9725490
0.0156863 0.1803922 0.9764706
0.1764706 0.1764706 0.9764706
0.3372549 0.1764706 0.9764706
0.4980392 0.1764706 0.9764706
0.6549020 0.1764706 0.9764706
0.8117647 0.1764706 0.9764706
0.9764706 0.1764706 0.9764706
1.0000000 0.1843137 0.9725490
0.0000000 0.3411765 0.9725490
0.0156863 0.3372549 0.9764706
0.1764706 0.3372549 0.9764706
0.3333333 0.3333333 0.9764706
0.4980392 0.3333333 0.9764706
0.6509804 0.3333333 0.9764706
0.8117647 0.3333333 0.9764706
0.9764706 0.3333333 0.9764706
1.0000000 0.3411765 0.9725490
0.0000000 0.4980392 0.9725490
0.0156863 0.5019608 0.9764706
0.1764706 0.4980392 0.9764706
0.3333333 0.4980392 0.9764706
0.4941176 0.4941176 0.9764706
0.6509804 0.4941176 0.9764706
0.8117647 0.4941176 0.9764706
0.9764706 0.4941176 0.9764706
0.9960784 0.4980392 0.9725490
0.0000000 0.6509804 0.9725490
0.0156863 0.6549020 0.9764706
0.1764706 0.6549020 0.9764706
0.3333333 0.6509804 0.9764706
0.4941176 0.6509804 0.9764706
0.6470588 0.6470588 0.9764706
0.8078431 0.6470588 0.9764706
0.9764706 0.6470588 0.9764706
1.0000000 0.6549020 0.9686275
0.0000000 0.8117647 0.9725490
0.0156863 0.8117647 0.9764706
0.1764706 0.8117647 0.9764706
0.3333333 0.8117647 0.9764706
0.4941176 0.8117647 0.9764706
0.6470588 0.8078431 0.9764706
0.8039216 0.8039216 0.9764706
0.9764706 0.8039216 0.9764706
1.0000000 0.8117647 0.9686275
0.0000000 0.9725490 0.9725490
0.0156863 0.9764706 0.9764706
0.1764706 0.9764706 0.9764706
0.3333333 0.9764706 0.9764706
0.4941176 0.9764706 0.9764706
0.6470588 0.9764706 0.9764706
0.8039216 0.9764706 0.9764706
0.9764706 0.9647059 0.9647059
0.9960784 0.9686275 0.9686275
0.0000000 1.0000000 0.9686275
0.0196078 1.0000000 0.9725490
0.1843137 1.0000000 0.9725490
0.3411765 1.0000000 0.9725490
0.4980392 0.9960784 0.9686275
0.6549020 1.0000000 0.9686275
0.8117647 1.0000000 0.9725490
0.9686275 0.9960784 0.9686275
0.9960784 0.9960784 0.9686275
0.0000000 0.0000000 1.0000000
0.0235294 0.0000000 1.0000000
0.1843137 0.0000000 1.0000000
0.3411765 0.0000000 1.0000000
0.4980392 0.0000000 1.0000000
0.6549020 0.0000000 1.0000000
0.8117647 0.0000000 1.0000000
0.9686275 0.0000000 1.0000000
1.0000000 0.0000000 1.0000000
0.0000000 0.0235294 1.0000000
0.0196078 0.0196078 1.0000000
0.1803922 0.0196078 1.0000000
0.3372549 0.0196078 1.0000000
0.4980392 0.0196078 1.0000000
0.6549020 0.0196078 1.0000000
0.8117647 0.0196078 1.0000000
0.9725490 0.0196078 1.0000000
1.0000000 0.0196078 1.0000000
0.0000000 0.1843137 1.0000000
0.0196078 0.1803922 1.0000000
0.1843137 0.1843137 1.0000000
0.3372549 0.1843137 1.0000000
0.5019608 0.1843137 1.0000000
0.6549020 0.1843137 1.0000000
0.8117647 0.1843137 1.0000000
0.9725490 0.1843137 1.0000000
1.0000000 0.1843137 1.0000000
0.0000000 0.3411765 1.0000000
0.0196078 0.3372549 1.0000000
0.1843137 0.3411765 1.0000000
0.3411765 0.3411765 1.0000000
0.5019608 0.3411765 1.0000000
0.6549020 0.3411765 1.0000000
0.8117647 0.3411765 1.0000000
0.9725490 0.3411765 1.0000000
1.0000000 0.3411765 1.0000000
0.0000000 0.4980392 1.0000000
0.0196078 0.5019608 1.0000000
0.1843137 0.5019608 1.0000000
0.3411765 0.5019608 1.0000000
0.4980392 0.4980392 0.9960784
0.6509804 0.4980392 0.9960784
0.8117647 0.4980392 0.9960784
0.9686275 0.4980392 0.9960784
0.9960784 0.4980392 0.9960784
0.0000000 0.6549020 1.0000000
0.0196078 0.6549020 1.0000000
0.1843137 0.6549020 1.0000000
0.3411765 0.6549020 1.0000000
0.4980392 0.6549020 0.9960784
0.6549020 0.6549020 1.0000000
0.8117647 0.6549020 1.0000000
0.9686275 0.6549020 1.0000000
1.0000000 0.6549020 1.0000000
0.0000000 0.8117647 1.0000000
0.0196078 0.8117647 1.0000000
0.1843137 0.8117647 1.0000000
0.3411765 0.8117647 1.0000000
0.4980392 0.8078431 0.9960784
0.6549020 0.8117647 1.0000000
0.8117647 0.8117647 1.0000000
0.9686275 0.8117647 1.0000000
1.0000000 0.8117647 1.0000000
0.0000000 0.9686275 1.0000000
0.0196078 0.9725490 1.0000000
0.1843137 0.9725490 1.0000000
0.3411765 0.9725490 1.0000000
0.4980392 0.9686275 0.9960784
0.6549020 0.9686275 1.0000000
0.8117647 0.9725490 1.0000000
0.9686275 0.9686275 0.9960784
0.9960784 0.9686275 0.9960784
0.0000000 1.0000000 1.0000000
0.0196078 1.0000000 1.0000000
0.1843137 1.0000000 1.0000000
0.3411765 1.0000000 1.0000000
0.4980392 0.9960784 0.9960784
0.6549020 1.0000000 1.0000000
0.8117647 1.0000000 1.0000000
0.9686275 0.9960784 0.9960784
1.0000000 1.0000000 1.0000000
