rust/creative_luts/lofi/lut.cube
TITLE "Pixel Craft Creative: lofi"
LUT_3D_SIZE 5
DOMAIN_MIN 0.0 0.0 0.0
DOMAIN_MAX 1.0 1.0 1.0
0.0000000 0.0000000 0.0000000
0.1803922 0.0000000 0.0000000
0.5019608 0.0000000 0.0000000
0.8117647 0.0000000 0.0000000
1.0000000 0.0000000 0.0000000
0.0000000 0.1803922 0.0000000
0.1803922 0.1803922 0.0000000
0.5019608 0.1843137 0.0000000
0.8117647 0.1843137 0.0000000
1.0000000 0.1803922 0.0000000
0.0000000 0.5019608 0.0000000
0.1843137 0.5019608 0.0000000
0.5019608 0.5019608 0.0000000
0.8117647 0.5019608 0.0000000
1.0000000 0.5019608 0.0000000
0.0000000 0.8117647 0.0000000
0.1843137 0.8117647 0.0000000
0.5019608 0.8117647 0.0000000
0.8117647 0.8117647 0.0000000
1.0000000 0.8117647 0.0000000
0.0000000 1.0000000 0.0000000
0.1803922 1.0000000 0.0000000
0.4980392 1.0000000 0.0000000
0.8117647 1.0000000 0.0000000
1.0000000 1.0000000 0.0000000
0.0000000 0.0000000 0.1803922
0.1803922 0.0000000 0.1803922
0.5019608 0.0000000 0.1843137
0.8117647 0.0000000 0.1843137
1.0000000 0.0000000 0.1843137
0.0000000 0.1803922 0.1803922
0.2196078 0.1450980 0.1450980
0.5372549 0.1450980 0.1450980
0.8470588 0.1450980 0.1450980
1.0000000 0.1843137 0.1843137
0.0000000 0.5019608 0.1843137
0.1450980 0.5372549 0.1450980
0.5372549 0.5372549 0.1450980
0.8470588 0.5019608 0.1450980
1.0000000 0.5019608 0.1843137
0.0000000 0.8117647 0.1843137
0.1450980 0.8470588 0.1450980
0.5019608 0.8470588 0.1450980
0.8470588 0.8470588 0.1450980
1.0000000 0.8117647 0.1843137
0.0000000 1.0000000 0.1843137
0.1843137 1.0000000 0.1843137
0.5019608 1.0000000 0.1843137
0.8117647 1.0000000 0.1843137
1.0000000 1.0000000 0.1843137
0.0000000 0.0000000 0.5019608
0.1843137 0.0000000 0.5019608
0.5019608 0.0000000 0.5019608
0.8117647 0.0000000 0.4980392
1.0000000 0.0000000 0.4980392
0.0000000 0.1843137 0.5019608
0.1450980 0.1450980 0.5372549
0.5372549 0.1450980 0.5372549
0.8470588 0.1450980 0.5019608
1.0000000 0.1843137 0.4980392
0.0000000 0.5019608 0.5019608
0.1450980 0.5372549 0.5372549
0.6000000 0.4000000 0.4000000
0.8470588 0.4627451 0.4627451
0.9960784 0.4980392 0.4980392
0.0000000 0.8117647 0.5019608
0.1450980 0.8470588 0.5019608
0.4627451 0.8470588 0.4627451
0.8470588 0.8470588 0.4627451
0.9960784 0.8078431 0.4980392
0.0000000 1.0000000 0.4980392
0.1843137 1.0000000 0.5019608
0.4980392 0.9960784 0.4980392
0.8078431 0.9960784 0.4980392
0.9960784 0.9960784 0.4980392
0.0000000 0.0000000 0.8117647
0.1843137 0.0000000 0.8117647
0.5019608 0.0000000 0.8117647
0.8117647 0.0000000 0.8117647
1.0000000 0.0000000 0.8117647
0.0000000 0.1843137 0.8117647
0.1450980 0.1450980 0.8470588
0.5019608 0.1450980 0.8470588
0.8470588 0.1450980 0.8470588
1.0000000 0.1843137 0.8117647
0.0000000 0.5019608 0.8117647
0.1450980 0.5019608 0.8470588
0.4627451 0.4627451 0.8470588
0.8470588 0.4627451 0.8470588
0.9960784 0.4980392 0.8117647
0.0000000 0.8117647 0.8117647
0.1450980 0.8470588 0.8470588
0.4627451 0.8470588 0.8470588
0.8470588 0.7725490 0.7725490
1.0000000 0.8117647 0.8117647
0.0000000 1.0000000 0.8117647
0.1843137 1.0000000 0.8117647
0.4980392 0.9960784 0.8078431
0.8117647 1.0000000 0.8117647
1.0000000 1.0000000 0.8117647
0.0000000 0.0000000 1.0000000
0.1843137 0.0000000 1.0000000
0.4980392 0.0000000 1.0000000
0.8117647 0.0000000 1.0000000
1.0000000 0.0000000 1.0000000
0.0000000 0.1843137 1.0000000
0.1843137 0.1843137 1.0000000
0.5019608 0.1843137 1.0000000
0.8117647 0.1843137 1.0000000
1.0000000 0.1843137 1.0000000
0.0000000 0.4980392 1.0000000
0.1843137 0.5019608 1.0000000
0.4980392 0.4980392 0.9960784
0.8117647 0.4980392 0.9960784
0.9960784 0.4980392 0.9960784
0.0000000 0.8117647 1.0000000
0.1843137 0.8117647 1.0000000
0.4980392 0.8078431 0.9960784
0.8117647 0.8117647 1.0000000
1.0000000 0.8117647 1.0000000
0.0000000 1.0000000 1.0000000
0.1843137 1.0000000 1.0000000
0.4980392 0.9960784 0.9960784
0.8117647 1.0000000 1.0000000
1.0000000 1.0000000 1.0000000
