rust/creative_luts/lofi/lut.cube
TITLE "Pixel Craft Creative: lofi"
LUT_3D_SIZE 33
DOMAIN_MIN 0.0 0.0 0.0
DOMAIN_MAX 1.0 1.0 1.0
0.0000000 0.0000000 0.0000000
0.0000000 0.0000000 0.0000000
0.0000000 0.0000000 0.0000000
0.0000000 0.0000000 0.0000000
0.0196078 0.0000000 0.0000000
0.0588235 0.0000000 0.0000000
0.0980392 0.0000000 0.0000000
0.1372549 0.0000000 0.0000000
0.1803922 0.0000000 0.0000000
0.2196078 0.0000000 0.0000000
0.2627451 0.0000000 0.0000000
0.3019608 0.0000000 0.0000000
0.3411765 0.0000000 0.0000000
0.3803922 0.0000000 0.0000000
0.4196078 0.0000000 0.0000000
0.4588235 0.0000000 0.0000000
0.5019608 0.0000000 0.0000000
0.5333334 0.0000000 0.0000000
0.5725490 0.0000000 0.0000000
0.6156863 0.0000000 0.0000000
0.6549020 0.0000000 0.0000000
0.6941177 0.0000000 0.0000000
0.7333333 0.0000000 0.0000000
0.7725490 0.0000000 0.0000000
0.8117647 0.0000000 0.0000000
0.8509804 0.0000000 0.0000000
0.8901961 0.0000000 0.0000000
0.9294118 0.0000000 0.0000000
0.9725490 0.0000000 0.0000000
1.0000000 0.0000000 0.0000000
1.0000000 0.0000000 0.0000000
1.0000000 0.0000000 0.0000000
1.0000000 0.0000000 0.0000000
0.0000000 0.0000000 0.0000000
0.0000000 0.0000000 0.0000000
0.0000000 0.0000000 0.0000000
0.0000000 0.0000000 0.0000000
0.0196078 0.0000000 0.0000000
0.0588235 0.0000000 0.0000000
0.0980392 0.0000000 0.0000000
0.1372549 0.0000000 0.0000000
0.1803922 0.0000000 0.0000000
0.2196078 0.0000000 0.0000000
0.2627451 0.0000000 0.0000000
0.3019608 0.0000000 0.0000000
0.3411765 0.0000000 0.0000000
0.3803922 0.0000000 0.0000000
0.4196078 0.0000000 0.0000000
0.4588235 0.0000000 0.0000000
0.5019608 0.0000000 0.0000000
0.5333334 0.0000000 0.0000000
0.5725490 0.0000000 0.0000000
0.6156863 0.0000000 0.0000000
0.6549020 0.0000000 0.0000000
0.6941177 0.0000000 0.0000000
0.7333333 0.0000000 0.0000000
0.7725490 0.0000000 0.0000000
0.8117647 0.0000000 0.0000000
0.8509804 0.0000000 0.0000000
0.8901961 0.0000000 0.0000000
0.9294118 0.0000000 0.0000000
0.9725490 0.0000000 0.0000000
1.0000000 0.0000000 0.0000000
1.0000000 0.0000000 0.0000000
1.0000000 0.0000000 0.0000000
1.0000000 0.0000000 0.0000000
0.0000000 0.0000000 0.0000000
0.0000000 0.0000000 0.0000000
0.0000000 0.0000000 0.0000000
0.0000000 0.0000000 0.0000000
0.0196078 0.0000000 0.0000000
0.0588235 0.0000000 0.0000000
0.0980392 0.0000000 0.0000000
0.1372549 0.0000000 0.0000000
0.1803922 0.0000000 0.0000000
0.2196078 0.0000000 0.0000000
0.2627451 0.0000000 0.0000000
0.3019608 0.0000000 0.0000000
0.3411765 0.0000000 0.0000000
0.3803922 0.0000000 0.0000000
0.4196078 0.0000000 0.0000000
0.4588235 0.0000000 0.0000000
0.5019608 0.0000000 0.0000000
0.5333334 0.0000000 0.0000000
0.5725490 0.0000000 0.0000000
0.6156863 0.0000000 0.0000000
0.6549020 0.0000000 0.0000000
0.6941177 0.0000000 0.0000000
0.7333333 0.0000000 0.0000000
0.7725490 0.0000000 0.0000000
0.8117647 0.0000000 0.0000000
0.8509804 0.0000000 0.0000000
0.8901961 0.0000000 0.0000000
0.9294118 0.0000000 0.0000000
0.9725490 0.0000000 0.0000000
1.0000000 0.0000000 0.0000000
1.0000000 0.0000000 0.0000000
1.0000000 0.0000000 0.0000000
1.0000000 0.0000000 0.0000000
0.0000000 0.0000000 0.0000000
0.0000000 0.0000000 0.0000000
0.0000000 0.0000000 0.0000000
0.0000000 0.0000000 0.0000000
0.0196078 0.0000000 0.0000000
0.0588235 0.0000000 0.0000000
0.0980392 0.0000000 0.0000000
0.1372549 0.0000000 0.0000000
0.1803922 0.0000000 0.0000000
0.2196078 0.0000000 0.0000000
0.2627451 0.0000000 0.0000000
0.3019608 0.0000000 0.0000000
0.3411765 0.0000000 0.0000000
0.3803922 0.0000000 0.0000000
0.4196078 0.0000000 0.0000000
0.4588235 0.0000000 0.0000000
0.5019608 0.0000000 0.0000000
0.5333334 0.0000000 0.0000000
0.5725490 0.0000000 0.0000000
0.6156863 0.0000000 0.0000000
0.6549020 0.0000000 0.0000000
0.6941177 0.0000000 0.0000000
0.7333333 0.0000000 0.0000000
0.7725490 0.0000000 0.0000000
0.8117647 0.0000000 0.0000000
0.8509804 0.0000000 0.0000000
0.8901961 0.0000000 0.0000000
0.9294118 0.0000000 0.0000000
0.9725490 0.0000000 0.0000000
1.0000000 0.0000000 0.0000000
1.0000000 0.0000000 0.0000000
1.0000000 0.0000000 0.0000000
1.0000000 0.0000000 0.0000000
0.0000000 0.0196078 0.0000000
0.0000000 0.0196078 0.0000000
0.0000000 0.0196078 0.0000000
0.0000000 0.0196078 0.0000000
0.0196078 0.0196078 0.0000000
0.0588235 0.0235294 0.0000000
0.0980392 0.0235294 0.0000000
0.1372549 0.0235294 0.0000000
0.1803922 0.0235294 0.0000000
0.2196078 0.0235294 0.0000000
0.2627451 0.0196078 0.0000000
0.3019608 0.0196078 0.0000000
0.3411765 0.0196078 0.0000000
0.3803922 0.0196078 0.0000000
0.4196078 0.0235294 0.0000000
0.4588235 0.0196078 0.0000000
0.5019608 0.0235294 0.0000000
0.5333334 0.0196078 0.0000000
0.5725490 0.0235294 0.0000000
0.6156863 0.0196078 0.0000000
0.6549020 0.0196078 0.0000000
0.6941177 0.0196078 0.0000000
0.7333333 0.0196078 0.0000000
0.7725490 0.0196078 0.0000000
0.8117647 0.0196078 0.0000000
0.8509804 0.0196078 0.0000000
0.8901961 0.0235294 0.0000000
0.9294118 0.0235294 0.0000000
0.9725490 0.0196078 0.0000000
1.0000000 0.0196078 0.0000000
1.0000000 0.0196078 0.0000000
1.0000000 0.0196078 0.0000000
1.0000000 0.0196078 0.0000000
0.0000000 0.0588235 0.0000000
0.0000000 0.0588235 0.0000000
0.0000000 0.0588235 0.0000000
0.0000000 0.0588235 0.0000000
0.0235294 0.0588235 0.0000000
0.0588235 0.0588235 0.0000000
0.0980392 0.0588235 0.0000000
0.1372549 0.0588235 0.0000000
0.1803922 0.0627451 0.0000000
0.2196078 0.0627451 0.0000000
0.2627451 0.0588235 0.0000000
0.3019608 0.0588235 0.0000000
0.3411765 0.0588235 0.0000000
0.3803922 0.0588235 0.0000000
0.4196078 0.0627451 0.0000000
0.4588235 0.0588235 0.0000000
0.5019608 0.0627451 0.0000000
0.5333334 0.0588235 0.0000000
0.5725490 0.0627451 0.0000000
0.6156863 0.0627451 0.0000000
0.6549020 0.0627451 0.0000000
0.6941177 0.0588235 0.0000000
0.7333333 0.0627451 0.0000000
0.7725490 0.0627451 0.0000000
0.8117647 0.0627451 0.0000000
0.8509804 0.0627451 0.0000000
0.8901961 0.0588235 0.0000000
0.9294118 0.0588235 0.0000000
0.9725490 0.0588235 0.0000000
1.0000000 0.0588235 0.0000000
1.0000000 0.0588235 0.0000000
1.0000000 0.0588235 0.0000000
1.0000000 0.0588235 0.0000000
0.0000000 0.0980392 0.0000000
0.0000000 0.0980392 0.0000000
0.0000000 0.0980392 0.0000000
0.0000000 0.0980392 0.0000000
0.0235294 0.0980392 0.0000000
0.0588235 0.0980392 0.0000000
0.0980392 0.0980392 0.0000000
0.1372549 0.1019608 0.0000000
0.1803922 0.1019608 0.0000000
0.2196078 0.1019608 0.0000000
0.2627451 0.0980392 0.0000000
0.3019608 0.1019608 0.0000000
0.3411765 0.0980392 0.0000000
0.3803922 0.1019608 0.0000000
0.4196078 0.1019608 0.0000000
0.4588235 0.0980392 0.0000000
0.5019608 0.1019608 0.0000000
0.5333334 0.1019608 0.0000000
0.5725490 0.0980392 0.0000000
0.6156863 0.0980392 0.0000000
0.6549020 0.1019608 0.0000000
0.6941177 0.1019608 0.0000000
0.7333333 0.1019608 0.0000000
0.7725490 0.1019608 0.0000000
0.8117647 0.0980392 0.0000000
0.8509804 0.0980392 0.0000000
0.8901961 0.1019608 0.0000000
0.9294118 0.0980392 0.0000000
0.9725490 0.1019608 0.0000000
1.0000000 0.0980392 0.0000000
1.0000000 0.0980392 0.0000000
1.0000000 0.0980392 0.0000000
1.0000000 0.0980392 0.0000000
0.0000000 0.1372549 0.0000000
0.0000000 0.1372549 0.0000000
0.0000000 0.1372549 0.0000000
0.0000000 0.1372549 0.0000000
0.0235294 0.1372549 0.0000000
0.0588235 0.1372549 0.0000000
0.1019608 0.1372549 0.0000000
0.1372549 0.1372549 0.0000000
0.1803922 0.1372549 0.0000000
0.2196078 0.1411765 0.0000000
0.2627451 0.1411765 0.0000000
0.3019608 0.1411765 0.0000000
0.3411765 0.1372549 0.0000000
0.3803922 0.1411765 0.0000000
0.4196078 0.1411765 0.0000000
0.4588235 0.1372549 0.0000000
0.5019608 0.1411765 0.0000000
0.5333334 0.1411765 0.0000000
0.5725490 0.1411765 0.0000000
0.6156863 0.1411765 0.0000000
0.6549020 0.1411765 0.0000000
0.6941177 0.1372549 0.0000000
0.7333333 0.1372549 0.0000000
0.7725490 0.1372549 0.0000000
0.8117647 0.1411765 0.0000000
0.8509804 0.1411765 0.0000000
0.8901961 0.1411765 0.0000000
0.9294118 0.1411765 0.0000000
0.9725490 0.1372549 0.0000000
1.0000000 0.1372549 0.0000000
1.0000000 0.1372549 0.0000000
1.0000000 0.1372549 0.0000000
1.0000000 0.1372549 0.0000000
0.0000000 0.1803922 0.0000000
0.0000000 0.1803922 0.0000000
0.0000000 0.1803922 0.0000000
0.0000000 0.1803922 0.0000000
0.0235294 0.1803922 0.0000000
0.0588235 0.1803922 0.0000000
0.0980392 0.1803922 0.0000000
0.1372549 0.1803922 0.0000000
0.1803922 0.1803922 0.0000000
0.2196078 0.1803922 0.0000000
0.2627451 0.1843137 0.0000000
0.3019608 0.1843137 0.0000000
0.3411765 0.1843137 0.0000000
0.3803922 0.1803922 0.0000000
0.4196078 0.1843137 0.0000000
0.4588235 0.1843137 0.0000000
0.5019608 0.1843137 0.0000000
0.5333334 0.1803922 0.0000000
0.5725490 0.1803922 0.0000000
0.6156863 0.1803922 0.0000000
0.6549020 0.1843137 0.0000000
0.6941177 0.1843137 0.0000000
0.7333333 0.1843137 0.0000000
0.7725490 0.1843137 0.0000000
0.8117647 0.1843137 0.0000000
0.8509804 0.1843137 0.0000000
0.8901961 0.1843137 0.0000000
0.9294118 0.1803922 0.0000000
0.9725490 0.1843137 0.0000000
1.0000000 0.1803922 0.0000000
1.0000000 0.1803922 0.0000000
1.0000000 0.1803922 0.0000000
1.0000000 0.1803922 0.0000000
0.0000000 0.2196078 0.0000000
0.0000000 0.2196078 0.0000000
0.0000000 0.2196078 0.0000000
0.0000000 0.2196078 0.0000000
0.0196078 0.2196078 0.0000000
0.0627451 0.2196078 0.0000000
0.0980392 0.2196078 0.0000000
0.1372549 0.2196078 0.0000000
0.1803922 0.2196078 0.0000000
0.2196078 0.2196078 0.0000000
0.2627451 0.2235294 0.0000000
0.3019608 0.2235294 0.0000000
0.3411765 0.2235294 0.0000000
0.3803922 0.2196078 0.0000000
0.4196078 0.2196078 0.0000000
0.4588235 0.2235294 0.0000000
0.5019608 0.2235294 0.0000000
0.5333334 0.2235294 0.0000000
0.5725490 0.2196078 0.0000000
0.6156863 0.2235294 0.0000000
0.6549020 0.2235294 0.0000000
0.6941177 0.2235294 0.0000000
0.7333333 0.2196078 0.0000000
0.7725490 0.2235294 0.0000000
0.8117647 0.2235294 0.0000000
0.8509804 0.2196078 0.0000000
0.8901961 0.2235294 0.0000000
0.9294118 0.2235294 0.0000000
0.9725490 0.2235294 0.0000000
1.0000000 0.2196078 0.0000000
1.0000000 0.2196078 0.0000000
1.0000000 0.2196078 0.0000000
1.0000000 0.2196078 0.0000000
0.0000000 0.2627451 0.0000000
0.0000000 0.2627451 0.0000000
0.0000000 0.2627451 0.0000000
0.0000000 0.2627451 0.0000000
0.0235294 0.2627451 0.0000000
0.0627451 0.2627451 0.0000000
0.0980392 0.2627451 0.0000000
0.1411765 0.2627451 0.0000000
0.1843137 0.2627451 0.0000000
0.2196078 0.2627451 0.0000000
0.2627451 0.2627451 0.0000000
0.3019608 0.2627451 0.0000000
0.3411765 0.2627451 0.0000000
0.3803922 0.2627451 0.0000000
0.4196078 0.2627451 0.0000000
0.4588235 0.2627451 0.0000000
0.5019608 0.2627451 0.0000000
0.5333334 0.2627451 0.0000000
0.5725490 0.2627451 0.0000000
0.6156863 0.2627451 0.0000000
0.6549020 0.2627451 0.0000000
0.6941177 0.2627451 0.0000000
0.7333333 0.2627451 0.0000000
0.7725490 0.2627451 0.0000000
0.8117647 0.2627451 0.0000000
0.8509804 0.2588235 0.0000000
0.8901961 0.2627451 0.0000000
0.9294118 0.2588235 0.0000000
0.9725490 0.2588235 0.0000000
1.0000000 0.2627451 0.0000000
1.0000000 0.2627451 0.0000000
1.0000000 0.2627451 0.0000000
1.0000000 0.2627451 0.0000000
0.0000000 0.3019608 0.0000000
0.0000000 0.3019608 0.0000000
0.0000000 0.3019608 0.0000000
0.0000000 0.3019608 0.0000000
0.0196078 0.3019608 0.0000000
0.0588235 0.3019608 0.0000000
0.1019608 0.3019608 0.0000000
0.1372549 0.3019608 0.0000000
0.1843137 0.3019608 0.0000000
0.2196078 0.3019608 0.0000000
0.2588235 0.3019608 0.0000000
0.3019608 0.3019608 0.0000000
0.3411765 0.3019608 0.0000000
0.3803922 0.2980392 0.0000000
0.4196078 0.3019608 0.0000000
0.4588235 0.3019608 0.0000000
0.5019608 0.3019608 0.0000000
0.5333334 0.3019608 0.0000000
0.5725490 0.3019608 0.0000000
0.6156863 0.3019608 0.0000000
0.6549020 0.2980392 0.0000000
0.6941177 0.3019608 0.0000000
0.7333333 0.3019608 0.0000000
0.7725490 0.3019608 0.0000000
0.8117647 0.2980392 0.0000000
0.8509804 0.3019608 0.0000000
0.8901961 0.3019608 0.0000000
0.9294118 0.3019608 0.0000000
0.9725490 0.3019608 0.0000000
1.0000000 0.3019608 0.0000000
1.0000000 0.3019608 0.0000000
1.0000000 0.3019608 0.0000000
1.0000000 0.3019608 0.0000000
0.0000000 0.3411765 0.0000000
0.0000000 0.3411765 0.0000000
0.0000000 0.3411765 0.0000000
0.0000000 0.3411765 0.0000000
0.0235294 0.3411765 0.0000000
0.0588235 0.3411765 0.0000000
0.0980392 0.3411765 0.0000000
0.1372549 0.3411765 0.0000000
0.1803922 0.3411765 0.0000000
0.2196078 0.3411765 0.0000000
0.2588235 0.3411765 0.0000000
0.3019608 0.3411765 0.0000000
0.3411765 0.3411765 0.0000000
0.3803922 0.3411765 0.0000000
0.4196078 0.3411765 0.0000000
0.4588235 0.3411765 0.0000000
0.5019608 0.3411765 0.0000000
0.5333334 0.3411765 0.0000000
0.5725490 0.3411765 0.0000000
0.6156863 0.3411765 0.0000000
0.6549020 0.3411765 0.0000000
0.6941177 0.3411765 0.0000000
0.7333333 0.3411765 0.0000000
0.7725490 0.3411765 0.0000000
0.8117647 0.3411765 0.0000000
0.8509804 0.3411765 0.0000000
0.8901961 0.3372549 0.0000000
0.9294118 0.3411765 0.0000000
0.9725490 0.3411765 0.0000000
1.0000000 0.3411765 0.0000000
1.0000000 0.3411765 0.0000000
1.0000000 0.3411765 0.0000000
1.0000000 0.3411765 0.0000000
0.0000000 0.3803922 0.0000000
0.0000000 0.3803922 0.0000000
0.0000000 0.3803922 0.0000000
0.0000000 0.3803922 0.0000000
0.0196078 0.3803922 0.0000000
0.0627451 0.3803922 0.0000000
0.1019608 0.3803922 0.0000000
0.1411765 0.3803922 0.0000000
0.1803922 0.3803922 0.0000000
0.2235294 0.3803922 0.0000000
0.2627451 0.3803922 0.0000000
0.2980392 0.3803922 0.0000000
0.3411765 0.3803922 0.0000000
0.3803922 0.3803922 0.0000000
0.4196078 0.3803922 0.0000000
0.4588235 0.3803922 0.0000000
0.5019608 0.3803922 0.0000000
0.5333334 0.3803922 0.0000000
0.5725490 0.3803922 0.0000000
0.6156863 0.3803922 0.0000000
0.6549020 0.3803922 0.0000000
0.6941177 0.3764706 0.0000000
0.7333333 0.3803922 0.0000000
0.7725490 0.3764706 0.0000000
0.8117647 0.3803922 0.0000000
0.8509804 0.3803922 0.0000000
0.8901961 0.3803922 0.0000000
0.9294118 0.3764706 0.0000000
0.9725490 0.3764706 0.0000000
1.0000000 0.3803922 0.0000000
1.0000000 0.3803922 0.0000000
1.0000000 0.3803922 0.0000000
1.0000000 0.3803922 0.0000000
0.0000000 0.4196078 0.0000000
0.0000000 0.4196078 0.0000000
0.0000000 0.4196078 0.0000000
0.0000000 0.4196078 0.0000000
0.0196078 0.4196078 0.0000000
0.0588235 0.4196078 0.0000000
0.0980392 0.4196078 0.0000000
0.1411765 0.4196078 0.0000000
0.1843137 0.4196078 0.0000000
0.2235294 0.4196078 0.0000000
0.2627451 0.4196078 0.0000000
0.3019608 0.4196078 0.0000000
0.3411765 0.4196078 0.0000000
0.3803922 0.4196078 0.0000000
0.4196078 0.4196078 0.0000000
0.4588235 0.4196078 0.0000000
0.5019608 0.4196078 0.0000000
0.5333334 0.4196078 0.0000000
0.5725490 0.4156863 0.0000000
0.6156863 0.4196078 0.0000000
0.6549020 0.4196078 0.0000000
0.6941177 0.4196078 0.0000000
0.7333333 0.4196078 0.0000000
0.7725490 0.4196078 0.0000000
0.8117647 0.4196078 0.0000000
0.8509804 0.4156863 0.0000000
0.8901961 0.4196078 0.0000000
0.9294118 0.4196078 0.0000000
0.9725490 0.4196078 0.0000000
1.0000000 0.4196078 0.0000000
1.0000000 0.4196078 0.0000000
1.0000000 0.4196078 0.0000000
1.0000000 0.4196078 0.0000000
0.0000000 0.4588235 0.0000000
0.0000000 0.4588235 0.0000000
0.0000000 0.4588235 0.0000000
0.0000000 0.4588235 0.0000000
0.0196078 0.4588235 0.0000000
0.0588235 0.4588235 0.0000000
0.0980392 0.4588235 0.0000000
0.1372549 0.4588235 0.0000000
0.1843137 0.4588235 0.0000000
0.2235294 0.4588235 0.0000000
0.2627451 0.4588235 0.0000000
0.3019608 0.4588235 0.0000000
0.3411765 0.4588235 0.0000000
0.3803922 0.4588235 0.0000000
0.4196078 0.4588235 0.0000000
0.4588235 0.4588235 0.0000000
0.5019608 0.4588235 0.0000000
0.5333334 0.4588235 0.0000000
0.5725490 0.4588235 0.0000000
0.6156863 0.4588235 0.0000000
0.6549020 0.4588235 0.0000000
0.6941177 0.4588235 0.0000000
0.7333333 0.4588235 0.0000000
0.7725490 0.4588235 0.0000000
0.8117647 0.4588235 0.0000000
0.8509804 0.4588235 0.0000000
0.8901961 0.4588235 0.0000000
0.9294118 0.4588235 0.0000000
0.9725490 0.4588235 0.0000000
1.0000000 0.4588235 0.0000000
1.0000000 0.4588235 0.0000000
1.0000000 0.4588235 0.0000000
1.0000000 0.4588235 0.0000000
0.0000000 0.5019608 0.0000000
0.0000000 0.5019608 0.0000000
0.0000000 0.5019608 0.0000000
0.0000000 0.5019608 0.0000000
0.0235294 0.5019608 0.0000000
0.0627451 0.5019608 0.0000000
0.1019608 0.5019608 0.0000000
0.1411765 0.5019608 0.0000000
0.1843137 0.5019608 0.0000000
0.2235294 0.5019608 0.0000000
0.2627451 0.5019608 0.0000000
0.3019608 0.5019608 0.0000000
0.3411765 0.5019608 0.0000000
0.3803922 0.5019608 0.0000000
0.4196078 0.5019608 0.0000000
0.4588235 0.5019608 0.0000000
0.5019608 0.5019608 0.0000000
0.5333334 0.5019608 0.0000000
0.5725490 0.4980392 0.0000000
0.6156863 0.5019608 0.0000000
0.6549020 0.5019608 0.0000000
0.6941177 0.5019608 0.0000000
0.7333333 0.5019608 0.0000000
0.7725490 0.5019608 0.0000000
0.8117647 0.5019608 0.0000000
0.8509804 0.5019608 0.0000000
0.8901961 0.5019608 0.0000000
0.9294118 0.5019608 0.0000000
0.9725490 0.5019608 0.0000000
1.0000000 0.5019608 0.0000000
1.0000000 0.5019608 0.0000000
1.0000000 0.5019608 0.0000000
1.0000000 0.5019608 0.0000000
0.0000000 0.5333334 0.0000000
0.0000000 0.5333334 0.0000000
0.0000000 0.5333334 0.0000000
0.0000000 0.5333334 0.0000000
0.0235294 0.5333334 0.0000000
0.0588235 0.5333334 0.0000000
0.0980392 0.5333334 0.0000000
0.1411765 0.5333334 0.0000000
0.1803922 0.5333334 0.0000000
0.2235294 0.5333334 0.0000000
0.2627451 0.5333334 0.0000000
0.2980392 0.5333334 0.0000000
0.3411765 0.5333334 0.0000000
0.3803922 0.5333334 0.0000000
0.4156863 0.5333334 0.0000000
0.4588235 0.5333334 0.0000000
0.4980392 0.5333334 0.0000000
0.5333334 0.5333334 0.0000000
0.5725490 0.5333334 0.0000000
0.6156863 0.5333334 0.0000000
0.6549020 0.5333334 0.0000000
0.6941177 0.5333334 0.0000000
0.7333333 0.5333334 0.0000000
0.7725490 0.5333334 0.0000000
0.8117647 0.5294118 0.0000000
0.8509804 0.5333334 0.0000000
0.8901961 0.5333334 0.0000000
0.9294118 0.5333334 0.0000000
0.9725490 0.5333334 0.0000000
1.0000000 0.5333334 0.0000000
1.0000000 0.5333334 0.0000000
1.0000000 0.5333334 0.0000000
1.0000000 0.5333334 0.0000000
0.0000000 0.5725490 0.0000000
0.0000000 0.5725490 0.0000000
0.0000000 0.5725490 0.0000000
0.0000000 0.5725490 0.0000000
0.0196078 0.5725490 0.0000000
0.0627451 0.5725490 0.0000000
0.1019608 0.5725490 0.0000000
0.1411765 0.5725490 0.0000000
0.1803922 0.5725490 0.0000000
0.2196078 0.5725490 0.0000000
0.2627451 0.5725490 0.0000000
0.3019608 0.5725490 0.0000000
0.3411765 0.5725490 0.0000000
0.3803922 0.5725490 0.0000000
0.4156863 0.5725490 0.0000000
0.4588235 0.5725490 0.0000000
0.5019608 0.5725490 0.0000000
0.5333334 0.5725490 0.0000000
0.5725490 0.5725490 0.0000000
0.6156863 0.5725490 0.0000000
0.6549020 0.5725490 0.0000000
0.6941177 0.5725490 0.0000000
0.7333333 0.5725490 0.0000000
0.7725490 0.5725490 0.0000000
0.8117647 0.5725490 0.0000000
0.8509804 0.5725490 0.0000000
0.8901961 0.5725490 0.0000000
0.9294118 0.5725490 0.0000000
0.9725490 0.5725490 0.0000000
1.0000000 0.5725490 0.0000000
1.0000000 0.5725490 0.0000000
1.0000000 0.5725490 0.0000000
1.0000000 0.5725490 0.0000000
0.0000000 0.6156863 0.0000000
0.0000000 0.6156863 0.0000000
0.0000000 0.6156863 0.0000000
0.0000000 0.6156863 0.0000000
0.0235294 0.6156863 0.0000000
0.0627451 0.6156863 0.0000000
0.0980392 0.6156863 0.0000000
0.1372549 0.6156863 0.0000000
0.1803922 0.6156863 0.0000000
0.2235294 0.6156863 0.0000000
0.2627451 0.6156863 0.0000000
0.3019608 0.6156863 0.0000000
0.3372549 0.6156863 0.0000000
0.3764706 0.6156863 0.0000000
0.4156863 0.6156863 0.0000000
0.4588235 0.6156863 0.0000000
0.5019608 0.6156863 0.0000000
0.5333334 0.6156863 0.0000000
0.5725490 0.6156863 0.0000000
0.6156863 0.6156863 0.0000000
0.6549020 0.6156863 0.0000000
0.6941177 0.6156863 0.0000000
0.7333333 0.6156863 0.0000000
0.7725490 0.6156863 0.0000000
0.8117647 0.6156863 0.0000000
0.8509804 0.6156863 0.0000000
0.8901961 0.6156863 0.0000000
0.9294118 0.6156863 0.0000000
0.9725490 0.6156863 0.0000000
1.0000000 0.6156863 0.0000000
1.0000000 0.6156863 0.0000000
1.0000000 0.6156863 0.0000000
1.0000000 0.6156863 0.0000000
0.0000000 0.6549020 0.0000000
0.0000000 0.6549020 0.0000000
0.0000000 0.6549020 0.0000000
0.0000000 0.6549020 0.0000000
0.0196078 0.6549020 0.0000000
0.0627451 0.6549020 0.0000000
0.1019608 0.6549020 0.0000000
0.1411765 0.6549020 0.0000000
0.1843137 0.6549020 0.0000000
0.2235294 0.6549020 0.0000000
0.2627451 0.6549020 0.0000000
0.2980392 0.6549020 0.0000000
0.3411765 0.6549020 0.0000000
0.3803922 0.6549020 0.0000000
0.4196078 0.6549020 0.0000000
0.4549020 0.6549020 0.0000000
0.4980392 0.6549020 0.0000000
0.5333334 0.6549020 0.0000000
0.5725490 0.6549020 0.0000000
0.6156863 0.6549020 0.0000000
0.6549020 0.6549020 0.0000000
0.6941177 0.6549020 0.0000000
0.7333333 0.6549020 0.0000000
0.7725490 0.6549020 0.0000000
0.8117647 0.6549020 0.0000000
0.8509804 0.6549020 0.0000000
0.8901961 0.6549020 0.0000000
0.9294118 0.6549020 0.0000000
0.9725490 0.6549020 0.0000000
1.0000000 0.6549020 0.0000000
1.0000000 0.6549020 0.0000000
1.0000000 0.6549020 0.0000000
1.0000000 0.6549020 0.0000000
0.0000000 0.6941177 0.0000000
0.0000000 0.6941177 0.0000000
0.0000000 0.6941177 0.0000000
0.0000000 0.6941177 0.0000000
0.0235294 0.6941177 0.0000000
0.0588235 0.6941177 0.0000000
0.1019608 0.6941177 0.0000000
0.1411765 0.6941177 0.0000000
0.1843137 0.6941177 0.0000000
0.2235294 0.6941177 0.0000000
0.2627451 0.6941177 0.0000000
0.3019608 0.6941177 0.0000000
0.3411765 0.6941177 0.0000000
0.3764706 0.6941177 0.0000000
0.4196078 0.6941177 0.0000000
0.4588235 0.6941177 0.0000000
0.5019608 0.6941177 0.0000000
0.5333334 0.6941177 0.0000000
0.5725490 0.6941177 0.0000000
0.6156863 0.6941177 0.0000000
0.6549020 0.6941177 0.0000000
0.6941177 0.6941177 0.0000000
0.7333333 0.6941177 0.0000000
0.7725490 0.6941177 0.0000000
0.8117647 0.6941177 0.0000000
0.8509804 0.6941177 0.0000000
0.8901961 0.6941177 0.0000000
0.9294118 0.6941177 0.0000000
0.9725490 0.6941177 0.0000000
1.0000000 0.6941177 0.0000000
1.0000000 0.6941177 0.0000000
1.0000000 0.6941177 0.0000000
1.0000000 0.6941177 0.0000000
0.0000000 0.7333333 0.0000000
0.0000000 0.7333333 0.0000000
0.0000000 0.7333333 0.0000000
0.0000000 0.7333333 0.0000000
0.0196078 0.7333333 0.0000000
0.0627451 0.7333333 0.0000000
0.0980392 0.7333333 0.0000000
0.1372549 0.7333333 0.0000000
0.1843137 0.7333333 0.0000000
0.2196078 0.7333333 0.0000000
0.2627451 0.7333333 0.0000000
0.3019608 0.7333333 0.0000000
0.3411765 0.7333333 0.0000000
0.3803922 0.7333333 0.0000000
0.4156863 0.7333333 0.0000000
0.4588235 0.7333333 0.0000000
0.5019608 0.7333333 0.0000000
0.5333334 0.7333333 0.0000000
0.5686275 0.7333333 0.0000000
0.6156863 0.7333333 0.0000000
0.6509804 0.7333333 0.0000000
0.6941177 0.7333333 0.0000000
0.7333333 0.7333333 0.0000000
0.7725490 0.7333333 0.0000000
0.8117647 0.7333333 0.0000000
0.8509804 0.7333333 0.0000000
0.8901961 0.7333333 0.0000000
0.9294118 0.7333333 0.0000000
0.9725490 0.7333333 0.0000000
1.0000000 0.7333333 0.0000000
1.0000000 0.7333333 0.0000000
1.0000000 0.7333333 0.0000000
1.0000000 0.7333333 0.0000000
0.0000000 0.7725490 0.0000000
0.0000000 0.7725490 0.0000000
0.0000000 0.7725490 0.0000000
0.0000000 0.7725490 0.0000000
0.0235294 0.7725490 0.0000000
0.0588235 0.7725490 0.0000000
0.1019608 0.7725490 0.0000000
0.1411765 0.7725490 0.0000000
0.1843137 0.7725490 0.0000000
0.2235294 0.7725490 0.0000000
0.2588235 0.7725490 0.0000000
0.3019608 0.7725490 0.0000000
0.3411765 0.7725490 0.0000000
0.3764706 0.7725490 0.0000000
0.4196078 0.7725490 0.0000000
0.4549020 0.7725490 0.0000000
0.4980392 0.7725490 0.0000000
0.5294118 0.7725490 0.0000000
0.5725490 0.7725490 0.0000000
0.6156863 0.7725490 0.0000000
0.6549020 0.7725490 0.0000000
0.6901961 0.7725490 0.0000000
0.7294118 0.7725490 0.0000000
0.7725490 0.7725490 0.0000000
0.8117647 0.7725490 0.0000000
0.8509804 0.7725490 0.0000000
0.8901961 0.7725490 0.0000000
0.9294118 0.7725490 0.0000000
0.9725490 0.7725490 0.0000000
1.0000000 0.7725490 0.0000000
1.0000000 0.7725490 0.0000000
1.0000000 0.7725490 0.0000000
1.0000000 0.7725490 0.0000000
0.0000000 0.8117647 0.0000000
0.0000000 0.8117647 0.0000000
0.0000000 0.8117647 0.0000000
0.0000000 0.8117647 0.0000000
