rust/film_profiles/ektar_inspired/lut.cube
TITLE "Ektar Inspired"
LUT_3D_SIZE 3
DOMAIN_MIN 0.0 0.0 0.0
DOMAIN_MAX 1.0 1.0 1.0

0.000000 0.000000 0.000000
0.635890 0.000000 0.000000
1.000000 0.000000 0.000000
0.000000 0.537279 0.000000
0.556336 0.511928 0.000000
1.000000 0.490507 0.000000
0.000000 1.000000 0.000000
0.478546 1.000000 0.000000
1.000000 1.000000 0.000000
0.000000 0.000000 0.582503
0.628206 0.000000 0.557153
1.000000 0.000000 0.535731
0.000000 0.529595 0.502950
0.548652 0.504244 0.477600
1.000000 0.482823 0.456178
0.000000 1.000000 0.425159
0.470862 1.000000 0.399809
1.000000 1.000000 0.378387
0.000000 0.000000 1.000000
0.620006 0.000000 1.000000
1.000000 0.000000 1.000000
0.000000 0.521395 1.000000
0.540452 0.496044 1.000000
1.000000 0.474623 1.000000
0.000000 1.000000 1.000000
0.462662 1.000000 1.000000
1.000000 1.000000 1.000000
