rust/film_profiles/chrome64_inspired/lut.cube
TITLE "Chrome 64 Inspired"
LUT_3D_SIZE 9
DOMAIN_MIN 0.0 0.0 0.0
DOMAIN_MAX 1.0 1.0 1.0
0.0000000 0.0000000 0.0000000
0.1263708 0.0000000 0.0000000
0.2564238 0.0000000 0.0000000
0.3852110 0.0001885 0.0000000
0.5115489 0.0026224 0.0000000
0.6357564 0.0051778 0.0000000
0.7598648 0.0078005 0.0000000
0.8893566 0.0104762 0.0000000
1.0000000 0.0126540 0.0000000
0.0120504 0.1132807 0.0021142
0.1288105 0.1181631 0.0000000
0.2608092 0.1264427 0.0000000
0.3901975 0.1298115 0.0000000
0.5167404 0.1325391 0.0000000
0.6410983 0.1352714 0.0000000
0.7654681 0.1380714 0.0000000
0.8956431 0.1409363 0.0000000
1.0000000 0.1433009 0.0000000
0.0253233 0.2403780 0.0197217
0.1304497 0.2445086 0.0005566
0.2621342 0.2504064 0.0000000
0.3933141 0.2610903 0.0000000
0.5211806 0.2673581 0.0000000
0.6462648 0.2712806 0.0000000
0.7711979 0.2744059 0.0000000
0.9022910 0.2773190 0.0000000
1.0000000 0.2796778 0.0000000
0.0393315 0.3676193 0.0381420
0.1356276 0.3714199 0.0147836
0.2644663 0.3759992 0.0027043
0.3948605 0.3827297 0.0010146
0.5237232 0.3942131 0.0000000
0.6500899 0.4024705 0.0000000
0.7761701 0.4081886 0.0000000
0.9086023 0.4123889 0.0000000
1.0000000 0.4152429 0.0000000
0.0540084 0.4933122 0.0568614
0.1431978 0.4968081 0.0293388
0.2672185 0.5015928 0.0151100
0.3980781 0.5055986 0.0064967
0.5257611 0.5134220 0.0054527
0.6527135 0.5251852 0.0023379
0.7798709 0.5346257 0.0000000
0.9138631 0.5417602 0.0000000
1.0000000 0.5462666 0.0000000
0.0693224 0.6173829 0.0756906
0.1518770 0.6206654 0.0435690
0.2727744 0.6253422 0.0296612
0.4008216 0.6300474 0.0160646
0.5291823 0.6335705 0.0110136
0.6553119 0.6426372 0.0096463
0.7829204 0.6545998 0.0063138
0.9181551 0.6648684 0.0030922
1.0000000 0.6716173 0.0010057
0.0852526 0.7414418 0.0945213
0.1612928 0.7446262 0.0576818
0.2803855 0.7492380 0.0444713
0.4050136 0.7542432 0.0292327
0.5332257 0.7587487 0.0179017
0.6585714 0.7621458 0.0152738
0.7861907 0.7726653 0.0134917
0.9221286 0.7851198 0.0099867
1.0000000 0.7942431 0.0071870
0.1017835 0.8701837 0.1132809
0.1712977 0.8734848 0.0714798
0.2893601 0.8783172 0.0590572
0.4112856 0.8837749 0.0435421
0.5370743 0.8891592 0.0291751
0.6643129 0.8937435 0.0203566
0.7892713 0.8974966 0.0190701
0.9265268 0.9104952 0.0169470
1.0000000 0.9219903 0.0140690
0.1183475 1.0000000 0.1313323
0.1813907 1.0000000 0.0844882
0.2988086 1.0000000 0.0726789
0.4187677 1.0000000 0.0573646
0.5420807 1.0000000 0.0415930
0.6682119 1.0000000 0.0289622
0.7963729 1.0000000 0.0228324
0.9287429 1.0000000 0.0220765
1.0000000 1.0000000 0.0203189
0.0024281 0.0000000 0.0886402
0.1216862 0.0047357 0.0929963
0.2523226 0.0000000 0.0933134
0.3811454 0.0000000 0.0912267
0.5072853 0.0000000 0.0911552
0.6314279 0.0010009 0.0902821
0.7554259 0.0023476 0.0890206
0.8845207 0.0036832 0.0875381
0.9988181 0.0048457 0.0860130
0.0056191 0.1129095 0.0926510
0.1259735 0.1162829 0.0960935
0.2566249 0.1197089 0.0957883
0.3855554 0.1226313 0.0953468
0.5120574 0.1256096 0.0949031
0.6364344 0.1286201 0.0944374
0.7607332 0.1316576 0.0939457
0.8904979 0.1347204 0.0934267
1.0000000 0.1372749 0.0927237
0.0134335 0.2413229 0.1077034
0.1342420 0.2419005 0.1123532
0.2594102 0.2485953 0.1015331
0.3912049 0.2582008 0.0985243
0.5182451 0.2618217 0.0968328
0.6427529 0.2646216 0.0958184
0.7672796 0.2674250 0.0950100
0.8977696 0.2703117 0.0942719
1.0000000 0.2727968 0.0934389
0.0295263 0.3682616 0.1283752
0.1491570 0.3691782 0.1337236
0.2610282 0.3743387 0.1122647
0.3922280 0.3809626 0.1064590
0.5217744 0.3924357 0.1024769
0.6479411 0.3991124 0.0992814
0.7734547 0.4032463 0.0971842
0.9051017 0.4064799 0.0957001
1.0000000 0.4090143 0.0944823
0.0459668 0.4937138 0.1497800
0.1646043 0.4949031 0.1549415
0.2663137 0.4993235 0.1285820
0.3948455 0.5045667 0.1138705
0.5232242 0.5117071 0.1108932
0.6507298 0.5236966 0.1064749
0.7778949 0.5323095 0.1024024
0.9113817 0.5382823 0.0992259
1.0000000 0.5420187 0.0970363
0.0625854 0.6176208 0.1708834
0.1796844 0.6190144 0.1751546
0.2742807 0.6229649 0.1445945
0.3978647 0.6283597 0.1278189
0.5267354 0.6327350 0.1171016
0.6528407 0.6409590 0.1148320
0.7808443 0.6531949 0.1101400
0.9160016 0.6630313 0.1055297
1.0000000 0.6693206 0.1020826
0.0794982 0.7415680 0.1915554
0.1948438 0.7431490 0.1947403
0.2834882 0.7468728 0.1599288
0.4036605 0.7521622 0.1436771
0.5299435 0.7574397 0.1276585
0.6565517 0.7612715 0.1209467
0.7837030 0.7709749 0.1182717
0.9197574 0.7837003 0.1133692
1.0000000 0.7929153 0.1090822
0.0967934 0.8702303 0.2118002
0.2105312 0.8720758 0.2140903
0.2934663 0.8758776 0.1746716
0.4115746 0.8813459 0.1595265
0.5344542 0.8872947 0.1419284
0.6612067 0.8926005 0.1284044
0.7873691 0.8965294 0.1243573
0.9237532 0.9086378 0.1212100
1.0000000 0.9206886 0.1168668
0.1141303 1.0000000 0.2312123
0.2262495 1.0000000 0.2326637
0.3036425 1.0000000 0.1884491
0.4204655 1.0000000 0.1743457
0.5406293 1.0000000 0.1565038
0.6651916 1.0000000 0.1398707
0.7935879 1.0000000 0.1293522
0.9268578 1.0000000 0.1268836
1.0000000 1.0000000 0.1239482
0.0051438 0.0020067 0.2035615
0.1208496 0.0000000 0.2053705
0.2471232 0.0173722 0.2125923
0.3765209 0.0118252 0.2173880
0.5037083 0.0049824 0.2131652
0.6281844 0.0024081 0.2096115
0.7519567 0.0030434 0.2086620
0.8804370 0.0049601 0.2087886
0.9972158 0.0064737 0.2081715
0.0164753 0.1280983 0.2065664
0.1247372 0.1192144 0.2098431
0.2501703 0.1278665 0.2146200
0.3808886 0.1223342 0.2150061
0.5074875 0.1221128 0.2133588
0.6317050 0.1241676 0.2130373
0.7558733 0.1259712 0.2119615
0.8852051 0.1276683 0.2105055
1.0000000 0.1291214 0.2089178
0.0122281 0.2396543 0.2115910
0.1275249 0.2422152 0.2145864
0.2565646 0.2466476 0.2185425
0.3866778 0.2508825 0.2183183
0.5131785 0.2537922 0.2176073
0.6376595 0.2568459 0.2169712
0.7621197 0.2599536 0.2163324
0.8921733 0.2630961 0.2156745
1.0000000 0.2657958 0.2148758
0.0146465 0.3696025 0.2251606
0.1364578 0.3708846 0.2300820
0.2610232 0.3708770 0.2311512
0.3896076 0.3791853 0.2236804
0.5199862 0.3898525 0.2212531
0.6450762 0.3935861 0.2192320
0.7697708 0.3963369 0.2178838
0.9005930 0.3990976 0.2167942
1.0000000 0.4015694 0.2157506
0.0298055 0.4952002 0.2419511
0.1523877 0.4959620 0.2506141
0.2749849 0.4965995 0.2512125
0.3912178 0.5027290 0.2335999
0.5207073 0.5099823 0.2282457
0.6490402 0.5221350 0.2246496
0.7758973 0.5291026 0.2213392
0.9084682 0.5333292 0.2189652
1.0000000 0.5361635 0.2172592
0.0472576 0.6189775 0.2621017
0.1686131 0.6196902 0.2718582
0.2910821 0.6207555 0.2725468
0.3965369 0.6257944 0.2496054
0.5235836 0.6316977 0.2350802
0.6503982 0.6392710 0.2322897
0.7790214 0.6518452 0.2280960
0.9140378 0.6608349 0.2239631
1.0000000 0.6662354 0.2208967
0.0654033 0.7427807 0.2831041
0.1849687 0.7435976 0.2927634
0.3076644 0.7449825 0.2935614
0.4047539 0.7494508 0.2654747
0.5268756 0.7555797 0.2486551
0.6542166 0.7604406 0.2379972
0.7812555 0.7692746 0.2358126
0.9176305 0.7823589 0.2312371
1.0000000 0.7914740 0.2271035
0.0839214 0.8713676 0.3041099
0.2015628 0.8723893 0.3131885
0.3247354 0.8741265 0.3142608
0.4143236 0.8785141 0.2806725
0.5329055 0.8848268 0.2642561
0.6579098 0.8911137 0.2481876
0.7853853 0.8955897 0.2414565
0.9210463 0.9067733 0.2388138
1.0000000 0.9194822 0.2345591
0.1025367 1.0000000 0.3245724
0.2181513 1.0000000 0.3327854
0.3418723 1.0000000 0.3341938
0.4243592 1.0000000 0.2948279
0.5407349 1.0000000 0.2793409
0.6625035 1.0000000 0.2615665
0.7905117 1.0000000 0.2480871
0.9249610 1.0000000 0.2442145
1.0000000 1.0000000 0.2415335
0.0079171 0.0067259 0.3212345
0.1176241 0.0000000 0.3243579
0.2453403 0.0146356 0.3229405
0.3715878 0.0304497 0.3347996
0.4984553 0.0265447 0.3424180
0.6236493 0.0176336 0.3402352
0.7482075 0.0115008 0.3355317
0.8770282 0.0082400 0.3314863
0.9972214 0.0075514 0.3291646
0.0215380 0.1372760 0.3233967
0.1249403 0.1237043 0.3273633
0.2501696 0.1219747 0.3299898
0.3747573 0.1414465 0.3367034
0.5026737 0.1362123 0.3413126
0.6281098 0.1296123 0.3372197
0.7525158 0.1272831 0.3338791
0.8812997 0.1284663 0.3331220
1.0000000 0.1304491 0.3328779
0.0254271 0.2568246 0.3292359
0.1348839 0.2553402 0.3287531
0.2539597 0.2480670 0.3335031
0.3785609 0.2565174 0.3384276
0.5079762 0.2519684 0.3389203
0.6325651 0.2525474 0.3376755
0.7568433 0.2547128 0.3371245
0.8864555 0.2566542 0.3358823
1.0000000 0.2582963 0.3343489
0.0195231 0.3665856 0.3328610
0.1310378 0.3690512 0.3355873
0.2577351 0.3721686 0.3390548
0.3867975 0.3772171 0.3430213
0.5152827 0.3823380 0.3430308
0.6396201 0.3851010 0.3419974
0.7641823 0.3881378 0.3411570
0.8945540 0.3912645 0.3403463
1.0000000 0.3940466 0.3394543
0.0192585 0.4957258 0.3464504
0.1341766 0.4979394 0.3492327
0.2684014 0.4989251 0.3544465
0.3901079 0.4984929 0.3540524
0.5181867 0.5082529 0.3476624
0.6475233 0.5198841 0.3459117
0.7730148 0.5237420 0.3436455
0.9042894 0.5264410 0.3420009
1.0000000 0.5288484 0.3406550
0.0315255 0.6203974 0.3599228
0.1492104 0.6216801 0.3653649
0.2846212 0.6221252 0.3744942
0.4001935 0.6225657 0.3695251
0.5198175 0.6296976 0.3564665
0.6479561 0.6375819 0.3517017
0.7774997 0.6504841 0.3486060
0.9119795 0.6578116 0.3452972
1.0000000 0.6617532 0.3428792
0.0486559 0.7443455 0.3771825
0.1663872 0.7453797 0.3847812
0.3012101 0.7458592 0.3951802
0.4167320 0.7468592 0.3905253
0.5251507 0.7526748 0.3716967
0.6511144 0.7593664 0.3577410
0.7788116 0.7675751 0.3552128
0.9157619 0.7811081 0.3513700
1.0000000 0.7897452 0.3476792
0.0673449 0.8730233 0.3964173
0.1841874 0.8740436 0.4050701
0.3179700 0.8747448 0.4155113
0.4337189 0.8762129 0.4111314
0.5335732 0.8815776 0.3870206
0.6547133 0.8889374 0.3705618
0.7830577 0.8946829 0.3602375
0.9183533 0.9049137 0.3581978
1.0000000 0.9184029 0.3543196
0.0867781 1.0000000 0.4163377
0.2021461 1.0000000 0.4252296
0.3347197 1.0000000 0.4350821
0.4508168 1.0000000 0.4310034
0.5431660 1.0000000 0.4013819
0.6607547 1.0000000 0.3850470
0.7871554 1.0000000 0.3693344
0.9229064 1.0000000 0.3630354
1.0000000 1.0000000 0.3608252
0.0107307 0.0115832 0.4390770
0.1145631 0.0000000 0.4425606
0.2454685 0.0056553 0.4426535
0.3665430 0.0306709 0.4406046
0.4938816 0.0438025 0.4569463
0.6184173 0.0413544 0.4661902
0.7431528 0.0324120 0.4663879
0.8721625 0.0241081 0.4625399
0.9955628 0.0192064 0.4583233
0.0250467 0.1436390 0.4409400
0.1251505 0.1282011 0.4449710
0.2473143 0.1162277 0.4493628
0.3731238 0.1386101 0.4469660
0.4971722 0.1550943 0.4587048
0.6225139 0.1515276 0.4660344
0.7478000 0.1431763 0.4638466
0.8772883 0.1370403 0.4592670
1.0000000 0.1343199 0.4556888
0.0347075 0.2704573 0.4446160
0.1381121 0.2656021 0.4455644
0.2542563 0.2526442 0.4510392
0.3792376 0.2522562 0.4541563
0.5009887 0.2703643 0.4602611
0.6275819 0.2653268 0.4646398
0.7531368 0.2594290 0.4607307
0.8827192 0.2576723 0.4576418
1.0000000 0.2590039 0.4568279
0.0335349 0.3847848 0.4522050
0.1408100 0.3841295 0.4514889
0.2631760 0.3823741 0.4505917
0.3828608 0.3770769 0.4566203
0.5055937 0.3851775 0.4616968
0.6338053 0.3818198 0.4623124
0.7583772 0.3830590 0.4613750
0.8882567 0.3853067 0.4606206
1.0000000 0.3871681 0.4592742
0.0274776 0.4920104 0.4538116
0.1351976 0.4944130 0.4562809
0.2617487 0.4972833 0.4594185
0.3878708 0.5009142 0.4630987
0.5154221 0.5062780 0.4668273
0.6427407 0.5123764 0.4671918
0.7670630 0.5149261 0.4657983
0.8977197 0.5179045 0.4647418
1.0000000 0.5207104 0.4637196
0.0262944 0.6198609 0.4676489
0.1352673 0.6224818 0.4697720
0.2670170 0.6248444 0.4729137
0.3996771 0.6254010 0.4779536
0.5176683 0.6247342 0.4761668
0.6455086 0.6358862 0.4709118
0.7762144 0.6485371 0.4698421
0.9088411 0.6525829 0.4673873
1.0000000 0.6550446 0.4655339
0.0351019 0.7454904 0.4793533
0.1473859 0.7471918 0.4825868
0.2826344 0.7484338 0.4885992
0.4159563 0.7485128 0.4973182
0.5271109 0.7488539 0.4901253
0.6472052 0.7571741 0.4785459
0.7763694 0.7658746 0.4743788
0.9142856 0.7799035 0.4717993
1.0000000 0.7872322 0.4687559
0.0513154 0.8746154 0.4936587
0.1641877 0.8760918 0.4989543
0.3002184 0.8771032 0.5074106
0.4327043 0.8773288 0.5172947
0.5408037 0.8783706 0.5073726
0.6526030 0.8854668 0.4928515
0.7799131 0.8934925 0.4795731
0.9156728 0.9030584 0.4773185
1.0000000 0.9174930 0.4741452
0.0699358 1.0000000 0.5105790
0.1824674 1.0000000 0.5172944
0.3183165 1.0000000 0.5269735
0.4495002 1.0000000 0.5367534
0.5578982 1.0000000 0.5271715
0.6610640 1.0000000 0.5071892
0.7837644 1.0000000 0.4911576
0.9205331 1.0000000 0.4814564
1.0000000 1.0000000 0.4798283
0.0135764 0.0165229 0.5561708
0.1117096 0.0000000 0.5597209
0.2424593 0.0002050 0.5612285
0.3700049 0.0213264 0.5595729
0.4849921 0.0461699 0.5575466
0.6141245 0.0573659 0.5782034
0.7379919 0.0561015 0.5884575
0.8666359 0.0477345 0.5906664
0.9926045 0.0398055 0.5885739
0.0281519 0.1489056 0.5578796
0.1253688 0.1327057 0.5618210
0.2441338 0.1162619 0.5666424
0.3739814 0.1279920 0.5662965
0.4920021 0.1551071 0.5634125
0.6175538 0.1688133 0.5798184
0.7421399 0.1667614 0.5887714
0.8716519 0.1583797 0.5888858
1.0000000 0.1515084 0.5855077
0.0407480 0.2808669 0.5604800
0.1395572 0.2730233 0.5623419
0.2545570 0.2572201 0.5678055
0.3768708 0.2465116 0.5730857
0.4994875 0.2687331 0.5696586
0.6214957 0.2842275 0.5812326
0.7471038 0.2806085 0.5882729
0.8775138 0.2727451 0.5860846
1.0000000 0.2677304 0.5820262
0.0452798 0.3993805 0.5658944
0.1478233 0.3977300 0.5655104
0.2668114 0.3928955 0.5666304
0.3832486 0.3816508 0.5733179
0.5066943 0.3825703 0.5768480
0.6259459 0.3989895 0.5824350
0.7531306 0.3943473 0.5866128
0.8841611 0.3892498 0.5828822
1.0000000 0.3881124 0.5800983
0.0418973 0.5112514 0.5741408
0.1458966 0.5108350 0.5734903
0.2700643 0.5098888 0.5725040
0.3910123 0.5079600 0.5711027
0.5101885 0.5046042 0.5783362
0.6314980 0.5124032 0.5836540
0.7604125 0.5102730 0.5843865
0.8906398 0.5120340 0.5836502
1.0000000 0.5141969 0.5827132
0.0360811 0.6158406 0.5736094
0.1399623 0.6182023 0.5758394
0.2665683 0.6210231 0.5787885
0.3921705 0.6241750 0.5819557
0.5166546 0.6283888 0.5858656
0.6427648 0.6338922 0.5892157
0.7713299 0.6411114 0.5900343
0.9018820 0.6434340 0.5882471
1.0000000 0.6461388 0.5869555
0.0349074 0.7438707 0.5877795
0.1388831 0.7466480 0.5895175
0.2685433 0.7497589 0.5921466
0.3992837 0.7520466 0.5951627
0.5291634 0.7521444 0.6000054
0.6440740 0.7514191 0.5969290
0.7739209 0.7641653 0.5927501
0.9131469 0.7782024 0.5923343
1.0000000 0.7823968 0.5898303
0.0408972 0.8752479 0.5984456
0.1474502 0.8775707 0.6007605
0.2816845 0.8795716 0.6045750
0.4151948 0.8807064 0.6104347
0.5454814 0.8803768 0.6187491
0.6538988 0.8807333 0.6103864
0.7757633 0.8909454 0.5992764
0.9130015 0.9012041 0.5956546
1.0000000 0.9159268 0.5932350
0.0554137 1.0000000 0.6107118
0.1632502 1.0000000 0.6142743
0.2990021 1.0000000 0.6204965
0.4329434 1.0000000 0.6287135
0.5622790 1.0000000 0.6380100
0.6643780 1.0000000 0.6234052
0.7812351 1.0000000 0.6124557
0.9171830 1.0000000 0.5998459
1.0000000 1.0000000 0.5977714
0.0164496 0.0215232 0.6729165
0.1090399 0.0018096 0.6764630
0.2390373 0.0000000 0.6790704
0.3691733 0.0124631 0.6781762
0.4904982 0.0381547 0.6760361
0.6012561 0.0612238 0.6741621
0.7338476 0.0711029 0.6992965
0.8613210 0.0707977 0.7103665
0.9894788 0.0643037 0.7139100
0.0311221 0.1536653 0.6745390
0.1255952 0.1372174 0.6783814
0.2411450 0.1174630 0.6833455
0.3713150 0.1204474 0.6847604
0.4960295 0.1446231 0.6824190
0.6083984 0.1708143 0.6797315
0.7374855 0.1826005 0.7007906
0.8658100 0.1817843 0.7109056
0.9987035 0.1750617 0.7129297
0.0452947 0.2890319 0.6765937
0.1404297 0.2792180 0.6789363
0.2548649 0.2617976 0.6843454
0.3736902 0.2463423 0.6900637
0.5010698 0.2585170 0.6892794
0.6162205 0.2851141 0.6854674
0.7416545 0.2981167 0.7020856
0.8710845 0.2959237 0.7108672
1.0000000 0.2888135 0.7110056
0.0541003 0.4124200 0.6804547
0.1518196 0.4087911 0.6808495
0.2686618 0.4006066 0.6833330
0.3836343 0.3862154 0.6898433
0.5048786 0.3770094 0.6960625
0.6244424 0.3985529 0.6915200
0.7462807 0.4128364 0.7031515
0.8772614 0.4092982 0.7100254
1.0000000 0.4027354 0.7080578
0.0550579 0.5256563 0.6871034
0.1550711 0.5249199 0.6863340
0.2769681 0.5230325 0.6857798
0.3949576 0.5186418 0.6868803
0.5106673 0.5091531 0.6948684
0.6327529 0.5112932 0.6987846
0.7515084 0.5260319 0.7040331
0.8847573 0.5218851 0.7080902
1.0000000 0.5178508 0.7046880
0.0507694 0.6363672 0.6956201
0.1511440 0.6361046 0.6950076
0.2761262 0.6354568 0.6942112
0.3987927 0.6343582 0.6928660
0.5172885 0.6322038 0.6909152
0.6362017 0.6306951 0.6993843
0.7583021 0.6383884 0.7051300
0.8936956 0.6374335 0.7059658
1.0000000 0.6394755 0.7052844
0.0453287 0.7396529 0.6929004
0.1453236 0.7420257 0.6949301
0.2720294 0.7449051 0.6977652
0.3975071 0.7479931 0.7007201
0.5211066 0.7515422 0.7039846
0.6443751 0.7564456 0.7081526
0.7711173 0.7620997 0.7110907
0.9078243 0.7707583 0.7124637
1.0000000 0.7727789 0.7102672
0.0444141 0.8726633 0.7074233
0.1441273 0.8756238 0.7090843
0.2725905 0.8792702 0.7114305
0.4012663 0.8827471 0.7140743
0.5297974 0.8850568 0.7169847
0.6573673 0.8846056 0.7216629
0.7716106 0.8839783 0.7173452
0.9103281 0.8993405 0.7141253
1.0000000 0.9125763 0.7122221
0.0485705 1.0000000 0.7177162
0.1497923 1.0000000 0.7195444
0.2824560 1.0000000 0.7225345
0.4151355 1.0000000 0.7262964
0.5459331 1.0000000 0.7320946
0.6738937 1.0000000 0.7400985
0.7819438 1.0000000 0.7303796
0.9124662 1.0000000 0.7195311
1.0000000 1.0000000 0.7157374
0.0193474 0.0265725 0.7914699
0.1065090 0.0045894 0.7950668
0.2359302 0.0000000 0.7983486
0.3663974 0.0061333 0.7985477
0.4919614 0.0282161 0.7967075
0.6079258 0.0550072 0.7943484
0.7167395 0.0759792 0.7926043
0.8570825 0.0849887 0.8232278
0.9869847 0.0858497 0.8343610
0.0340434 0.1581597 0.7930727
0.1258298 0.1417362 0.7969078
0.2383516 0.1190258 0.8020870
0.3680163 0.1164913 0.8048996
0.4956377 0.1340676 0.8034487
0.6143066 0.1619350 0.8005689
0.7240561 0.1859365 0.7981099
0.8611348 0.1964514 0.8246548
0.9951137 0.1970845 0.8352383
0.0491654 0.2958759 0.7948558
0.1410659 0.2848155 0.7975237
0.2551805 0.2663773 0.8030379
0.3706743 0.2474306 0.8089850
0.4987597 0.2509898 0.8104203
0.6208518 0.2751897 0.8072230
0.7321267 0.3007502 0.8037004
0.8657830 0.3120361 0.8258762
1.0000000 0.3115390 0.8356546
0.0606962 0.4231932 0.7978240
0.1542182 0.4177186 0.7988718
0.2698421 0.4069926 0.8022125
0.3840258 0.3907784 0.8086992
0.5017243 0.3766433 0.8155694
0.6267790 0.3889752 0.8142550
0.7407026 0.4145476 0.8093317
0.8709096 0.4266907 0.8268531
1.0000000 0.4249399 0.8354646
0.0658723 0.5397238 0.8030841
0.1616442 0.5381052 0.8026497
0.2812100 0.5341165 0.8032115
0.3971887 0.5266117 0.8060420
0.5111346 0.5136834 0.8138863
0.6315297 0.5060062 0.8213104
0.7498299 0.5267054 0.8153803
0.8765853 0.5398073 0.8276017
1.0000000 0.5368714 0.8344566
0.0648248 0.6503972 0.8106508
0.1615753 0.6499928 0.8097368
0.2849936 0.6489729 0.8087359
0.4054305 0.6470921 0.8078562
0.5214752 0.6430696 0.8089378
0.6367780 0.6352559 0.8185865
0.7594433 0.6385478 0.8229781
0.8830556 0.6518319 0.8282013
1.0000000 0.6485061 0.8323550
0.0602323 0.7620762 0.8195325
0.1568197 0.7619380 0.8189005
0.2822766 0.7614730 0.8182040
0.4057294 0.7607437 0.8171165
0.5259527 0.7594661 0.8153550
0.6423583 0.7569895 0.8127338
0.7630010 0.7572652 0.8227403
0.8918725 0.7652333 0.8292990
1.0000000 0.7653609 0.8302491
0.0552170 0.8680500 0.8143995
0.1512789 0.8705741 0.8163021
0.2780968 0.8737118 0.8191369
0.4035391 0.8770197 0.8220531
0.5268740 0.8806295 0.8251463
0.6489444 0.8848942 0.8286633
0.7733241 0.8907333 0.8331808
0.9072089 0.8970308 0.8358033
1.0000000 0.9064522 0.8365151
0.0546521 1.0000000 0.8296961
0.1502606 1.0000000 0.8313408
0.2783408 1.0000000 0.8337865
0.4056856 1.0000000 0.8362369
0.5322807 1.0000000 0.8389904
0.6590758 1.0000000 0.8418958
0.7869352 1.0000000 0.8465660
0.9068863 1.0000000 0.8407952
1.0000000 1.0000000 0.8369696
0.0222676 0.0316629 0.9180979
0.1040792 0.0075134 0.9220417
0.2329642 0.0010440 0.9261587
0.3630511 0.0023231 0.9276441
0.4907638 0.0194745 0.9261489
0.6112297 0.0451887 0.9235891
0.7241497 0.0716065 0.9209297
0.8346936 0.0905427 0.9191722
0.9859073 0.0984121 0.9583340
0.0369491 0.1625014 0.9198297
0.1260726 0.1462621 0.9239926
0.2357129 0.1207765 0.9298842
0.3648906 0.1160214 0.9338701
0.4931506 0.1258590 0.9336910
0.6161680 0.1506046 0.9309422
0.7311139 0.1790054 0.9275900
0.8424891 0.2006648 0.9251473
0.9934549 0.2098691 0.9601075
0.0526944 0.3019062 0.9215885
0.1415893 0.2900871 0.9247261
0.2555042 0.2709594 0.9309064
0.3678763 0.2489194 0.9376643
0.4956411 0.2469399 0.9411581
0.6208785 0.2648041 0.9388550
0.7386103 0.2924857 0.9346901
0.8511450 0.3158228 0.9312180
1.0000000 0.3256051 0.9616385
0.0659882 0.4322096 0.9242003
0.1558427 0.4253257 0.9258602
0.2707206 0.4127149 0.9301721
0.3844243 0.3953415 0.9373499
0.4986940 0.3775921 0.9451999
0.6248199 0.3816370 0.9468142
0.7460595 0.4053712 0.9421574
0.8603696 0.4298894 0.9372340
1.0000000 0.4402870 0.9628708
0.0745629 0.5523283 0.9286941
0.1660923 0.5494020 0.9287987
0.2838917 0.5431512 0.9305454
0.3986621 0.5331689 0.9347744
0.5116055 0.5182105 0.9433091
0.6283937 0.5054557 0.9524888
0.7530209 0.5178371 0.9502887
0.8702410 0.5422793 0.9433795
1.0000000 0.5534260 0.9638095
0.0770309 0.6648425 0.9357775
0.1699368 0.6640415 0.9348460
0.2916088 0.6620465 0.9342843
0.4098426 0.6582841 0.9348032
0.5240765 0.6513675 0.9383428
0.6373294 0.6397873 0.9487671
0.7588615 0.6335570 0.9587085
0.8809109 0.6535236 0.9501611
1.0000000 0.6655645 0.9644840
0.0748999 0.7760422 0.9449221
0.1680491 0.7758054 0.9438104
0.2923369 0.7751121 0.9425483
0.4141278 0.7740032 0.9410349
0.5322524 0.7720568 0.9396445
0.6467605 0.7682630 0.9407834
0.7636979 0.7619637 0.9536952
0.8926197 0.7664444 0.9592144
1.0000000 0.7786927 0.9650400
0.0703173 0.8941358 0.9552900
0.1630185 0.8941101 0.9545118
0.2888001 0.8937702 0.9537634
0.4126753 0.8932477 0.9526994
0.5337183 0.8923839 0.9511192
0.6520023 0.8908203 0.9486293
0.7684116 0.8877721 0.9448405
0.8966463 0.8899859 0.9579799
1.0000000 0.8990479 0.9666176
0.0657440 1.0000000 0.9464894
0.1578274 1.0000000 0.9484839
0.2847579 1.0000000 0.9516952
0.4101909 1.0000000 0.9549938
0.5334119 1.0000000 0.9584491
0.6551401 1.0000000 0.9622108
0.7781215 1.0000000 0.9666455
0.9103426 1.0000000 0.9722037
1.0000000 1.0000000 0.9724171
