rust/film_profiles/chrome64_inspired/lut.cube
TITLE "Chrome 64 Inspired"
LUT_3D_SIZE 33
DOMAIN_MIN 0.0 0.0 0.0
DOMAIN_MAX 1.0 1.0 1.0
0.0000000 0.0000000 0.0000000
0.0302071 0.0000000 0.0000000
0.0618792 0.0000000 0.0000000
0.0940032 0.0000000 0.0000000
0.1263708 0.0000000 0.0000000
0.1588661 0.0000000 0.0000000
0.1914099 0.0000000 0.0000000
0.2239441 0.0000000 0.0000000
0.2564238 0.0000000 0.0000000
0.2888141 0.0000000 0.0000000
0.3210880 0.0000000 0.0000000
0.3532251 0.0000000 0.0000000
0.3852110 0.0001885 0.0000000
0.4170371 0.0007754 0.0000000
0.4486999 0.0013812 0.0000000
0.4802014 0.0019978 0.0000000
0.5115489 0.0026224 0.0000000
0.5427556 0.0032535 0.0000000
0.5738406 0.0038901 0.0000000
0.6048297 0.0045316 0.0000000
0.6357564 0.0051778 0.0000000
0.6666632 0.0058278 0.0000000
0.6976028 0.0064818 0.0000000
0.7286423 0.0071395 0.0000000
0.7598648 0.0078005 0.0000000
0.7913774 0.0084648 0.0000000
0.8233207 0.0091323 0.0000000
0.8558867 0.0098028 0.0000000
0.8893566 0.0104762 0.0000000
0.9241898 0.0111525 0.0000000
0.9613317 0.0118315 0.0000000
1.0000000 0.0124722 0.0000000
1.0000000 0.0126540 0.0000000
0.0027117 0.0209908 0.0000000
0.0307203 0.0221251 0.0000000
0.0628461 0.0240524 0.0000000
0.0951185 0.0248230 0.0000000
0.1275400 0.0254394 0.0000000
0.1600624 0.0260533 0.0000000
0.1926228 0.0266794 0.0000000
0.2251683 0.0273172 0.0000000
0.2576563 0.0279646 0.0000000
0.2900530 0.0286194 0.0000000
0.3223318 0.0292806 0.0000000
0.3544730 0.0299469 0.0000000
0.3864623 0.0306177 0.0000000
0.4182915 0.0312924 0.0000000
0.4499574 0.0319705 0.0000000
0.4814620 0.0326520 0.0000000
0.5128129 0.0333363 0.0000000
0.5440238 0.0340234 0.0000000
0.5751135 0.0347131 0.0000000
0.6061087 0.0354053 0.0000000
0.6370430 0.0361001 0.0000000
0.6679594 0.0367970 0.0000000
0.6989115 0.0374962 0.0000000
0.7299663 0.0381975 0.0000000
0.7612084 0.0389011 0.0000000
0.7927459 0.0396068 0.0000000
0.8247216 0.0403144 0.0000000
0.8573305 0.0410240 0.0000000
0.8908591 0.0417358 0.0000000
0.9257793 0.0424494 0.0000000
0.9630776 0.0431652 0.0000000
1.0000000 0.0438445 0.0000000
1.0000000 0.0440361 0.0000000
0.0057461 0.0511090 0.0000000
0.0309518 0.0520796 0.0000000
0.0629776 0.0534650 0.0000000
0.0956658 0.0559965 0.0000000
0.1284113 0.0574656 0.0000000
0.1611056 0.0583676 0.0000000
0.1937576 0.0590745 0.0000000
0.2263573 0.0597267 0.0000000
0.2588798 0.0603668 0.0000000
0.2912997 0.0610086 0.0000000
0.3235947 0.0616565 0.0000000
0.3557477 0.0623117 0.0000000
0.3877459 0.0629741 0.0000000
0.4195818 0.0636432 0.0000000
0.4512534 0.0643183 0.0000000
0.4827631 0.0649991 0.0000000
0.5141187 0.0656848 0.0000000
0.5453346 0.0663751 0.0000000
0.5764301 0.0670694 0.0000000
0.6074319 0.0677678 0.0000000
0.6383744 0.0684695 0.0000000
0.6693008 0.0691746 0.0000000
0.7002654 0.0698829 0.0000000
0.7313361 0.0705940 0.0000000
0.7625985 0.0713079 0.0000000
0.7941620 0.0720246 0.0000000
0.8261710 0.0727437 0.0000000
0.8588243 0.0734652 0.0000000
0.8924142 0.0741892 0.0000000
0.9274255 0.0749155 0.0000000
0.9648910 0.0756439 0.0000000
1.0000000 0.0763409 0.0000000
1.0000000 0.0765375 0.0000000
0.0088653 0.0819759 0.0000000
0.0319440 0.0828851 0.0000000
0.0632660 0.0839732 0.0000000
0.0957452 0.0855857 0.0000000
0.1287107 0.0883686 0.0000000
0.1617050 0.0903549 0.0000000
0.1945950 0.0917114 0.0000000
0.2273508 0.0926891 0.0000000
0.2599724 0.0934795 0.0000000
0.2924586 0.0941895 0.0000000
0.3247998 0.0948654 0.0000000
0.3569860 0.0955282 0.0000000
0.3890088 0.0961881 0.0000000
0.4208637 0.0968498 0.0000000
0.4525498 0.0975156 0.0000000
0.4840716 0.0981864 0.0000000
0.5154377 0.0988627 0.0000000
0.5466629 0.0995444 0.0000000
0.5777676 0.1002313 0.0000000
0.6087791 0.1009232 0.0000000
0.6397322 0.1016197 0.0000000
0.6706709 0.1023206 0.0000000
0.7016500 0.1030258 0.0000000
0.7327384 0.1037349 0.0000000
0.7640226 0.1044476 0.0000000
0.7956138 0.1051640 0.0000000
0.8276583 0.1058836 0.0000000
0.8603582 0.1066064 0.0000000
0.8940121 0.1073322 0.0000000
0.9291197 0.1080609 0.0000000
0.9667636 0.1087922 0.0000000
1.0000000 0.1094980 0.0000000
1.0000000 0.1096975 0.0000000
0.0120504 0.1132807 0.0021142
0.0334208 0.1141322 0.0000000
0.0635615 0.1152918 0.0000000
0.0961537 0.1162473 0.0000000
0.1288105 0.1181631 0.0000000
0.1619175 0.1210734 0.0000000
0.1950239 0.1233950 0.0000000
0.2280013 0.1251296 0.0000000
0.2608092 0.1264427 0.0000000
0.2934316 0.1274702 0.0000000
0.3258684 0.1283267 0.0000000
0.3581235 0.1290930 0.0000000
0.3901975 0.1298115 0.0000000
0.4220912 0.1305052 0.0000000
0.4538079 0.1311866 0.0000000
0.4853540 0.1318633 0.0000000
0.5167404 0.1325391 0.0000000
0.5479829 0.1332169 0.0000000
0.5791035 0.1338976 0.0000000
0.6101300 0.1345824 0.0000000
0.6410983 0.1352714 0.0000000
0.6720530 0.1359649 0.0000000
0.7030500 0.1366628 0.0000000
0.7341590 0.1373650 0.0000000
0.7654681 0.1380714 0.0000000
0.7970895 0.1387819 0.0000000
0.8291719 0.1394963 0.0000000
0.8619214 0.1402146 0.0000000
0.8956431 0.1409363 0.0000000
0.9308519 0.1416617 0.0000000
0.9686868 0.1423903 0.0000000
1.0000000 0.1430990 0.0000000
1.0000000 0.1433009 0.0000000
0.0152929 0.1448638 0.0063638
0.0350729 0.1456715 0.0000000
0.0644544 0.1468127 0.0000000
0.0963392 0.1479533 0.0000000
0.1291757 0.1487837 0.0000000
0.1620540 0.1510296 0.0000000
0.1952163 0.1540122 0.0000000
0.2283485 0.1565553 0.0000000
0.2613346 0.1585801 0.0000000
0.2941310 0.1601858 0.0000000
0.3267197 0.1614778 0.0000000
0.3590938 0.1625403 0.0000000
0.3912568 0.1634486 0.0000000
0.4232183 0.1642647 0.0000000
0.4549879 0.1650253 0.0000000
0.4865761 0.1657526 0.0000000
0.5179970 0.1664604 0.0000000
0.5492687 0.1671572 0.0000000
0.5804144 0.1678485 0.0000000
0.6114638 0.1685377 0.0000000
0.6424537 0.1692271 0.0000000
0.6734303 0.1699182 0.0000000
0.7044501 0.1706120 0.0000000
0.7355841 0.1713090 0.0000000
0.7669218 0.1720095 0.0000000
0.7985768 0.1727137 0.0000000
0.8307009 0.1734218 0.0000000
0.8635036 0.1741336 0.0000000
0.8972973 0.1748492 0.0000000
0.9326127 0.1755685 0.0000000
0.9706519 0.1762915 0.0000000
1.0000000 0.1770002 0.0000000
1.0000000 0.1772034 0.0000000
0.0185879 0.1766217 0.0107444
0.0368108 0.1773951 0.0027969
0.0657609 0.1784981 0.0001356
0.0967990 0.1796919 0.0000000
0.1295903 0.1807489 0.0000000
0.1622734 0.1815187 0.0000000
0.1953940 0.1840755 0.0000000
0.2285500 0.1871017 0.0000000
0.2616482 0.1897950 0.0000000
0.2945867 0.1920402 0.0000000
0.3273232 0.1938879 0.0000000
0.3598396 0.1954165 0.0000000
0.3921304 0.1966967 0.0000000
0.4241972 0.1977852 0.0000000
0.4560489 0.1987346 0.0000000
0.4877027 0.1995931 0.0000000
0.5191768 0.2003924 0.0000000
0.5504928 0.2011532 0.0000000
0.5816764 0.2018887 0.0000000
0.6127592 0.2026082 0.0000000
0.6437799 0.2033179 0.0000000
0.6747856 0.2040218 0.0000000
0.7058346 0.2047229 0.0000000
0.7369994 0.2054232 0.0000000
0.7683703 0.2061243 0.0000000
0.8000639 0.2068270 0.0000000
0.8322337 0.2075320 0.0000000
0.8650936 0.2082397 0.0000000
0.8989636 0.2089504 0.0000000
0.9343920 0.2096644 0.0000000
0.9726497 0.2103817 0.0000000
1.0000000 0.2110898 0.0000000
1.0000000 0.2112939 0.0000000
0.0219321 0.2084790 0.0152046
0.0385991 0.2092250 0.0060776
0.0673118 0.2102872 0.0034920
0.0976923 0.2114837 0.0003348
0.1298624 0.2126468 0.0000000
0.1630202 0.2136091 0.0000000
0.1954369 0.2143705 0.0000000
0.2287697 0.2172215 0.0000000
0.2618726 0.2202740 0.0000000
0.2948934 0.2230713 0.0000000
0.3277441 0.2254838 0.0000000
0.3603852 0.2275292 0.0000000
0.3928011 0.2292621 0.0000000
0.4249879 0.2307397 0.0000000
0.4569499 0.2320122 0.0000000
0.4886977 0.2331206 0.0000000
0.5202487 0.2341029 0.0000000
0.5516281 0.2349974 0.0000000
0.5828652 0.2358314 0.0000000
0.6139946 0.2366235 0.0000000
0.6450567 0.2373864 0.0000000
0.6761012 0.2381294 0.0000000
0.7071875 0.2388587 0.0000000
0.7383896 0.2395792 0.0000000
0.7698002 0.2402941 0.0000000
0.8015377 0.2410058 0.0000000
0.8337585 0.2417162 0.0000000
0.8666806 0.2424265 0.0000000
0.9006318 0.2431375 0.0000000
0.9361798 0.2438503 0.0000000
0.9746707 0.2445650 0.0000000
1.0000000 0.2452749 0.0000000
1.0000000 0.2454792 0.0000000
0.0253233 0.2403780 0.0197217
0.0404260 0.2411011 0.0093917
0.0690129 0.2421253 0.0069451
0.0989238 0.2433038 0.0037633
0.1304497 0.2445086 0.0005566
0.1632842 0.2456111 0.0000000
0.1964912 0.2464833 0.0000000
0.2286207 0.2472731 0.0000000
0.2621342 0.2504064 0.0000000
0.2951478 0.2534744 0.0000000
0.3280590 0.2563446 0.0000000
0.3607926 0.2588848 0.0000000
0.3933141 0.2610903 0.0000000
0.4256102 0.2629970 0.0000000
0.4576805 0.2646497 0.0000000
0.4895324 0.2660910 0.0000000
0.5211806 0.2673581 0.0000000
0.5526459 0.2684819 0.0000000
0.5839558 0.2694910 0.0000000
0.6151475 0.2704160 0.0000000
0.6462648 0.2712806 0.0000000
0.6773589 0.2721014 0.0000000
0.7084922 0.2728903 0.0000000
0.7397403 0.2736564 0.0000000
0.7711979 0.2744059 0.0000000
0.8029853 0.2751438 0.0000000
0.8352629 0.2758736 0.0000000
0.8682528 0.2765980 0.0000000
0.9022910 0.2773190 0.0000000
0.9379647 0.2780382 0.0000000
0.9767057 0.2787572 0.0000000
1.0000000 0.2794735 0.0000000
1.0000000 0.2796778 0.0000000
0.0287601 0.2722736 0.0242821
0.0422870 0.2729769 0.0127225
0.0708136 0.2739668 0.0104093
0.1003966 0.2751192 0.0073232
0.1313764 0.2763334 0.0039305
0.1636977 0.2775075 0.0008943
0.1968584 0.2785406 0.0000000
0.2299106 0.2793382 0.0000000
0.2617852 0.2801759 0.0000000
0.2954506 0.2835829 0.0000000
0.3283471 0.2866587 0.0000000
0.3611254 0.2895803 0.0000000
0.3937221 0.2922183 0.0000000
0.4261083 0.2945535 0.0000000
0.4582745 0.2966070 0.0000000
0.4902234 0.2984129 0.0000000
0.5219671 0.3000064 0.0000000
0.5535247 0.3014203 0.0000000
0.5849229 0.3026831 0.0000000
0.6161949 0.3038190 0.0000000
0.6473827 0.3048500 0.0000000
0.6785401 0.3058011 0.0000000
0.7097317 0.3066925 0.0000000
0.7410353 0.3075393 0.0000000
0.7725484 0.3083527 0.0000000
0.8043937 0.3091409 0.0000000
0.8367346 0.3099103 0.0000000
0.8697984 0.3106656 0.0000000
0.9039297 0.3114107 0.0000000
0.9397361 0.3121485 0.0000000
0.9787442 0.3128813 0.0000000
1.0000000 0.3136106 0.0000000
1.0000000 0.3138169 0.0000000
0.0322410 0.3041299 0.0288766
0.0441800 0.3048157 0.0160633
0.0726861 0.3057750 0.0138680
0.1020422 0.3068987 0.0109140
0.1325866 0.3081055 0.0074918
0.1643919 0.3093130 0.0041376
0.1972083 0.3104394 0.0013694
0.2304631 0.3114029 0.0000000
0.2632135 0.3121550 0.0000000
0.2948978 0.3130403 0.0000000
0.3286903 0.3167135 0.0000000
0.3614492 0.3197919 0.0000000
0.3940788 0.3227494 0.0000000
0.4265265 0.3254627 0.0000000
0.4587694 0.3279029 0.0000000
0.4908029 0.3300800 0.0000000
0.5226339 0.3320188 0.0000000
0.5542793 0.3337482 0.0000000
0.5857639 0.3352964 0.0000000
0.6171206 0.3366888 0.0000000
0.6483907 0.3379480 0.0000000
0.6796257 0.3390935 0.0000000
0.7108886 0.3401426 0.0000000
0.7422591 0.3411158 0.0000000
0.7738373 0.3420309 0.0000000
0.8057489 0.3429012 0.0000000
0.8381607 0.3437369 0.0000000
0.8713050 0.3445460 0.0000000
0.9055358 0.3453344 0.0000000
0.9414825 0.3461070 0.0000000
0.9807760 0.3468677 0.0000000
1.0000000 0.3476193 0.0000000
1.0000000 0.3478301 0.0000000
0.0357650 0.3359190 0.0334983
0.0461047 0.3365887 0.0194107
0.0746185 0.3375205 0.0173689
0.1038150 0.3386159 0.0145052
0.1340199 0.3398065 0.0111251
0.1653660 0.3410252 0.0076242
0.1977519 0.3422043 0.0044379
0.2308311 0.3432763 0.0019773
0.2640236 0.3441740 0.0006095
0.2964281 0.3449128 0.0004579
0.3279317 0.3458363 0.0003267
0.3618319 0.3497695 0.0000000
0.3944392 0.3528470 0.0000000
0.4269106 0.3558291 0.0000000
0.4592044 0.3586003 0.0000000
0.4913040 0.3611259 0.0000000
0.5232097 0.3634069 0.0000000
0.5549338 0.3654608 0.0000000
0.5864991 0.3673105 0.0000000
0.6179367 0.3689802 0.0000000
0.6492875 0.3704922 0.0000000
0.6806029 0.3718671 0.0000000
0.7119459 0.3731232 0.0000000
0.7433952 0.3742763 0.0000000
0.7750495 0.3753408 0.0000000
0.8070368 0.3763331 0.0000000
0.8395279 0.3772689 0.0000000
0.8727605 0.3781604 0.0000000
0.9070975 0.3790167 0.0000000
0.9431918 0.3798453 0.0000000
0.9827896 0.3806522 0.0000000
1.0000000 0.3814414 0.0000000
1.0000000 0.3816570 0.0000000
0.0393315 0.3676193 0.0381420
0.0480608 0.3682741 0.0227622
0.0765979 0.3691815 0.0208583
0.1056847 0.3702495 0.0180842
0.1356276 0.3714199 0.0147836
0.1665839 0.3726366 0.0112309
0.1985411 0.3738431 0.0077993
0.2312973 0.3749828 0.0048461
0.2644663 0.3759992 0.0027043
0.2974916 0.3768359 0.0016719
0.3295455 0.3775880 0.0016478
0.3608671 0.3785416 0.0014642
0.3948605 0.3827297 0.0010146
0.4273080 0.3858034 0.0003554
0.4596186 0.3888022 0.0000000
0.4917602 0.3916183 0.0000000
0.5237232 0.3942131 0.0000000
0.5555139 0.3965816 0.0000000
0.5871506 0.3987352 0.0000000
0.6186629 0.4006914 0.0000000
0.6500899 0.4024705 0.0000000
0.6814827 0.4040920 0.0000000
0.7129040 0.4055746 0.0000000
0.7444333 0.4069352 0.0000000
0.7761701 0.4081886 0.0000000
0.8082429 0.4093481 0.0000000
0.8408227 0.4104255 0.0000000
0.8741512 0.4114344 0.0000000
0.9086023 0.4123889 0.0000000
0.9448517 0.4132994 0.0000000
0.9847732 0.4141746 0.0000000
1.0000000 0.4150217 0.0000000
1.0000000 0.4152429 0.0000000
0.0429395 0.3992155 0.0428033
0.0500484 0.3998564 0.0261163
0.0786183 0.4007420 0.0243358
0.1076312 0.4017843 0.0216458
0.1373727 0.4029326 0.0184437
0.1680054 0.4041397 0.0148970
0.1995693 0.4053576 0.0113283
0.2319570 0.4065382 0.0080503
0.2649142 0.4076337 0.0053604
0.2980464 0.4085959 0.0035344
0.3308257 0.4093803 0.0028213
0.3625508 0.4101631 0.0028406
0.3936895 0.4111411 0.0026137
0.4277673 0.4155796 0.0021332
0.4600529 0.4186478 0.0014445
0.4922062 0.4216577 0.0007124
0.5242041 0.4245085 0.0000063
0.5560448 0.4271601 0.0000000
0.5877413 0.4296025 0.0000000
0.6193190 0.4318422 0.0000000
0.6508157 0.4338925 0.0000000
0.6822805 0.4357701 0.0000000
0.7137767 0.4374917 0.0000000
0.7453833 0.4390741 0.0000000
0.7772009 0.4405327 0.0000000
0.8093591 0.4418812 0.0000000
0.8420318 0.4431324 0.0000000
0.8754642 0.4442973 0.0000000
0.9100369 0.4453859 0.0000000
0.9464486 0.4464097 0.0000000
0.9867151 0.4473807 0.0000000
1.0000000 0.4483087 0.0000000
1.0000000 0.4485377 0.0000000
0.0465887 0.4306983 0.0474789
0.0520677 0.4313257 0.0294715
0.0806764 0.4321921 0.0278016
0.1096414 0.4332105 0.0251881
0.1392284 0.4343363 0.0220935
0.1695951 0.4355294 0.0185882
0.2008118 0.4367485 0.0149539
0.2328333 0.4379524 0.0114656
0.2654960 0.4390999 0.0083884
0.2985214 0.4401496 0.0059727
0.3315263 0.4410605 0.0044521
0.3639809 0.4418107 0.0040206
0.3954338 0.4426279 0.0040221
0.4263909 0.4436260 0.0037580
0.4605495 0.4483114 0.0032507
0.4926775 0.4513736 0.0025437
0.5246831 0.4543903 0.0017866
0.5565531 0.4572682 0.0010289
0.5882935 0.4599665 0.0003065
0.6199253 0.4624720 0.0000000
0.6514825 0.4647867 0.0000000
0.6830127 0.4669206 0.0000000
0.7145784 0.4688866 0.0000000
0.7462581 0.4706998 0.0000000
0.7781531 0.4723746 0.0000000
0.8103940 0.4739247 0.0000000
0.8431574 0.4753632 0.0000000
0.8766925 0.4767019 0.0000000
0.9113892 0.4779514 0.0000000
0.9479693 0.4791212 0.0000000
0.9886014 0.4802198 0.0000000
1.0000000 0.4812569 0.0000000
1.0000000 0.4814961 0.0000000
0.0502785 0.4620633 0.0521658
0.0541188 0.4626778 0.0328265
0.0827701 0.4635272 0.0312561
0.1117061 0.4645237 0.0287106
0.1411749 0.4656276 0.0257262
0.1713239 0.4668043 0.0222843
0.2022402 0.4680182 0.0186324
0.2339192 0.4692335 0.0150140
0.2662604 0.4704144 0.0116656
0.2990694 0.4715250 0.0088138
0.3320626 0.4725298 0.0066724
0.3648764 0.4733927 0.0054437
0.3969654 0.4741266 0.0052403
0.4281886 0.4749788 0.0051874
0.4589685 0.4759938 0.0048905
0.4932109 0.4809239 0.0043587
0.5251913 0.4839796 0.0036367
0.5570659 0.4870007 0.0028622
0.5888313 0.4899004 0.0020793
0.6205021 0.4926377 0.0013170
0.6521087 0.4951974 0.0005965
0.6836959 0.4975779 0.0000000
0.7153238 0.4997861 0.0000000
0.7470711 0.5018326 0.0000000
0.7790389 0.5037295 0.0000000
0.8113589 0.5054896 0.0000000
0.8442094 0.5071256 0.0000000
0.8778443 0.5086493 0.0000000
0.9126614 0.5100714 0.0000000
0.9494076 0.5114022 0.0000000
0.9904208 0.5126508 0.0000000
1.0000000 0.5138254 0.0000000
1.0000000 0.5140783 0.0000000
0.0540084 0.4933122 0.0568614
0.0562021 0.4939141 0.0361801
0.0848978 0.4947484 0.0346994
0.1138226 0.4957246 0.0322685
0.1431978 0.4968081 0.0293388
0.1731690 0.4979677 0.0259732
0.2038278 0.4991725 0.0223363
0.2351965 0.5003914 0.0186447
0.2672185 0.5015928 0.0151100
0.2997603 0.5027457 0.0119372
0.3326126 0.5038185 0.0093217
0.3654981 0.5047799 0.0074490
0.3980781 0.5055986 0.0064967
0.4298061 0.5063369 0.0064365
0.4608145 0.5072190 0.0063343
0.4914259 0.5082485 0.0060081
0.5257611 0.5134220 0.0054527
0.5576110 0.5164719 0.0047175
0.5893788 0.5194963 0.0039288
0.6210713 0.5224140 0.0031266
0.6527135 0.5251852 0.0023379
0.6843462 0.5277919 0.0015806
0.7160283 0.5302309 0.0008676
0.7478361 0.5325063 0.0002126
0.7798709 0.5346257 0.0000000
0.8122649 0.5365997 0.0000000
0.8451984 0.5384396 0.0000000
0.8789291 0.5401559 0.0000000
0.9138631 0.5417602 0.0000000
0.9507706 0.5432622 0.0000000
0.9921784 0.5446713 0.0000000
1.0000000 0.5459962 0.0000000
1.0000000 0.5462666 0.0000000
0.0577781 0.5244519 0.0615635
0.0583779 0.5250421 0.0395859
0.0870587 0.5258632 0.0381319
0.1159830 0.5268210 0.0358076
0.1452864 0.5278854 0.0329297
0.1751125 0.5290279 0.0296479
0.2055521 0.5302214 0.0260480
0.2366441 0.5314387 0.0223237
0.2683636 0.5326521 0.0186654
0.3006211 0.5338337 0.0152584
0.3332634 0.5349562 0.0122816
0.3660790 0.5359914 0.0099052
0.3988026 0.5369122 0.0082920
0.4311172 0.5376919 0.0075980
0.4625071 0.5384504 0.0076069
0.4933167 0.5393586 0.0074608
0.5237722 0.5404011 0.0071082
0.5582174 0.5458184 0.0065302
0.5899611 0.5488641 0.0057828
0.6216546 0.5518911 0.0049814
0.6533160 0.5548250 0.0041631
0.6849817 0.5576257 0.0033529
0.7167069 0.5602750 0.0025679
0.7485670 0.5627668 0.0018194
0.7806618 0.5651032 0.0011160
0.8131241 0.5672902 0.0004652
0.8461356 0.5693361 0.0000000
0.8799570 0.5712504 0.0000000
0.9150032 0.5730431 0.0000000
0.9520677 0.5747242 0.0000000
0.9938877 0.5763026 0.0000000
1.0000000 0.5777873 0.0000000
1.0000000 0.5780787 0.0000000
0.0615872 0.5554959 0.0662702
0.0622732 0.5560748 0.0445176
0.0892524 0.5568841 0.0415537
0.1181841 0.5578258 0.0393285
0.1474328 0.5588728 0.0364983
0.1771410 0.5599988 0.0333041
0.2073938 0.5611804 0.0297559
0.2382419 0.5623931 0.0260281
0.2696819 0.5636122 0.0222927
0.3016569 0.5648136 0.0187177
0.3340560 0.5659720 0.0154664
0.3667185 0.5670633 0.0126959
0.3994366 0.5680627 0.0105562
0.4319610 0.5689451 0.0091920
0.4639705 0.5696994 0.0087261
0.4950762 0.5704835 0.0087515
0.5257056 0.5714146 0.0085662
0.5560241 0.5724694 0.0081894
0.5906039 0.5781327 0.0075892
0.6222745 0.5811762 0.0068302
0.6539360 0.5842072 0.0060173
0.6856194 0.5871562 0.0051847
0.7173758 0.5899846 0.0043561
0.7492781 0.5926730 0.0035477
0.7814248 0.5952138 0.0027706
0.8139484 0.5976071 0.0020326
0.8470315 0.5998572 0.0013387
0.8809387 0.6019709 0.0006942
0.9160919 0.6039561 0.0001086
0.9533086 0.6058218 0.0000000
0.9955671 0.6075765 0.0000000
1.0000000 0.6092289 0.0000000
1.0000000 0.6095455 0.0000000
0.0654353 0.5864638 0.0709797
0.0662042 0.5870326 0.0494602
0.0914784 0.5878314 0.0449647
0.1204231 0.5887590 0.0428317
0.1496312 0.5897903 0.0400446
0.1792429 0.5909011 0.0369392
0.2093377 0.5920705 0.0334526
0.2399717 0.5932772 0.0297423
0.2711575 0.5944985 0.0259645
0.3028619 0.5957128 0.0222719
0.3350065 0.5968980 0.0188141
0.3674697 0.5980320 0.0157357
0.4000888 0.5990927 0.0131755
0.4326653 0.6000580 0.0112672
0.4649684 0.6009058 0.0101404
0.4966483 0.6016467 0.0098735
0.5275265 0.6024604 0.0098702
0.5579988 0.6034128 0.0096493
0.5882050 0.6044794 0.0092504
0.6229543 0.6103930 0.0086283
0.6545944 0.6134374 0.0078582
0.6862779 0.6164746 0.0070344
0.7180513 0.6194397 0.0061888
0.7499841 0.6222949 0.0053438
0.7821730 0.6250207 0.0045150
0.8147499 0.6276085 0.0037131
0.8478979 0.6300561 0.0029459
0.8818844 0.6323667 0.0022181
0.9171390 0.6345453 0.0015335
0.9545022 0.6365989 0.0008953
0.9972436 0.6385351 0.0003088
1.0000000 0.6403618 0.0000000
1.0000000 0.6407078 0.0000000
0.0693224 0.6173829 0.0756906
0.0701710 0.6179425 0.0544114
0.0937365 0.6187323 0.0483650
0.1226988 0.6196477 0.0463176
0.1518770 0.6206654 0.0435690
0.1814107 0.6217627 0.0405518
0.2113708 0.6229210 0.0371330
0.2418178 0.6241207 0.0334555
0.2727744 0.6253422 0.0296612
0.3042253 0.6265653 0.0258898
0.3361169 0.6277705 0.0222786
0.3683577 0.6289379 0.0189605
0.4008216 0.6300474 0.0160646
0.4333499 0.6310790 0.0137147
0.4657557 0.6320128 0.0120306
0.4978273 0.6328286 0.0111298
0.5291823 0.6335705 0.0110136
0.5598767 0.6344149 0.0109628
0.5902209 0.6353875 0.0107097
0.6203472 0.6364663 0.0102903
0.6553119 0.6426372 0.0096463
0.6869758 0.6456864 0.0088655
0.7187501 0.6487331 0.0080314
0.7507002 0.6517163 0.0071737
0.7829204 0.6545998 0.0063138
0.8155413 0.6573634 0.0054665
0.8487463 0.6599973 0.0046427
0.8828055 0.6624985 0.0038494
0.9181551 0.6648684 0.0030922
0.9556597 0.6671109 0.0023743
0.9989750 0.6692318 0.0016981
1.0000000 0.6712378 0.0010659
1.0000000 0.6716173 0.0010057
0.0732478 0.6482886 0.0804014
0.0741739 0.6488401 0.0593688
0.0960268 0.6496220 0.0517546
0.1250094 0.6505278 0.0497869
0.1541707 0.6515339 0.0471281
0.1836370 0.6526199 0.0441415
0.2134833 0.6537684 0.0407942
0.2437667 0.6549619 0.0371601
0.2745180 0.6561824 0.0333690
0.3057347 0.6574123 0.0295489
0.3373820 0.6586332 0.0258257
0.3693927 0.6598271 0.0223225
0.4016688 0.6609762 0.0191589
0.4340845 0.6620621 0.0164500
0.4664887 0.6630668 0.0143074
0.4987076 0.6639720 0.0128394
0.5305462 0.6647604 0.0121519
0.5616090 0.6655179 0.0121232
0.5921533 0.6663913 0.0120293
0.6224049 0.6673836 0.0117468
0.6524925 0.6684756 0.0113081
0.6877327 0.6749141 0.0106424
0.7194896 0.6779738 0.0098510
0.7514420 0.6810347 0.0090070
0.7836813 0.6840401 0.0081381
0.8163356 0.6869545 0.0072643
0.8495890 0.6897579 0.0064002
0.8837129 0.6924394 0.0055563
0.9191512 0.6949949 0.0047397
0.9567909 0.6974248 0.0039560
1.0000000 0.6997318 0.0032085
1.0000000 0.7019207 0.0024995
1.0000000 0.7023385 0.0024243
0.0772114 0.6792261 0.0851109
0.0782128 0.6797711 0.0643307
0.0983490 0.6805464 0.0551333
0.1273546 0.6814449 0.0532399
0.1565057 0.6824419 0.0506663
0.1859169 0.6835191 0.0477079
0.2156664 0.6846597 0.0444338
0.2458073 0.6858482 0.0408509
0.2763748 0.6870684 0.0370778
0.3073772 0.6883038 0.0332321
0.3387931 0.6895378 0.0294302
0.3705746 0.6907543 0.0257854
0.4026468 0.6919367 0.0224090
0.4349098 0.6930683 0.0194083
0.4672418 0.6941327 0.0168877
0.4995013 0.6951130 0.0149478
0.5315290 0.6959928 0.0136872
0.5631252 0.6967643 0.0131905
0.5939567 0.6975447 0.0132028
0.6243907 0.6984460 0.0130698
0.6545939 0.6994590 0.0127600
0.6846941 0.7005653 0.0123032
0.7202873 0.7072870 0.0116157
0.7522256 0.7103636 0.0108140
0.7844697 0.7134452 0.0099602
0.8171461 0.7164783 0.0090805
0.8504379 0.7194285 0.0081938
0.8846183 0.7222757 0.0073143
0.9201376 0.7250084 0.0064519
0.9579067 0.7276219 0.0056141
1.0000000 0.7301146 0.0048062
1.0000000 0.7324888 0.0040317
1.0000000 0.7329489 0.0039414
0.0812131 0.7102529 0.0898178
0.0822878 0.7107925 0.0692953
0.1007033 0.7115632 0.0585009
0.1297336 0.7124572 0.0566768
0.1588803 0.7134480 0.0541841
0.1882464 0.7145193 0.0512511
0.2179138 0.7156546 0.0480511
0.2479301 0.7168402 0.0445244
0.2783340 0.7180611 0.0407803
0.3091407 0.7193025 0.0369273
0.3403405 0.7205490 0.0330724
0.3718997 0.7217858 0.0293212
0.4037618 0.7229975 0.0257767
0.4358489 0.7241693 0.0225396
0.4680626 0.7252855 0.0197069
0.5002878 0.7263309 0.0173732
0.5323939 0.7272903 0.0156302
0.5642369 0.7281480 0.0145684
0.5955921 0.7289141 0.0142393
0.6262622 0.7297232 0.0142528
0.6566333 0.7306527 0.0140840
0.6868424 0.7316874 0.0137488
0.7170207 0.7328110 0.0132750
0.7530674 0.7398361 0.0125657
0.7853010 0.7429385 0.0117537
0.8179867 0.7460496 0.0108906
0.8513058 0.7491183 0.0100005
0.8855336 0.7521119 0.0091016
0.9211262 0.7550096 0.0082076
0.9590185 0.7577996 0.0073281
1.0000000 0.7604763 0.0064707
1.0000000 0.7630374 0.0056405
1.0000000 0.7635444 0.0055348
0.0852526 0.7414418 0.0945213
0.0863990 0.7419778 0.0742613
0.1030894 0.7427458 0.0618573
0.1321456 0.7436385 0.0600979
0.1612928 0.7446262 0.0576818
