rust/film_profiles/chrome64_inspired/lut.cube
TITLE "Chrome 64 Inspired"
LUT_3D_SIZE 5
DOMAIN_MIN 0.0 0.0 0.0
DOMAIN_MAX 1.0 1.0 1.0
0.0000000 0.0000000 0.0000000
0.2564238 0.0000000 0.0000000
0.5115489 0.0026224 0.0000000
0.7598648 0.0078005 0.0000000
1.0000000 0.0126540 0.0000000
0.0253233 0.2403780 0.0197217
0.2621342 0.2504064 0.0000000
0.5211806 0.2673581 0.0000000
0.7711979 0.2744059 0.0000000
1.0000000 0.2796778 0.0000000
0.0540084 0.4933122 0.0568614
0.2672185 0.5015928 0.0151100
0.5257611 0.5134220 0.0054527
0.7798709 0.5346257 0.0000000
1.0000000 0.5462666 0.0000000
0.0852526 0.7414418 0.0945213
0.2803855 0.7492380 0.0444713
0.5332257 0.7587487 0.0179017
0.7861907 0.7726653 0.0134917
1.0000000 0.7942431 0.0071870
0.1183475 1.0000000 0.1313323
0.2988086 1.0000000 0.0726789
0.5420807 1.0000000 0.0415930
0.7963729 1.0000000 0.0228324
1.0000000 1.0000000 0.0203189
0.0051438 0.0020067 0.2035615
0.2471232 0.0173722 0.2125923
0.5037083 0.0049824 0.2131652
0.7519567 0.0030434 0.2086620
0.9972158 0.0064737 0.2081715
0.0122281 0.2396543 0.2115910
0.2565646 0.2466476 0.2185425
0.5131785 0.2537922 0.2176073
0.7621197 0.2599536 0.2163324
1.0000000 0.2657958 0.2148758
0.0298055 0.4952002 0.2419511
0.2749849 0.4965995 0.2512125
0.5207073 0.5099823 0.2282457
0.7758973 0.5291026 0.2213392
1.0000000 0.5361635 0.2172592
0.0654033 0.7427807 0.2831041
0.3076644 0.7449825 0.2935614
0.5268756 0.7555797 0.2486551
0.7812555 0.7692746 0.2358126
1.0000000 0.7914740 0.2271035
0.1025367 1.0000000 0.3245724
0.3418723 1.0000000 0.3341938
0.5407349 1.0000000 0.2793409
0.7905117 1.0000000 0.2480871
1.0000000 1.0000000 0.2415335
0.0107307 0.0115832 0.4390770
0.2454685 0.0056553 0.4426535
0.4938816 0.0438025 0.4569463
0.7431528 0.0324120 0.4663879
0.9955628 0.0192064 0.4583233
0.0347075 0.2704573 0.4446160
0.2542563 0.2526442 0.4510392
0.5009887 0.2703643 0.4602611
0.7531368 0.2594290 0.4607307
1.0000000 0.2590039 0.4568279
0.0274776 0.4920104 0.4538116
0.2617487 0.4972833 0.4594185
0.5154221 0.5062780 0.4668273
0.7670630 0.5149261 0.4657983
1.0000000 0.5207104 0.4637196
0.0351019 0.7454904 0.4793533
0.2826344 0.7484338 0.4885992
0.5271109 0.7488539 0.4901253
0.7763694 0.7658746 0.4743788
1.0000000 0.7872322 0.4687559
0.0699358 1.0000000 0.5105790
0.3183165 1.0000000 0.5269735
0.5578982 1.0000000 0.5271715
0.7837644 1.0000000 0.4911576
1.0000000 1.0000000 0.4798283
0.0164496 0.0215232 0.6729165
0.2390373 0.0000000 0.6790704
0.4904982 0.0381547 0.6760361
0.7338476 0.0711029 0.6992965
0.9894788 0.0643037 0.7139100
0.0452947 0.2890319 0.6765937
0.2548649 0.2617976 0.6843454
0.5010698 0.2585170 0.6892794
0.7416545 0.2981167 0.7020856
1.0000000 0.2888135 0.7110056
0.0550579 0.5256563 0.6871034
0.2769681 0.5230325 0.6857798
0.5106673 0.5091531 0.6948684
0.7515084 0.5260319 0.7040331
1.0000000 0.5178508 0.7046880
0.0453287 0.7396529 0.6929004
0.2720294 0.7449051 0.6977652
0.5211066 0.7515422 0.7039846
0.7711173 0.7620997 0.7110907
1.0000000 0.7727789 0.7102672
0.0485705 1.0000000 0.7177162
0.2824560 1.0000000 0.7225345
0.5459331 1.0000000 0.7320946
0.7819438 1.0000000 0.7303796
1.0000000 1.0000000 0.7157374
0.0222676 0.0316629 0.9180979
0.2329642 0.0010440 0.9261587
0.4907638 0.0194745 0.9261489
0.7241497 0.0716065 0.9209297
0.9859073 0.0984121 0.9583340
0.0526944 0.3019062 0.9215885
0.2555042 0.2709594 0.9309064
0.4956411 0.2469399 0.9411581
0.7386103 0.2924857 0.9346901
1.0000000 0.3256051 0.9616385
0.0745629 0.5523283 0.9286941
0.2838917 0.5431512 0.9305454
0.5116055 0.5182105 0.9433091
0.7530209 0.5178371 0.9502887
1.0000000 0.5534260 0.9638095
0.0748999 0.7760422 0.9449221
0.2923369 0.7751121 0.9425483
0.5322524 0.7720568 0.9396445
0.7636979 0.7619637 0.9536952
1.0000000 0.7786927 0.9650400
0.0657440 1.0000000 0.9464894
0.2847579 1.0000000 0.9516952
0.5334119 1.0000000 0.9584491
0.7781215 1.0000000 0.9666455
1.0000000 1.0000000 0.9724171
