rust/creative_luts/golden/lut.cube
TITLE "Pixel Craft Creative: golden"
LUT_3D_SIZE 5
DOMAIN_MIN 0.0 0.0 0.0
DOMAIN_MAX 1.0 1.0 1.0
0.0980392 0.0078431 0.0000000
0.3529412 0.0078431 0.0000000
0.6039216 0.0078431 0.0000000
0.8509804 0.0078431 0.0000000
1.0000000 0.0078431 0.0000000
0.0980392 0.2627451 0.0000000
0.3529412 0.2627451 0.0000000
0.6039216 0.2627451 0.0000000
0.8509804 0.2627451 0.0000000
1.0000000 0.2627451 0.0000000
0.0980392 0.5137255 0.0000000
0.3529412 0.5137255 0.0000000
0.6039216 0.5137255 0.0000000
0.8509804 0.5137255 0.0000000
1.0000000 0.5137255 0.0000000
0.0980392 0.7607843 0.0000000
0.3529412 0.7607843 0.0000000
0.6039216 0.7607843 0.0000000
0.8509804 0.7607843 0.0000000
1.0000000 0.7607843 0.0000000
0.0980392 1.0000000 0.0000000
0.3529412 1.0000000 0.0000000
0.6039216 1.0000000 0.0000000
0.8509804 1.0000000 0.0000000
1.0000000 1.0000000 0.0000000
0.0980392 0.0078431 0.1686275
0.3529412 0.0078431 0.1686275
0.6039216 0.0078431 0.1686275
0.8509804 0.0078431 0.1686275
1.0000000 0.0078431 0.1686275
0.0980392 0.2627451 0.1686275
0.3529412 0.2627451 0.1686275
0.6039216 0.2627451 0.1686275
0.8509804 0.2627451 0.1686275
1.0000000 0.2627451 0.1686275
0.0980392 0.5137255 0.1686275
0.3529412 0.5137255 0.1686275
0.6039216 0.5137255 0.1686275
0.8509804 0.5137255 0.1686275
1.0000000 0.5137255 0.1686275
0.0980392 0.7607843 0.1686275
0.3529412 0.7607843 0.1686275
0.6039216 0.7607843 0.1686275
0.8509804 0.7607843 0.1686275
1.0000000 0.7607843 0.1686275
0.0980392 1.0000000 0.1686275
0.3529412 1.0000000 0.1686275
0.6039216 1.0000000 0.1686275
0.8509804 1.0000000 0.1686275
1.0000000 1.0000000 0.1686275
0.0980392 0.0078431 0.4196078
0.3529412 0.0078431 0.4196078
0.6039216 0.0078431 0.4196078
0.8509804 0.0078431 0.4196078
1.0000000 0.0078431 0.4196078
0.0980392 0.2627451 0.4196078
0.3529412 0.2627451 0.4196078
0.6039216 0.2627451 0.4196078
0.8509804 0.2627451 0.4196078
1.0000000 0.2627451 0.4196078
0.0980392 0.5137255 0.4196078
0.3529412 0.5137255 0.4196078
0.6039216 0.5137255 0.4196078
0.8509804 0.5137255 0.4196078
1.0000000 0.5137255 0.4196078
0.0980392 0.7607843 0.4196078
0.3529412 0.7607843 0.4196078
0.6039216 0.7607843 0.4196078
0.8509804 0.7607843 0.4196078
1.0000000 0.7607843 0.4196078
0.0980392 1.0000000 0.4196078
0.3529412 1.0000000 0.4196078
0.6039216 1.0000000 0.4196078
0.8509804 1.0000000 0.4196078
1.0000000 1.0000000 0.4196078
0.0980392 0.0078431 0.6666667
0.3529412 0.0078431 0.6666667
0.6039216 0.0078431 0.6666667
0.8509804 0.0078431 0.6666667
1.0000000 0.0078431 0.6666667
0.0980392 0.2627451 0.6666667
0.3529412 0.2627451 0.6666667
0.6039216 0.2627451 0.6666667
0.8509804 0.2627451 0.6666667
1.0000000 0.2627451 0.6666667
0.0980392 0.5137255 0.6666667
0.3529412 0.5137255 0.6666667
0.6039216 0.5137255 0.6666667
0.8509804 0.5137255 0.6666667
1.0000000 0.5137255 0.6666667
0.0980392 0.7607843 0.6666667
0.3529412 0.7607843 0.6666667
0.6039216 0.7607843 0.6666667
0.8509804 0.7607843 0.6666667
1.0000000 0.7607843 0.6666667
0.0980392 1.0000000 0.6666667
0.3529412 1.0000000 0.6666667
0.6039216 1.0000000 0.6666667
0.8509804 1.0000000 0.6666667
1.0000000 1.0000000 0.6666667
0.0980392 0.0078431 0.9254902
0.3529412 0.0078431 0.9254902
0.6039216 0.0078431 0.9254902
0.8509804 0.0078431 0.9254902
1.0000000 0.0078431 0.9254902
0.0980392 0.2627451 0.9254902
0.3529412 0.2627451 0.9254902
0.6039216 0.2627451 0.9254902
0.8509804 0.2627451 0.9254902
1.0000000 0.2627451 0.9254902
0.0980392 0.5137255 0.9254902
0.3529412 0.5137255 0.9254902
0.6039216 0.5137255 0.9254902
0.8509804 0.5137255 0.9254902
1.0000000 0.5137255 0.9254902
0.0980392 0.7607843 0.9254902
0.3529412 0.7607843 0.9254902
0.6039216 0.7607843 0.9254902
0.8509804 0.7607843 0.9254902
1.0000000 0.7607843 0.9254902
0.0980392 1.0000000 0.9254902
0.3529412 1.0000000 0.9254902
0.6039216 1.0000000 0.9254902
0.8509804 1.0000000 0.9254902
1.0000000 1.0000000 0.9254902
