rust/creative_luts/golden/lut.cube
TITLE "Pixel Craft Creative: golden"
LUT_3D_SIZE 9
DOMAIN_MIN 0.0 0.0 0.0
DOMAIN_MAX 1.0 1.0 1.0
0.0980392 0.0078431 0.0000000
0.2235294 0.0078431 0.0000000
0.3529412 0.0078431 0.0000000
0.4745098 0.0078431 0.0000000
0.6039216 0.0078431 0.0000000
0.7294118 0.0078431 0.0000000
0.8509804 0.0078431 0.0000000
0.9803922 0.0078431 0.0000000
1.0000000 0.0078431 0.0000000
0.0980392 0.1333333 0.0000000
0.2235294 0.1333333 0.0000000
0.3529412 0.1333333 0.0000000
0.4745098 0.1333333 0.0000000
0.6039216 0.1333333 0.0000000
0.7294118 0.1333333 0.0000000
0.8509804 0.1333333 0.0000000
0.9803922 0.1333333 0.0000000
1.0000000 0.1333333 0.0000000
0.0980392 0.2627451 0.0000000
0.2235294 0.2627451 0.0000000
0.3529412 0.2627451 0.0000000
0.4745098 0.2627451 0.0000000
0.6039216 0.2627451 0.0000000
0.7294118 0.2627451 0.0000000
0.8509804 0.2627451 0.0000000
0.9803922 0.2627451 0.0000000
1.0000000 0.2627451 0.0000000
0.0980392 0.3843137 0.0000000
0.2235294 0.3843137 0.0000000
0.3529412 0.3843137 0.0000000
0.4745098 0.3843137 0.0000000
0.6039216 0.3843137 0.0000000
0.7294118 0.3843137 0.0000000
0.8509804 0.3843137 0.0000000
0.9803922 0.3843137 0.0000000
1.0000000 0.3843137 0.0000000
0.0980392 0.5137255 0.0000000
0.2235294 0.5137255 0.0000000
0.3529412 0.5137255 0.0000000
0.4745098 0.5137255 0.0000000
0.6039216 0.5137255 0.0000000
0.7294118 0.5137255 0.0000000
0.8509804 0.5137255 0.0000000
0.9803922 0.5137255 0.0000000
1.0000000 0.5137255 0.0000000
0.0980392 0.6392157 0.0000000
0.2235294 0.6392157 0.0000000
0.3529412 0.6392157 0.0000000
0.4745098 0.6392157 0.0000000
0.6039216 0.6392157 0.0000000
0.7294118 0.6392157 0.0000000
0.8509804 0.6392157 0.0000000
0.9803922 0.6392157 0.0000000
1.0000000 0.6392157 0.0000000
0.0980392 0.7607843 0.0000000
0.2235294 0.7607843 0.0000000
0.3529412 0.7607843 0.0000000
0.4745098 0.7607843 0.0000000
0.6039216 0.7607843 0.0000000
0.7294118 0.7607843 0.0000000
0.8509804 0.7607843 0.0000000
0.9803922 0.7607843 0.0000000
1.0000000 0.7607843 0.0000000
0.0980392 0.8901961 0.0000000
0.2235294 0.8901961 0.0000000
0.3529412 0.8901961 0.0000000
0.4745098 0.8901961 0.0000000
0.6039216 0.8901961 0.0000000
0.7294118 0.8901961 0.0000000
0.8509804 0.8901961 0.0000000
0.9803922 0.8901961 0.0000000
1.0000000 0.8901961 0.0000000
0.0980392 1.0000000 0.0000000
0.2235294 1.0000000 0.0000000
0.3529412 1.0000000 0.0000000
0.4745098 1.0000000 0.0000000
0.6039216 1.0000000 0.0000000
0.7294118 1.0000000 0.0000000
0.8509804 1.0000000 0.0000000
0.9803922 1.0000000 0.0000000
1.0000000 1.0000000 0.0000000
0.0980392 0.0078431 0.0392157
0.2235294 0.0078431 0.0392157
0.3529412 0.0078431 0.0392157
0.4745098 0.0078431 0.0392157
0.6039216 0.0078431 0.0392157
0.7294118 0.0078431 0.0392157
0.8509804 0.0078431 0.0392157
0.9803922 0.0078431 0.0392157
1.0000000 0.0078431 0.0392157
0.0980392 0.1333333 0.0392157
0.2235294 0.1333333 0.0392157
0.3529412 0.1333333 0.0392157
0.4745098 0.1333333 0.0392157
0.6039216 0.1333333 0.0392157
0.7294118 0.1333333 0.0392157
0.8509804 0.1333333 0.0392157
0.9803922 0.1333333 0.0392157
1.0000000 0.1333333 0.0392157
0.0980392 0.2627451 0.0392157
0.2235294 0.2627451 0.0392157
0.3529412 0.2627451 0.0392157
0.4745098 0.2627451 0.0392157
0.6039216 0.2627451 0.0392157
0.7294118 0.2627451 0.0392157
0.8509804 0.2627451 0.0392157
0.9803922 0.2627451 0.0392157
1.0000000 0.2627451 0.0392157
0.0980392 0.3843137 0.0392157
0.2235294 0.3843137 0.0392157
0.3529412 0.3843137 0.0392157
0.4745098 0.3843137 0.0392157
0.6039216 0.3843137 0.0392157
0.7294118 0.3843137 0.0392157
0.8509804 0.3843137 0.0392157
0.9803922 0.3843137 0.0392157
1.0000000 0.3843137 0.0392157
0.0980392 0.5137255 0.0392157
0.2235294 0.5137255 0.0392157
0.3529412 0.5137255 0.0392157
0.4745098 0.5137255 0.0392157
0.6039216 0.5137255 0.0392157
0.7294118 0.5137255 0.0392157
0.8509804 0.5137255 0.0392157
0.9803922 0.5137255 0.0392157
1.0000000 0.5137255 0.0392157
0.0980392 0.6392157 0.0392157
0.2235294 0.6392157 0.0392157
0.3529412 0.6392157 0.0392157
0.4745098 0.6392157 0.0392157
0.6039216 0.6392157 0.0392157
0.7294118 0.6392157 0.0392157
0.8509804 0.6392157 0.0392157
0.9803922 0.6392157 0.0392157
1.0000000 0.6392157 0.0392157
0.0980392 0.7607843 0.0392157
0.2235294 0.7607843 0.0392157
0.3529412 0.7607843 0.0392157
0.4745098 0.7607843 0.0392157
0.6039216 0.7607843 0.0392157
0.7294118 0.7607843 0.0392157
0.8509804 0.7607843 0.0392157
0.9803922 0.7607843 0.0392157
1.0000000 0.7607843 0.0392157
0.0980392 0.8901961 0.0392157
0.2235294 0.8901961 0.0392157
0.3529412 0.8901961 0.0392157
0.4745098 0.8901961 0.0392157
0.6039216 0.8901961 0.0392157
0.7294118 0.8901961 0.0392157
0.8509804 0.8901961 0.0392157
0.9803922 0.8901961 0.0392157
1.0000000 0.8901961 0.0392157
0.0980392 1.0000000 0.0392157
0.2235294 1.0000000 0.0392157
0.3529412 1.0000000 0.0392157
0.4745098 1.0000000 0.0392157
0.6039216 1.0000000 0.0392157
0.7294118 1.0000000 0.0392157
0.8509804 1.0000000 0.0392157
0.9803922 1.0000000 0.0392157
1.0000000 1.0000000 0.0392157
0.0980392 0.0078431 0.1686275
0.2235294 0.0078431 0.1686275
0.3529412 0.0078431 0.1686275
0.4745098 0.0078431 0.1686275
0.6039216 0.0078431 0.1686275
0.7294118 0.0078431 0.1686275
0.8509804 0.0078431 0.1686275
0.9803922 0.0078431 0.1686275
1.0000000 0.0078431 0.1686275
0.0980392 0.1333333 0.1686275
0.2235294 0.1333333 0.1686275
0.3529412 0.1333333 0.1686275
0.4745098 0.1333333 0.1686275
0.6039216 0.1333333 0.1686275
0.7294118 0.1333333 0.1686275
0.8509804 0.1333333 0.1686275
0.9803922 0.1333333 0.1686275
1.0000000 0.1333333 0.1686275
0.0980392 0.2627451 0.1686275
0.2235294 0.2627451 0.1686275
0.3529412 0.2627451 0.1686275
0.4745098 0.2627451 0.1686275
0.6039216 0.2627451 0.1686275
0.7294118 0.2627451 0.1686275
0.8509804 0.2627451 0.1686275
0.9803922 0.2627451 0.1686275
1.0000000 0.2627451 0.1686275
0.0980392 0.3843137 0.1686275
0.2235294 0.3843137 0.1686275
0.3529412 0.3843137 0.1686275
0.4745098 0.3843137 0.1686275
0.6039216 0.3843137 0.1686275
0.7294118 0.3843137 0.1686275
0.8509804 0.3843137 0.1686275
0.9803922 0.3843137 0.1686275
1.0000000 0.3843137 0.1686275
0.0980392 0.5137255 0.1686275
0.2235294 0.5137255 0.1686275
0.3529412 0.5137255 0.1686275
0.4745098 0.5137255 0.1686275
0.6039216 0.5137255 0.1686275
0.7294118 0.5137255 0.1686275
0.8509804 0.5137255 0.1686275
0.9803922 0.5137255 0.1686275
1.0000000 0.5137255 0.1686275
0.0980392 0.6392157 0.1686275
0.2235294 0.6392157 0.1686275
0.3529412 0.6392157 0.1686275
0.4745098 0.6392157 0.1686275
0.6039216 0.6392157 0.1686275
0.7294118 0.6392157 0.1686275
0.8509804 0.6392157 0.1686275
0.9803922 0.6392157 0.1686275
1.0000000 0.6392157 0.1686275
0.0980392 0.7607843 0.1686275
0.2235294 0.7607843 0.1686275
0.3529412 0.7607843 0.1686275
0.4745098 0.7607843 0.1686275
0.6039216 0.7607843 0.1686275
0.7294118 0.7607843 0.1686275
0.8509804 0.7607843 0.1686275
0.9803922 0.7607843 0.1686275
1.0000000 0.7607843 0.1686275
0.0980392 0.8901961 0.1686275
0.2235294 0.8901961 0.1686275
0.3529412 0.8901961 0.1686275
0.4745098 0.8901961 0.1686275
0.6039216 0.8901961 0.1686275
0.7294118 0.8901961 0.1686275
0.8509804 0.8901961 0.1686275
0.9803922 0.8901961 0.1686275
1.0000000 0.8901961 0.1686275
0.0980392 1.0000000 0.1686275
0.2235294 1.0000000 0.1686275
0.3529412 1.0000000 0.1686275
0.4745098 1.0000000 0.1686275
0.6039216 1.0000000 0.1686275
0.7294118 1.0000000 0.1686275
0.8509804 1.0000000 0.1686275
0.9803922 1.0000000 0.1686275
1.0000000 1.0000000 0.1686275
0.0980392 0.0078431 0.2901961
0.2235294 0.0078431 0.2901961
0.3529412 0.0078431 0.2901961
0.4745098 0.0078431 0.2901961
0.6039216 0.0078431 0.2901961
0.7294118 0.0078431 0.2901961
0.8509804 0.0078431 0.2901961
0.9803922 0.0078431 0.2901961
1.0000000 0.0078431 0.2901961
0.0980392 0.1333333 0.2901961
0.2235294 0.1333333 0.2901961
0.3529412 0.1333333 0.2901961
0.4745098 0.1333333 0.2901961
0.6039216 0.1333333 0.2901961
0.7294118 0.1333333 0.2901961
0.8509804 0.1333333 0.2901961
0.9803922 0.1333333 0.2901961
1.0000000 0.1333333 0.2901961
0.0980392 0.2627451 0.2901961
0.2235294 0.2627451 0.2901961
0.3529412 0.2627451 0.2901961
0.4745098 0.2627451 0.2901961
0.6039216 0.2627451 0.2901961
0.7294118 0.2627451 0.2901961
0.8509804 0.2627451 0.2901961
0.9803922 0.2627451 0.2901961
1.0000000 0.2627451 0.2901961
0.0980392 0.3843137 0.2901961
0.2235294 0.3843137 0.2901961
0.3529412 0.3843137 0.2901961
0.4745098 0.3843137 0.2901961
0.6039216 0.3843137 0.2901961
0.7294118 0.3843137 0.2901961
0.8509804 0.3843137 0.2901961
0.9803922 0.3843137 0.2901961
1.0000000 0.3843137 0.2901961
0.0980392 0.5137255 0.2901961
0.2235294 0.5137255 0.2901961
0.3529412 0.5137255 0.2901961
0.4745098 0.5137255 0.2901961
0.6039216 0.5137255 0.2901961
0.7294118 0.5137255 0.2901961
0.8509804 0.5137255 0.2901961
0.9803922 0.5137255 0.2901961
1.0000000 0.5137255 0.2901961
0.0980392 0.6392157 0.2901961
0.2235294 0.6392157 0.2901961
0.3529412 0.6392157 0.2901961
0.4745098 0.6392157 0.2901961
0.6039216 0.6392157 0.2901961
0.7294118 0.6392157 0.2901961
0.8509804 0.6392157 0.2901961
0.9803922 0.6392157 0.2901961
1.0000000 0.6392157 0.2901961
0.0980392 0.7607843 0.2901961
0.2235294 0.7607843 0.2901961
0.3529412 0.7607843 0.2901961
0.4745098 0.7607843 0.2901961
0.6039216 0.7607843 0.2901961
0.7294118 0.7607843 0.2901961
0.8509804 0.7607843 0.2901961
0.9803922 0.7607843 0.2901961
1.0000000 0.7607843 0.2901961
0.0980392 0.8901961 0.2901961
0.2235294 0.8901961 0.2901961
0.3529412 0.8901961 0.2901961
0.4745098 0.8901961 0.2901961
0.6039216 0.8901961 0.2901961
0.7294118 0.8901961 0.2901961
0.8509804 0.8901961 0.2901961
0.9803922 0.8901961 0.2901961
1.0000000 0.8901961 0.2901961
0.0980392 1.0000000 0.2901961
0.2235294 1.0000000 0.2901961
0.3529412 1.0000000 0.2901961
0.4745098 1.0000000 0.2901961
0.6039216 1.0000000 0.2901961
0.7294118 1.0000000 0.2901961
0.8509804 1.0000000 0.2901961
0.9803922 1.0000000 0.2901961
1.0000000 1.0000000 0.2901961
0.0980392 0.0078431 0.4196078
0.2235294 0.0078431 0.4196078
0.3529412 0.0078431 0.4196078
0.4745098 0.0078431 0.4196078
0.6039216 0.0078431 0.4196078
0.7294118 0.0078431 0.4196078
0.8509804 0.0078431 0.4196078
0.9803922 0.0078431 0.4196078
1.0000000 0.0078431 0.4196078
0.0980392 0.1333333 0.4196078
0.2235294 0.1333333 0.4196078
0.3529412 0.1333333 0.4196078
0.4745098 0.1333333 0.4196078
0.6039216 0.1333333 0.4196078
0.7294118 0.1333333 0.4196078
0.8509804 0.1333333 0.4196078
0.9803922 0.1333333 0.4196078
1.0000000 0.1333333 0.4196078
0.0980392 0.2627451 0.4196078
0.2235294 0.2627451 0.4196078
0.3529412 0.2627451 0.4196078
0.4745098 0.2627451 0.4196078
0.6039216 0.2627451 0.4196078
0.7294118 0.2627451 0.4196078
0.8509804 0.2627451 0.4196078
0.9803922 0.2627451 0.4196078
1.0000000 0.2627451 0.4196078
0.0980392 0.3843137 0.4196078
0.2235294 0.3843137 0.4196078
0.3529412 0.3843137 0.4196078
0.4745098 0.3843137 0.4196078
0.6039216 0.3843137 0.4196078
0.7294118 0.3843137 0.4196078
0.8509804 0.3843137 0.4196078
0.9803922 0.3843137 0.4196078
1.0000000 0.3843137 0.4196078
0.0980392 0.5137255 0.4196078
0.2235294 0.5137255 0.4196078
0.3529412 0.5137255 0.4196078
0.4745098 0.5137255 0.4196078
0.6039216 0.5137255 0.4196078
0.7294118 0.5137255 0.4196078
0.8509804 0.5137255 0.4196078
0.9803922 0.5137255 0.4196078
1.0000000 0.5137255 0.4196078
0.0980392 0.6392157 0.4196078
0.2235294 0.6392157 0.4196078
0.3529412 0.6392157 0.4196078
0.4745098 0.6392157 0.4196078
0.6039216 0.6392157 0.4196078
0.7294118 0.6392157 0.4196078
0.8509804 0.6392157 0.4196078
0.9803922 0.6392157 0.4196078
1.0000000 0.6392157 0.4196078
0.0980392 0.7607843 0.4196078
0.2235294 0.7607843 0.4196078
0.3529412 0.7607843 0.4196078
0.4745098 0.7607843 0.4196078
0.6039216 0.7607843 0.4196078
0.7294118 0.7607843 0.4196078
0.8509804 0.7607843 0.4196078
0.9803922 0.7607843 0.4196078
1.0000000 0.7607843 0.4196078
0.0980392 0.8901961 0.4196078
0.2235294 0.8901961 0.4196078
0.3529412 0.8901961 0.4196078
0.4745098 0.8901961 0.4196078
0.6039216 0.8901961 0.4196078
0.7294118 0.8901961 0.4196078
0.8509804 0.8901961 0.4196078
0.9803922 0.8901961 0.4196078
1.0000000 0.8901961 0.4196078
0.0980392 1.0000000 0.4196078
0.2235294 1.0000000 0.4196078
0.3529412 1.0000000 0.4196078
0.4745098 1.0000000 0.4196078
0.6039216 1.0000000 0.4196078
0.7294118 1.0000000 0.4196078
0.8509804 1.0000000 0.4196078
0.9803922 1.0000000 0.4196078
1.0000000 1.0000000 0.4196078
0.0980392 0.0078431 0.5450981
0.2235294 0.0078431 0.5450981
0.3529412 0.0078431 0.5450981
0.4745098 0.0078431 0.5450981
0.6039216 0.0078431 0.5450981
0.7294118 0.0078431 0.5450981
0.8509804 0.0078431 0.5450981
0.9803922 0.0078431 0.5450981
1.0000000 0.0078431 0.5450981
0.0980392 0.1333333 0.5450981
0.2235294 0.1333333 0.5450981
0.3529412 0.1333333 0.5450981
0.4745098 0.1333333 0.5450981
0.6039216 0.1333333 0.5450981
0.7294118 0.1333333 0.5450981
0.8509804 0.1333333 0.5450981
0.9803922 0.1333333 0.5450981
1.0000000 0.1333333 0.5450981
0.0980392 0.2627451 0.5450981
0.2235294 0.2627451 0.5450981
0.3529412 0.2627451 0.5450981
0.4745098 0.2627451 0.5450981
0.6039216 0.2627451 0.5450981
0.7294118 0.2627451 0.5450981
0.8509804 0.2627451 0.5450981
0.9803922 0.2627451 0.5450981
1.0000000 0.2627451 0.5450981
0.0980392 0.3843137 0.5450981
0.2235294 0.3843137 0.5450981
0.3529412 0.3843137 0.5450981
0.4745098 0.3843137 0.5450981
0.6039216 0.3843137 0.5450981
0.7294118 0.3843137 0.5450981
0.8509804 0.3843137 0.5450981
0.9803922 0.3843137 0.5450981
1.0000000 0.3843137 0.5450981
0.0980392 0.5137255 0.5450981
0.2235294 0.5137255 0.5450981
0.3529412 0.5137255 0.5450981
0.4745098 0.5137255 0.5450981
0.6039216 0.5137255 0.5450981
0.7294118 0.5137255 0.5450981
0.8509804 0.5137255 0.5450981
0.9803922 0.5137255 0.5450981
1.0000000 0.5137255 0.5450981
0.0980392 0.6392157 0.5450981
0.2235294 0.6392157 0.5450981
0.3529412 0.6392157 0.5450981
0.4745098 0.6392157 0.5450981
0.6039216 0.6392157 0.5450981
0.7294118 0.6392157 0.5450981
0.8509804 0.6392157 0.5450981
0.9803922 0.6392157 0.5450981
1.0000000 0.6392157 0.5450981
0.0980392 0.7607843 0.5450981
0.2235294 0.7607843 0.5450981
0.3529412 0.7607843 0.5450981
0.4745098 0.7607843 0.5450981
0.6039216 0.7607843 0.5450981
0.7294118 0.7607843 0.5450981
0.8509804 0.7607843 0.5450981
0.9803922 0.7607843 0.5450981
1.0000000 0.7607843 0.5450981
0.0980392 0.8901961 0.5450981
0.2235294 0.8901961 0.5450981
0.3529412 0.8901961 0.5450981
0.4745098 0.8901961 0.5450981
0.6039216 0.8901961 0.5450981
0.7294118 0.8901961 0.5450981
0.8509804 0.8901961 0.5450981
0.9803922 0.8901961 0.5450981
1.0000000 0.8901961 0.5450981
0.0980392 1.0000000 0.5450981
0.2235294 1.0000000 0.5450981
0.3529412 1.0000000 0.5450981
0.4745098 1.0000000 0.5450981
0.6039216 1.0000000 0.5450981
0.7294118 1.0000000 0.5450981
0.8509804 1.0000000 0.5450981
0.9803922 1.0000000 0.5450981
1.0000000 1.0000000 0.5450981
0.0980392 0.0078431 0.6666667
0.2235294 0.0078431 0.6666667
0.3529412 0.0078431 0.6666667
0.4745098 0.0078431 0.6666667
0.6039216 0.0078431 0.6666667
0.7294118 0.0078431 0.6666667
0.8509804 0.0078431 0.6666667
0.9803922 0.0078431 0.6666667
1.0000000 0.0078431 0.6666667
0.0980392 0.1333333 0.6666667
0.2235294 0.1333333 0.6666667
0.3529412 0.1333333 0.6666667
0.4745098 0.1333333 0.6666667
0.6039216 0.1333333 0.6666667
0.7294118 0.1333333 0.6666667
0.8509804 0.1333333 0.6666667
0.9803922 0.1333333 0.6666667
1.0000000 0.1333333 0.6666667
0.0980392 0.2627451 0.6666667
0.2235294 0.2627451 0.6666667
0.3529412 0.2627451 0.6666667
0.4745098 0.2627451 0.6666667
0.6039216 0.2627451 0.6666667
0.7294118 0.2627451 0.6666667
0.8509804 0.2627451 0.6666667
0.9803922 0.2627451 0.6666667
1.0000000 0.2627451 0.6666667
0.0980392 0.3843137 0.6666667
0.2235294 0.3843137 0.6666667
0.3529412 0.3843137 0.6666667
0.4745098 0.3843137 0.6666667
0.6039216 0.3843137 0.6666667
0.7294118 0.3843137 0.6666667
0.8509804 0.3843137 0.6666667
0.9803922 0.3843137 0.6666667
1.0000000 0.3843137 0.6666667
0.0980392 0.5137255 0.6666667
0.2235294 0.5137255 0.6666667
0.3529412 0.5137255 0.6666667
0.4745098 0.5137255 0.6666667
0.6039216 0.5137255 0.6666667
0.7294118 0.5137255 0.6666667
0.8509804 0.5137255 0.6666667
0.9803922 0.5137255 0.6666667
1.0000000 0.5137255 0.6666667
0.0980392 0.6392157 0.6666667
0.2235294 0.6392157 0.6666667
0.3529412 0.6392157 0.6666667
0.4745098 0.6392157 0.6666667
0.6039216 0.6392157 0.6666667
0.7294118 0.6392157 0.6666667
0.8509804 0.6392157 0.6666667
0.9803922 0.6392157 0.6666667
1.0000000 0.6392157 0.6666667
0.0980392 0.7607843 0.6666667
0.2235294 0.7607843 0.6666667
0.3529412 0.7607843 0.6666667
0.4745098 0.7607843 0.6666667
0.6039216 0.7607843 0.6666667
0.7294118 0.7607843 0.6666667
0.8509804 0.7607843 0.6666667
0.9803922 0.7607843 0.6666667
1.0000000 0.7607843 0.6666667
0.0980392 0.8901961 0.6666667
0.2235294 0.8901961 0.6666667
0.3529412 0.8901961 0.6666667
0.4745098 0.8901961 0.6666667
0.6039216 0.8901961 0.6666667
0.7294118 0.8901961 0.6666667
0.8509804 0.8901961 0.6666667
0.9803922 0.8901961 0.6666667
1.0000000 0.8901961 0.6666667
0.0980392 1.0000000 0.6666667
0.2235294 1.0000000 0.6666667
0.3529412 1.0000000 0.6666667
0.4745098 1.0000000 0.6666667
0.6039216 1.0000000 0.6666667
0.7294118 1.0000000 0.6666667
0.8509804 1.0000000 0.6666667
0.9803922 1.0000000 0.6666667
1.0000000 1.0000000 0.6666667
0.0980392 0.0078431 0.7960784
0.2235294 0.0078431 0.7960784
0.3529412 0.0078431 0.7960784
0.4745098 0.0078431 0.7960784
0.6039216 0.0078431 0.7960784
0.7294118 0.0078431 0.7960784
0.8509804 0.0078431 0.7960784
0.9803922 0.0078431 0.7960784
1.0000000 0.0078431 0.7960784
0.0980392 0.1333333 0.7960784
0.2235294 0.1333333 0.7960784
0.3529412 0.1333333 0.7960784
0.4745098 0.1333333 0.7960784
0.6039216 0.1333333 0.7960784
0.7294118 0.1333333 0.7960784
0.8509804 0.1333333 0.7960784
0.9803922 0.1333333 0.7960784
1.0000000 0.1333333 0.7960784
0.0980392 0.2627451 0.7960784
0.2235294 0.2627451 0.7960784
0.3529412 0.2627451 0.7960784
0.4745098 0.2627451 0.7960784
0.6039216 0.2627451 0.7960784
0.7294118 0.2627451 0.7960784
0.8509804 0.2627451 0.7960784
0.9803922 0.2627451 0.7960784
1.0000000 0.2627451 0.7960784
0.0980392 0.3843137 0.7960784
0.2235294 0.3843137 0.7960784
0.3529412 0.3843137 0.7960784
0.4745098 0.3843137 0.7960784
0.6039216 0.3843137 0.7960784
0.7294118 0.3843137 0.7960784
0.8509804 0.3843137 0.7960784
0.9803922 0.3843137 0.7960784
1.0000000 0.3843137 0.7960784
0.0980392 0.5137255 0.7960784
0.2235294 0.5137255 0.7960784
0.3529412 0.5137255 0.7960784
0.4745098 0.5137255 0.7960784
0.6039216 0.5137255 0.7960784
0.7294118 0.5137255 0.7960784
0.8509804 0.5137255 0.7960784
0.9803922 0.5137255 0.7960784
1.0000000 0.5137255 0.7960784
0.0980392 0.6392157 0.7960784
0.2235294 0.6392157 0.7960784
0.3529412 0.6392157 0.7960784
0.4745098 0.6392157 0.7960784
0.6039216 0.6392157 0.7960784
0.7294118 0.6392157 0.7960784
0.8509804 0.6392157 0.7960784
0.9803922 0.6392157 0.7960784
1.0000000 0.6392157 0.7960784
0.0980392 0.7607843 0.7960784
0.2235294 0.7607843 0.7960784
0.3529412 0.7607843 0.7960784
0.4745098 0.7607843 0.7960784
0.6039216 0.7607843 0.7960784
0.7294118 0.7607843 0.7960784
0.8509804 0.7607843 0.7960784
0.9803922 0.7607843 0.7960784
1.0000000 0.7607843 0.7960784
0.0980392 0.8901961 0.7960784
0.2235294 0.8901961 0.7960784
0.3529412 0.8901961 0.7960784
0.4745098 0.8901961 0.7960784
0.6039216 0.8901961 0.7960784
0.7294118 0.8901961 0.7960784
0.8509804 0.8901961 0.7960784
0.9803922 0.8901961 0.7960784
1.0000000 0.8901961 0.7960784
0.0980392 1.0000000 0.7960784
0.2235294 1.0000000 0.7960784
0.3529412 1.0000000 0.7960784
0.4745098 1.0000000 0.7960784
0.6039216 1.0000000 0.7960784
0.7294118 1.0000000 0.7960784
0.8509804 1.0000000 0.7960784
0.9803922 1.0000000 0.7960784
1.0000000 1.0000000 0.7960784
0.0980392 0.0078431 0.9254902
0.2235294 0.0078431 0.9254902
0.3529412 0.0078431 0.9254902
0.4745098 0.0078431 0.9254902
0.6039216 0.0078431 0.9254902
0.7294118 0.0078431 0.9254902
0.8509804 0.0078431 0.9254902
0.9803922 0.0078431 0.9254902
1.0000000 0.0078431 0.9254902
0.0980392 0.1333333 0.9254902
0.2235294 0.1333333 0.9254902
0.3529412 0.1333333 0.9254902
0.4745098 0.1333333 0.9254902
0.6039216 0.1333333 0.9254902
0.7294118 0.1333333 0.9254902
0.8509804 0.1333333 0.9254902
0.9803922 0.1333333 0.9254902
1.0000000 0.1333333 0.9254902
0.0980392 0.2627451 0.9254902
0.2235294 0.2627451 0.9254902
0.3529412 0.2627451 0.9254902
0.4745098 0.2627451 0.9254902
0.6039216 0.2627451 0.9254902
0.7294118 0.2627451 0.9254902
0.8509804 0.2627451 0.9254902
0.9803922 0.2627451 0.9254902
1.0000000 0.2627451 0.9254902
0.0980392 0.3843137 0.9254902
0.2235294 0.3843137 0.9254902
0.3529412 0.3843137 0.9254902
0.4745098 0.3843137 0.9254902
0.6039216 0.3843137 0.9254902
0.7294118 0.3843137 0.9254902
0.8509804 0.3843137 0.9254902
0.9803922 0.3843137 0.9254902
1.0000000 0.3843137 0.9254902
0.0980392 0.5137255 0.9254902
0.2235294 0.5137255 0.9254902
0.3529412 0.5137255 0.9254902
0.4745098 0.5137255 0.9254902
0.6039216 0.5137255 0.9254902
0.7294118 0.5137255 0.9254902
0.8509804 0.5137255 0.9254902
0.9803922 0.5137255 0.9254902
1.0000000 0.5137255 0.9254902
0.0980392 0.6392157 0.9254902
0.2235294 0.6392157 0.9254902
0.3529412 0.6392157 0.9254902
0.4745098 0.6392157 0.9254902
0.6039216 0.6392157 0.9254902
0.7294118 0.6392157 0.9254902
0.8509804 0.6392157 0.9254902
0.9803922 0.6392157 0.9254902
1.0000000 0.6392157 0.9254902
0.0980392 0.7607843 0.9254902
0.2235294 0.7607843 0.9254902
0.3529412 0.7607843 0.9254902
0.4745098 0.7607843 0.9254902
0.6039216 0.7607843 0.9254902
0.7294118 0.7607843 0.9254902
0.8509804 0.7607843 0.9254902
0.9803922 0.7607843 0.9254902
1.0000000 0.7607843 0.9254902
0.0980392 0.8901961 0.9254902
0.2235294 0.8901961 0.9254902
0.3529412 0.8901961 0.9254902
0.4745098 0.8901961 0.9254902
0.6039216 0.8901961 0.9254902
0.7294118 0.8901961 0.9254902
0.8509804 0.8901961 0.9254902
0.9803922 0.8901961 0.9254902
1.0000000 0.8901961 0.9254902
0.0980392 1.0000000 0.9254902
0.2235294 1.0000000 0.9254902
0.3529412 1.0000000 0.9254902
0.4745098 1.0000000 0.9254902
0.6039216 1.0000000 0.9254902
0.7294118 1.0000000 0.9254902
0.8509804 1.0000000 0.9254902
0.9803922 1.0000000 0.9254902
1.0000000 1.0000000 0.9254902
