rust/creative_luts/golden/lut.cube
TITLE "Pixel Craft Creative: golden"
LUT_3D_SIZE 33
DOMAIN_MIN 0.0 0.0 0.0
DOMAIN_MAX 1.0 1.0 1.0
0.0980392 0.0078431 0.0000000
0.1294118 0.0078431 0.0000000
0.1568628 0.0078431 0.0000000
0.1921569 0.0078431 0.0000000
0.2235294 0.0078431 0.0000000
0.2588235 0.0078431 0.0000000
0.2862745 0.0078431 0.0000000
0.3176471 0.0078431 0.0000000
0.3529412 0.0078431 0.0000000
0.3803922 0.0078431 0.0000000
0.4156863 0.0078431 0.0000000
0.4470588 0.0078431 0.0000000
0.4745098 0.0078431 0.0000000
0.5098040 0.0078431 0.0000000
0.5411765 0.0078431 0.0000000
0.5725490 0.0078431 0.0000000
0.6039216 0.0078431 0.0000000
0.6352941 0.0078431 0.0000000
0.6627451 0.0078431 0.0000000
0.6941177 0.0078431 0.0000000
0.7294118 0.0078431 0.0000000
0.7568628 0.0078431 0.0000000
0.7921569 0.0078431 0.0000000
0.8235294 0.0078431 0.0000000
0.8509804 0.0078431 0.0000000
0.8862745 0.0078431 0.0000000
0.9176471 0.0078431 0.0000000
0.9529412 0.0078431 0.0000000
0.9803922 0.0078431 0.0000000
1.0000000 0.0078431 0.0000000
1.0000000 0.0078431 0.0000000
1.0000000 0.0078431 0.0000000
1.0000000 0.0078431 0.0000000
0.0980392 0.0392157 0.0000000
0.1294118 0.0392157 0.0000000
0.1568628 0.0392157 0.0000000
0.1921569 0.0392157 0.0000000
0.2235294 0.0392157 0.0000000
0.2588235 0.0392157 0.0000000
0.2862745 0.0392157 0.0000000
0.3176471 0.0392157 0.0000000
0.3529412 0.0392157 0.0000000
0.3803922 0.0392157 0.0000000
0.4156863 0.0392157 0.0000000
0.4470588 0.0392157 0.0000000
0.4745098 0.0392157 0.0000000
0.5098040 0.0392157 0.0000000
0.5411765 0.0392157 0.0000000
0.5725490 0.0392157 0.0000000
0.6039216 0.0392157 0.0000000
0.6352941 0.0392157 0.0000000
0.6627451 0.0392157 0.0000000
0.6941177 0.0392157 0.0000000
0.7294118 0.0392157 0.0000000
0.7568628 0.0392157 0.0000000
0.7921569 0.0392157 0.0000000
0.8235294 0.0392157 0.0000000
0.8509804 0.0392157 0.0000000
0.8862745 0.0392157 0.0000000
0.9176471 0.0392157 0.0000000
0.9529412 0.0392157 0.0000000
0.9803922 0.0392157 0.0000000
1.0000000 0.0392157 0.0000000
1.0000000 0.0392157 0.0000000
1.0000000 0.0392157 0.0000000
1.0000000 0.0392157 0.0000000
0.0980392 0.0705882 0.0000000
0.1294118 0.0705882 0.0000000
0.1568628 0.0705882 0.0000000
0.1921569 0.0705882 0.0000000
0.2235294 0.0705882 0.0000000
0.2588235 0.0705882 0.0000000
0.2862745 0.0705882 0.0000000
0.3176471 0.0705882 0.0000000
0.3529412 0.0705882 0.0000000
0.3803922 0.0705882 0.0000000
0.4156863 0.0705882 0.0000000
0.4470588 0.0705882 0.0000000
0.4745098 0.0705882 0.0000000
0.5098040 0.0705882 0.0000000
0.5411765 0.0705882 0.0000000
0.5725490 0.0705882 0.0000000
0.6039216 0.0705882 0.0000000
0.6352941 0.0705882 0.0000000
0.6627451 0.0705882 0.0000000
0.6941177 0.0705882 0.0000000
0.7294118 0.0705882 0.0000000
0.7568628 0.0705882 0.0000000
0.7921569 0.0705882 0.0000000
0.8235294 0.0705882 0.0000000
0.8509804 0.0705882 0.0000000
0.8862745 0.0705882 0.0000000
0.9176471 0.0705882 0.0000000
0.9529412 0.0705882 0.0000000
0.9803922 0.0705882 0.0000000
1.0000000 0.0705882 0.0000000
1.0000000 0.0705882 0.0000000
1.0000000 0.0705882 0.0000000
1.0000000 0.0705882 0.0000000
0.0980392 0.1019608 0.0000000
0.1294118 0.1019608 0.0000000
0.1568628 0.1019608 0.0000000
0.1921569 0.1019608 0.0000000
0.2235294 0.1019608 0.0000000
0.2588235 0.1019608 0.0000000
0.2862745 0.1019608 0.0000000
0.3176471 0.1019608 0.0000000
0.3529412 0.1019608 0.0000000
0.3803922 0.1019608 0.0000000
0.4156863 0.1019608 0.0000000
0.4470588 0.1019608 0.0000000
0.4745098 0.1019608 0.0000000
0.5098040 0.1019608 0.0000000
0.5411765 0.1019608 0.0000000
0.5725490 0.1019608 0.0000000
0.6039216 0.1019608 0.0000000
0.6352941 0.1019608 0.0000000
0.6627451 0.1019608 0.0000000
0.6941177 0.1019608 0.0000000
0.7294118 0.1019608 0.0000000
0.7568628 0.1019608 0.0000000
0.7921569 0.1019608 0.0000000
0.8235294 0.1019608 0.0000000
0.8509804 0.1019608 0.0000000
0.8862745 0.1019608 0.0000000
0.9176471 0.1019608 0.0000000
0.9529412 0.1019608 0.0000000
0.9803922 0.1019608 0.0000000
1.0000000 0.1019608 0.0000000
1.0000000 0.1019608 0.0000000
1.0000000 0.1019608 0.0000000
1.0000000 0.1019608 0.0000000
0.0980392 0.1333333 0.0000000
0.1294118 0.1333333 0.0000000
0.1568628 0.1333333 0.0000000
0.1921569 0.1333333 0.0000000
0.2235294 0.1333333 0.0000000
0.2588235 0.1333333 0.0000000
0.2862745 0.1333333 0.0000000
0.3176471 0.1333333 0.0000000
0.3529412 0.1333333 0.0000000
0.3803922 0.1333333 0.0000000
0.4156863 0.1333333 0.0000000
0.4470588 0.1333333 0.0000000
0.4745098 0.1333333 0.0000000
0.5098040 0.1333333 0.0000000
0.5411765 0.1333333 0.0000000
0.5725490 0.1333333 0.0000000
0.6039216 0.1333333 0.0000000
0.6352941 0.1333333 0.0000000
0.6627451 0.1333333 0.0000000
0.6941177 0.1333333 0.0000000
0.7294118 0.1333333 0.0000000
0.7568628 0.1333333 0.0000000
0.7921569 0.1333333 0.0000000
0.8235294 0.1333333 0.0000000
0.8509804 0.1333333 0.0000000
0.8862745 0.1333333 0.0000000
0.9176471 0.1333333 0.0000000
0.9529412 0.1333333 0.0000000
0.9803922 0.1333333 0.0000000
1.0000000 0.1333333 0.0000000
1.0000000 0.1333333 0.0000000
1.0000000 0.1333333 0.0000000
1.0000000 0.1333333 0.0000000
0.0980392 0.1686275 0.0000000
0.1294118 0.1686275 0.0000000
0.1568628 0.1686275 0.0000000
0.1921569 0.1686275 0.0000000
0.2235294 0.1686275 0.0000000
0.2588235 0.1686275 0.0000000
0.2862745 0.1686275 0.0000000
0.3176471 0.1686275 0.0000000
0.3529412 0.1686275 0.0000000
0.3803922 0.1686275 0.0000000
0.4156863 0.1686275 0.0000000
0.4470588 0.1686275 0.0000000
0.4745098 0.1686275 0.0000000
0.5098040 0.1686275 0.0000000
0.5411765 0.1686275 0.0000000
0.5725490 0.1686275 0.0000000
0.6039216 0.1686275 0.0000000
0.6352941 0.1686275 0.0000000
0.6627451 0.1686275 0.0000000
0.6941177 0.1686275 0.0000000
0.7294118 0.1686275 0.0000000
0.7568628 0.1686275 0.0000000
0.7921569 0.1686275 0.0000000
0.8235294 0.1686275 0.0000000
0.8509804 0.1686275 0.0000000
0.8862745 0.1686275 0.0000000
0.9176471 0.1686275 0.0000000
0.9529412 0.1686275 0.0000000
0.9803922 0.1686275 0.0000000
1.0000000 0.1686275 0.0000000
1.0000000 0.1686275 0.0000000
1.0000000 0.1686275 0.0000000
1.0000000 0.1686275 0.0000000
0.0980392 0.1960784 0.0000000
0.1294118 0.1960784 0.0000000
0.1568628 0.1960784 0.0000000
0.1921569 0.1960784 0.0000000
0.2235294 0.1960784 0.0000000
0.2588235 0.1960784 0.0000000
0.2862745 0.1960784 0.0000000
0.3176471 0.1960784 0.0000000
0.3529412 0.1960784 0.0000000
0.3803922 0.1960784 0.0000000
0.4156863 0.1960784 0.0000000
0.4470588 0.1960784 0.0000000
0.4745098 0.1960784 0.0000000
0.5098040 0.1960784 0.0000000
0.5411765 0.1960784 0.0000000
0.5725490 0.1960784 0.0000000
0.6039216 0.1960784 0.0000000
0.6352941 0.1960784 0.0000000
0.6627451 0.1960784 0.0000000
0.6941177 0.1960784 0.0000000
0.7294118 0.1960784 0.0000000
0.7568628 0.1960784 0.0000000
0.7921569 0.1960784 0.0000000
0.8235294 0.1960784 0.0000000
0.8509804 0.1960784 0.0000000
0.8862745 0.1960784 0.0000000
0.9176471 0.1960784 0.0000000
0.9529412 0.1960784 0.0000000
0.9803922 0.1960784 0.0000000
1.0000000 0.1960784 0.0000000
1.0000000 0.1960784 0.0000000
1.0000000 0.1960784 0.0000000
1.0000000 0.1960784 0.0000000
0.0980392 0.2274510 0.0000000
0.1294118 0.2274510 0.0000000
0.1568628 0.2274510 0.0000000
0.1921569 0.2274510 0.0000000
0.2235294 0.2274510 0.0000000
0.2588235 0.2274510 0.0000000
0.2862745 0.2274510 0.0000000
0.3176471 0.2274510 0.0000000
0.3529412 0.2274510 0.0000000
0.3803922 0.2274510 0.0000000
0.4156863 0.2274510 0.0000000
0.4470588 0.2274510 0.0000000
0.4745098 0.2274510 0.0000000
0.5098040 0.2274510 0.0000000
0.5411765 0.2274510 0.0000000
0.5725490 0.2274510 0.0000000
0.6039216 0.2274510 0.0000000
0.6352941 0.2274510 0.0000000
0.6627451 0.2274510 0.0000000
0.6941177 0.2274510 0.0000000
0.7294118 0.2274510 0.0000000
0.7568628 0.2274510 0.0000000
0.7921569 0.2274510 0.0000000
0.8235294 0.2274510 0.0000000
0.8509804 0.2274510 0.0000000
0.8862745 0.2274510 0.0000000
0.9176471 0.2274510 0.0000000
0.9529412 0.2274510 0.0000000
0.9803922 0.2274510 0.0000000
1.0000000 0.2274510 0.0000000
1.0000000 0.2274510 0.0000000
1.0000000 0.2274510 0.0000000
1.0000000 0.2274510 0.0000000
0.0980392 0.2627451 0.0000000
0.1294118 0.2627451 0.0000000
0.1568628 0.2627451 0.0000000
0.1921569 0.2627451 0.0000000
0.2235294 0.2627451 0.0000000
0.2588235 0.2627451 0.0000000
0.2862745 0.2627451 0.0000000
0.3176471 0.2627451 0.0000000
0.3529412 0.2627451 0.0000000
0.3803922 0.2627451 0.0000000
0.4156863 0.2627451 0.0000000
0.4470588 0.2627451 0.0000000
0.4745098 0.2627451 0.0000000
0.5098040 0.2627451 0.0000000
0.5411765 0.2627451 0.0000000
0.5725490 0.2627451 0.0000000
0.6039216 0.2627451 0.0000000
0.6352941 0.2627451 0.0000000
0.6627451 0.2627451 0.0000000
0.6941177 0.2627451 0.0000000
0.7294118 0.2627451 0.0000000
0.7568628 0.2627451 0.0000000
0.7921569 0.2627451 0.0000000
0.8235294 0.2627451 0.0000000
0.8509804 0.2627451 0.0000000
0.8862745 0.2627451 0.0000000
0.9176471 0.2627451 0.0000000
0.9529412 0.2627451 0.0000000
0.9803922 0.2627451 0.0000000
1.0000000 0.2627451 0.0000000
1.0000000 0.2627451 0.0000000
1.0000000 0.2627451 0.0000000
1.0000000 0.2627451 0.0000000
0.0980392 0.2901961 0.0000000
0.1294118 0.2901961 0.0000000
0.1568628 0.2901961 0.0000000
0.1921569 0.2901961 0.0000000
0.2235294 0.2901961 0.0000000
0.2588235 0.2901961 0.0000000
0.2862745 0.2901961 0.0000000
0.3176471 0.2901961 0.0000000
0.3529412 0.2901961 0.0000000
0.3803922 0.2901961 0.0000000
0.4156863 0.2901961 0.0000000
0.4470588 0.2901961 0.0000000
0.4745098 0.2901961 0.0000000
0.5098040 0.2901961 0.0000000
0.5411765 0.2901961 0.0000000
0.5725490 0.2901961 0.0000000
0.6039216 0.2901961 0.0000000
0.6352941 0.2901961 0.0000000
0.6627451 0.2901961 0.0000000
0.6941177 0.2901961 0.0000000
0.7294118 0.2901961 0.0000000
0.7568628 0.2901961 0.0000000
0.7921569 0.2901961 0.0000000
0.8235294 0.2901961 0.0000000
0.8509804 0.2901961 0.0000000
0.8862745 0.2901961 0.0000000
0.9176471 0.2901961 0.0000000
0.9529412 0.2901961 0.0000000
0.9803922 0.2901961 0.0000000
1.0000000 0.2901961 0.0000000
1.0000000 0.2901961 0.0000000
1.0000000 0.2901961 0.0000000
1.0000000 0.2901961 0.0000000
0.0980392 0.3254902 0.0000000
0.1294118 0.3254902 0.0000000
0.1568628 0.3254902 0.0000000
0.1921569 0.3254902 0.0000000
0.2235294 0.3254902 0.0000000
0.2588235 0.3254902 0.0000000
0.2862745 0.3254902 0.0000000
0.3176471 0.3254902 0.0000000
0.3529412 0.3254902 0.0000000
0.3803922 0.3254902 0.0000000
0.4156863 0.3254902 0.0000000
0.4470588 0.3254902 0.0000000
0.4745098 0.3254902 0.0000000
0.5098040 0.3254902 0.0000000
0.5411765 0.3254902 0.0000000
0.5725490 0.3254902 0.0000000
0.6039216 0.3254902 0.0000000
0.6352941 0.3254902 0.0000000
0.6627451 0.3254902 0.0000000
0.6941177 0.3254902 0.0000000
0.7294118 0.3254902 0.0000000
0.7568628 0.3254902 0.0000000
0.7921569 0.3254902 0.0000000
0.8235294 0.3254902 0.0000000
0.8509804 0.3254902 0.0000000
0.8862745 0.3254902 0.0000000
0.9176471 0.3254902 0.0000000
0.9529412 0.3254902 0.0000000
0.9803922 0.3254902 0.0000000
1.0000000 0.3254902 0.0000000
1.0000000 0.3254902 0.0000000
1.0000000 0.3254902 0.0000000
1.0000000 0.3254902 0.0000000
0.0980392 0.3568628 0.0000000
0.1294118 0.3568628 0.0000000
0.1568628 0.3568628 0.0000000
0.1921569 0.3568628 0.0000000
0.2235294 0.3568628 0.0000000
0.2588235 0.3568628 0.0000000
0.2862745 0.3568628 0.0000000
0.3176471 0.3568628 0.0000000
0.3529412 0.3568628 0.0000000
0.3803922 0.3568628 0.0000000
0.4156863 0.3568628 0.0000000
0.4470588 0.3568628 0.0000000
0.4745098 0.3568628 0.0000000
0.5098040 0.3568628 0.0000000
0.5411765 0.3568628 0.0000000
0.5725490 0.3568628 0.0000000
0.6039216 0.3568628 0.0000000
0.6352941 0.3568628 0.0000000
0.6627451 0.3568628 0.0000000
0.6941177 0.3568628 0.0000000
0.7294118 0.3568628 0.0000000
0.7568628 0.3568628 0.0000000
0.7921569 0.3568628 0.0000000
0.8235294 0.3568628 0.0000000
0.8509804 0.3568628 0.0000000
0.8862745 0.3568628 0.0000000
0.9176471 0.3568628 0.0000000
0.9529412 0.3568628 0.0000000
0.9803922 0.3568628 0.0000000
1.0000000 0.3568628 0.0000000
1.0000000 0.3568628 0.0000000
1.0000000 0.3568628 0.0000000
1.0000000 0.3568628 0.0000000
0.0980392 0.3843137 0.0000000
0.1294118 0.3843137 0.0000000
0.1568628 0.3843137 0.0000000
0.1921569 0.3843137 0.0000000
0.2235294 0.3843137 0.0000000
0.2588235 0.3843137 0.0000000
0.2862745 0.3843137 0.0000000
0.3176471 0.3843137 0.0000000
0.3529412 0.3843137 0.0000000
0.3803922 0.3843137 0.0000000
0.4156863 0.3843137 0.0000000
0.4470588 0.3843137 0.0000000
0.4745098 0.3843137 0.0000000
0.5098040 0.3843137 0.0000000
0.5411765 0.3843137 0.0000000
0.5725490 0.3843137 0.0000000
0.6039216 0.3843137 0.0000000
0.6352941 0.3843137 0.0000000
0.6627451 0.3843137 0.0000000
0.6941177 0.3843137 0.0000000
0.7294118 0.3843137 0.0000000
0.7568628 0.3843137 0.0000000
0.7921569 0.3843137 0.0000000
0.8235294 0.3843137 0.0000000
0.8509804 0.3843137 0.0000000
0.8862745 0.3843137 0.0000000
0.9176471 0.3843137 0.0000000
0.9529412 0.3843137 0.0000000
0.9803922 0.3843137 0.0000000
1.0000000 0.3843137 0.0000000
1.0000000 0.3843137 0.0000000
1.0000000 0.3843137 0.0000000
1.0000000 0.3843137 0.0000000
0.0980392 0.4196078 0.0000000
0.1294118 0.4196078 0.0000000
0.1568628 0.4196078 0.0000000
0.1921569 0.4196078 0.0000000
0.2235294 0.4196078 0.0000000
0.2588235 0.4196078 0.0000000
0.2862745 0.4196078 0.0000000
0.3176471 0.4196078 0.0000000
0.3529412 0.4196078 0.0000000
0.3803922 0.4196078 0.0000000
0.4156863 0.4196078 0.0000000
0.4470588 0.4196078 0.0000000
0.4745098 0.4196078 0.0000000
0.5098040 0.4196078 0.0000000
0.5411765 0.4196078 0.0000000
0.5725490 0.4196078 0.0000000
0.6039216 0.4196078 0.0000000
0.6352941 0.4196078 0.0000000
0.6627451 0.4196078 0.0000000
0.6941177 0.4196078 0.0000000
0.7294118 0.4196078 0.0000000
0.7568628 0.4196078 0.0000000
0.7921569 0.4196078 0.0000000
0.8235294 0.4196078 0.0000000
0.8509804 0.4196078 0.0000000
0.8862745 0.4196078 0.0000000
0.9176471 0.4196078 0.0000000
0.9529412 0.4196078 0.0000000
0.9803922 0.4196078 0.0000000
1.0000000 0.4196078 0.0000000
1.0000000 0.4196078 0.0000000
1.0000000 0.4196078 0.0000000
1.0000000 0.4196078 0.0000000
0.0980392 0.4509804 0.0000000
0.1294118 0.4509804 0.0000000
0.1568628 0.4509804 0.0000000
0.1921569 0.4509804 0.0000000
0.2235294 0.4509804 0.0000000
0.2588235 0.4509804 0.0000000
0.2862745 0.4509804 0.0000000
0.3176471 0.4509804 0.0000000
0.3529412 0.4509804 0.0000000
0.3803922 0.4509804 0.0000000
0.4156863 0.4509804 0.0000000
0.4470588 0.4509804 0.0000000
0.4745098 0.4509804 0.0000000
0.5098040 0.4509804 0.0000000
0.5411765 0.4509804 0.0000000
0.5725490 0.4509804 0.0000000
0.6039216 0.4509804 0.0000000
0.6352941 0.4509804 0.0000000
0.6627451 0.4509804 0.0000000
0.6941177 0.4509804 0.0000000
0.7294118 0.4509804 0.0000000
0.7568628 0.4509804 0.0000000
0.7921569 0.4509804 0.0000000
0.8235294 0.4509804 0.0000000
0.8509804 0.4509804 0.0000000
0.8862745 0.4509804 0.0000000
0.9176471 0.4509804 0.0000000
0.9529412 0.4509804 0.0000000
0.9803922 0.4509804 0.0000000
1.0000000 0.4509804 0.0000000
1.0000000 0.4509804 0.0000000
1.0000000 0.4509804 0.0000000
1.0000000 0.4509804 0.0000000
0.0980392 0.4862745 0.0000000
0.1294118 0.4862745 0.0000000
0.1568628 0.4862745 0.0000000
0.1921569 0.4862745 0.0000000
0.2235294 0.4862745 0.0000000
0.2588235 0.4862745 0.0000000
0.2862745 0.4862745 0.0000000
0.3176471 0.4862745 0.0000000
0.3529412 0.4862745 0.0000000
0.3803922 0.4862745 0.0000000
0.4156863 0.4862745 0.0000000
0.4470588 0.4862745 0.0000000
0.4745098 0.4862745 0.0000000
0.5098040 0.4862745 0.0000000
0.5411765 0.4862745 0.0000000
0.5725490 0.4862745 0.0000000
0.6039216 0.4862745 0.0000000
0.6352941 0.4862745 0.0000000
0.6627451 0.4862745 0.0000000
0.6941177 0.4862745 0.0000000
0.7294118 0.4862745 0.0000000
0.7568628 0.4862745 0.0000000
0.7921569 0.4862745 0.0000000
0.8235294 0.4862745 0.0000000
0.8509804 0.4862745 0.0000000
0.8862745 0.4862745 0.0000000
0.9176471 0.4862745 0.0000000
0.9529412 0.4862745 0.0000000
0.9803922 0.4862745 0.0000000
1.0000000 0.4862745 0.0000000
1.0000000 0.4862745 0.0000000
1.0000000 0.4862745 0.0000000
1.0000000 0.4862745 0.0000000
0.0980392 0.5137255 0.0000000
0.1294118 0.5137255 0.0000000
0.1568628 0.5137255 0.0000000
0.1921569 0.5137255 0.0000000
0.2235294 0.5137255 0.0000000
0.2588235 0.5137255 0.0000000
0.2862745 0.5137255 0.0000000
0.3176471 0.5137255 0.0000000
0.3529412 0.5137255 0.0000000
0.3803922 0.5137255 0.0000000
0.4156863 0.5137255 0.0000000
0.4470588 0.5137255 0.0000000
0.4745098 0.5137255 0.0000000
0.5098040 0.5137255 0.0000000
0.5411765 0.5137255 0.0000000
0.5725490 0.5137255 0.0000000
0.6039216 0.5137255 0.0000000
0.6352941 0.5137255 0.0000000
0.6627451 0.5137255 0.0000000
0.6941177 0.5137255 0.0000000
0.7294118 0.5137255 0.0000000
0.7568628 0.5137255 0.0000000
0.7921569 0.5137255 0.0000000
0.8235294 0.5137255 0.0000000
0.8509804 0.5137255 0.0000000
0.8862745 0.5137255 0.0000000
0.9176471 0.5137255 0.0000000
0.9529412 0.5137255 0.0000000
0.9803922 0.5137255 0.0000000
1.0000000 0.5137255 0.0000000
1.0000000 0.5137255 0.0000000
1.0000000 0.5137255 0.0000000
1.0000000 0.5137255 0.0000000
0.0980392 0.5450981 0.0000000
0.1294118 0.5450981 0.0000000
0.1568628 0.5450981 0.0000000
0.1921569 0.5450981 0.0000000
0.2235294 0.5450981 0.0000000
0.2588235 0.5450981 0.0000000
0.2862745 0.5450981 0.0000000
0.3176471 0.5450981 0.0000000
0.3529412 0.5450981 0.0000000
0.3803922 0.5450981 0.0000000
0.4156863 0.5450981 0.0000000
0.4470588 0.5450981 0.0000000
0.4745098 0.5450981 0.0000000
0.5098040 0.5450981 0.0000000
0.5411765 0.5450981 0.0000000
0.5725490 0.5450981 0.0000000
0.6039216 0.5450981 0.0000000
0.6352941 0.5450981 0.0000000
0.6627451 0.5450981 0.0000000
0.6941177 0.5450981 0.0000000
0.7294118 0.5450981 0.0000000
0.7568628 0.5450981 0.0000000
0.7921569 0.5450981 0.0000000
0.8235294 0.5450981 0.0000000
0.8509804 0.5450981 0.0000000
0.8862745 0.5450981 0.0000000
0.9176471 0.5450981 0.0000000
0.9529412 0.5450981 0.0000000
0.9803922 0.5450981 0.0000000
1.0000000 0.5450981 0.0000000
1.0000000 0.5450981 0.0000000
1.0000000 0.5450981 0.0000000
1.0000000 0.5450981 0.0000000
0.0980392 0.5725490 0.0000000
0.1294118 0.5725490 0.0000000
0.1568628 0.5725490 0.0000000
0.1921569 0.5725490 0.0000000
0.2235294 0.5725490 0.0000000
0.2588235 0.5725490 0.0000000
0.2862745 0.5725490 0.0000000
0.3176471 0.5725490 0.0000000
0.3529412 0.5725490 0.0000000
0.3803922 0.5725490 0.0000000
0.4156863 0.5725490 0.0000000
0.4470588 0.5725490 0.0000000
0.4745098 0.5725490 0.0000000
0.5098040 0.5725490 0.0000000
0.5411765 0.5725490 0.0000000
0.5725490 0.5725490 0.0000000
0.6039216 0.5725490 0.0000000
0.6352941 0.5725490 0.0000000
0.6627451 0.5725490 0.0000000
0.6941177 0.5725490 0.0000000
0.7294118 0.5725490 0.0000000
0.7568628 0.5725490 0.0000000
0.7921569 0.5725490 0.0000000
0.8235294 0.5725490 0.0000000
0.8509804 0.5725490 0.0000000
0.8862745 0.5725490 0.0000000
0.9176471 0.5725490 0.0000000
0.9529412 0.5725490 0.0000000
0.9803922 0.5725490 0.0000000
1.0000000 0.5725490 0.0000000
1.0000000 0.5725490 0.0000000
1.0000000 0.5725490 0.0000000
1.0000000 0.5725490 0.0000000
0.0980392 0.6039216 0.0000000
0.1294118 0.6039216 0.0000000
0.1568628 0.6039216 0.0000000
0.1921569 0.6039216 0.0000000
0.2235294 0.6039216 0.0000000
0.2588235 0.6039216 0.0000000
0.2862745 0.6039216 0.0000000
0.3176471 0.6039216 0.0000000
0.3529412 0.6039216 0.0000000
0.3803922 0.6039216 0.0000000
0.4156863 0.6039216 0.0000000
0.4470588 0.6039216 0.0000000
0.4745098 0.6039216 0.0000000
0.5098040 0.6039216 0.0000000
0.5411765 0.6039216 0.0000000
0.5725490 0.6039216 0.0000000
0.6039216 0.6039216 0.0000000
0.6352941 0.6039216 0.0000000
0.6627451 0.6039216 0.0000000
0.6941177 0.6039216 0.0000000
0.7294118 0.6039216 0.0000000
0.7568628 0.6039216 0.0000000
0.7921569 0.6039216 0.0000000
0.8235294 0.6039216 0.0000000
0.8509804 0.6039216 0.0000000
0.8862745 0.6039216 0.0000000
0.9176471 0.6039216 0.0000000
0.9529412 0.6039216 0.0000000
0.9803922 0.6039216 0.0000000
1.0000000 0.6039216 0.0000000
1.0000000 0.6039216 0.0000000
1.0000000 0.6039216 0.0000000
1.0000000 0.6039216 0.0000000
0.0980392 0.6392157 0.0000000
0.1294118 0.6392157 0.0000000
0.1568628 0.6392157 0.0000000
0.1921569 0.6392157 0.0000000
0.2235294 0.6392157 0.0000000
0.2588235 0.6392157 0.0000000
0.2862745 0.6392157 0.0000000
0.3176471 0.6392157 0.0000000
0.3529412 0.6392157 0.0000000
0.3803922 0.6392157 0.0000000
0.4156863 0.6392157 0.0000000
0.4470588 0.6392157 0.0000000
0.4745098 0.6392157 0.0000000
0.5098040 0.6392157 0.0000000
0.5411765 0.6392157 0.0000000
0.5725490 0.6392157 0.0000000
0.6039216 0.6392157 0.0000000
0.6352941 0.6392157 0.0000000
0.6627451 0.6392157 0.0000000
0.6941177 0.6392157 0.0000000
0.7294118 0.6392157 0.0000000
0.7568628 0.6392157 0.0000000
0.7921569 0.6392157 0.0000000
0.8235294 0.6392157 0.0000000
0.8509804 0.6392157 0.0000000
0.8862745 0.6392157 0.0000000
0.9176471 0.6392157 0.0000000
0.9529412 0.6392157 0.0000000
0.9803922 0.6392157 0.0000000
1.0000000 0.6392157 0.0000000
1.0000000 0.6392157 0.0000000
1.0000000 0.6392157 0.0000000
1.0000000 0.6392157 0.0000000
0.0980392 0.6666667 0.0000000
0.1294118 0.6666667 0.0000000
0.1568628 0.6666667 0.0000000
0.1921569 0.6666667 0.0000000
0.2235294 0.6666667 0.0000000
0.2588235 0.6666667 0.0000000
0.2862745 0.6666667 0.0000000
0.3176471 0.6666667 0.0000000
0.3529412 0.6666667 0.0000000
0.3803922 0.6666667 0.0000000
0.4156863 0.6666667 0.0000000
0.4470588 0.6666667 0.0000000
0.4745098 0.6666667 0.0000000
0.5098040 0.6666667 0.0000000
0.5411765 0.6666667 0.0000000
0.5725490 0.6666667 0.0000000
0.6039216 0.6666667 0.0000000
0.6352941 0.6666667 0.0000000
0.6627451 0.6666667 0.0000000
0.6941177 0.6666667 0.0000000
0.7294118 0.6666667 0.0000000
0.7568628 0.6666667 0.0000000
0.7921569 0.6666667 0.0000000
0.8235294 0.6666667 0.0000000
0.8509804 0.6666667 0.0000000
0.8862745 0.6666667 0.0000000
0.9176471 0.6666667 0.0000000
0.9529412 0.6666667 0.0000000
0.9803922 0.6666667 0.0000000
1.0000000 0.6666667 0.0000000
1.0000000 0.6666667 0.0000000
1.0000000 0.6666667 0.0000000
1.0000000 0.6666667 0.0000000
0.0980392 0.7019608 0.0000000
0.1294118 0.7019608 0.0000000
0.1568628 0.7019608 0.0000000
0.1921569 0.7019608 0.0000000
0.2235294 0.7019608 0.0000000
0.2588235 0.7019608 0.0000000
0.2862745 0.7019608 0.0000000
0.3176471 0.7019608 0.0000000
0.3529412 0.7019608 0.0000000
0.3803922 0.7019608 0.0000000
0.4156863 0.7019608 0.0000000
0.4470588 0.7019608 0.0000000
0.4745098 0.7019608 0.0000000
0.5098040 0.7019608 0.0000000
0.5411765 0.7019608 0.0000000
0.5725490 0.7019608 0.0000000
0.6039216 0.7019608 0.0000000
0.6352941 0.7019608 0.0000000
0.6627451 0.7019608 0.0000000
0.6941177 0.7019608 0.0000000
0.7294118 0.7019608 0.0000000
0.7568628 0.7019608 0.0000000
0.7921569 0.7019608 0.0000000
0.8235294 0.7019608 0.0000000
0.8509804 0.7019608 0.0000000
0.8862745 0.7019608 0.0000000
0.9176471 0.7019608 0.0000000
0.9529412 0.7019608 0.0000000
0.9803922 0.7019608 0.0000000
1.0000000 0.7019608 0.0000000
1.0000000 0.7019608 0.0000000
1.0000000 0.7019608 0.0000000
1.0000000 0.7019608 0.0000000
0.0980392 0.7333333 0.0000000
0.1294118 0.7333333 0.0000000
0.1568628 0.7333333 0.0000000
0.1921569 0.7333333 0.0000000
0.2235294 0.7333333 0.0000000
0.2588235 0.7333333 0.0000000
0.2862745 0.7333333 0.0000000
0.3176471 0.7333333 0.0000000
0.3529412 0.7333333 0.0000000
0.3803922 0.7333333 0.0000000
0.4156863 0.7333333 0.0000000
0.4470588 0.7333333 0.0000000
0.4745098 0.7333333 0.0000000
0.5098040 0.7333333 0.0000000
0.5411765 0.7333333 0.0000000
0.5725490 0.7333333 0.0000000
0.6039216 0.7333333 0.0000000
0.6352941 0.7333333 0.0000000
0.6627451 0.7333333 0.0000000
0.6941177 0.7333333 0.0000000
0.7294118 0.7333333 0.0000000
0.7568628 0.7333333 0.0000000
0.7921569 0.7333333 0.0000000
0.8235294 0.7333333 0.0000000
0.8509804 0.7333333 0.0000000
0.8862745 0.7333333 0.0000000
0.9176471 0.7333333 0.0000000
0.9529412 0.7333333 0.0000000
0.9803922 0.7333333 0.0000000
1.0000000 0.7333333 0.0000000
1.0000000 0.7333333 0.0000000
1.0000000 0.7333333 0.0000000
1.0000000 0.7333333 0.0000000
0.0980392 0.7607843 0.0000000
0.1294118 0.7607843 0.0000000
0.1568628 0.7607843 0.0000000
0.1921569 0.7607843 0.0000000
