rust/creative_luts/dramatic/lut.cube
TITLE "Pixel Craft Creative: dramatic"
LUT_3D_SIZE 9
DOMAIN_MIN 0.0 0.0 0.0
DOMAIN_MAX 1.0 1.0 1.0
0.0000000 0.0000000 0.0000000
0.0000000 0.0000000 0.0000000
0.0000000 0.0000000 0.0000000
0.0000000 0.0000000 0.0000000
0.0000000 0.0000000 0.0000000
0.0274510 0.0274510 0.0274510
0.0901961 0.0901961 0.0901961
0.1607843 0.1607843 0.1607843
0.2274510 0.2274510 0.2274510
0.0000000 0.0000000 0.0000000
0.0000000 0.0000000 0.0000000
0.0000000 0.0000000 0.0000000
0.0000000 0.0000000 0.0000000
0.0274510 0.0274510 0.0274510
0.0901961 0.0901961 0.0901961
0.1607843 0.1607843 0.1607843
0.2274510 0.2274510 0.2274510
0.2901961 0.2901961 0.2901961
0.0000000 0.0000000 0.0000000
0.0000000 0.0000000 0.0000000
0.0000000 0.0000000 0.0000000
0.0274510 0.0274510 0.0274510
0.0980392 0.0980392 0.0980392
0.1607843 0.1607843 0.1607843
0.2274510 0.2274510 0.2274510
0.2901961 0.2901961 0.2901961
0.3607843 0.3607843 0.3607843
0.0000000 0.0000000 0.0000000
0.0000000 0.0000000 0.0000000
0.0274510 0.0274510 0.0274510
0.0980392 0.0980392 0.0980392
0.1607843 0.1607843 0.1607843
0.2274510 0.2274510 0.2274510
0.2901961 0.2901961 0.2901961
0.3607843 0.3607843 0.3607843
0.4313726 0.4313726 0.4313726
0.0000000 0.0000000 0.0000000
0.0274510 0.0274510 0.0274510
0.0980392 0.0980392 0.0980392
0.1607843 0.1607843 0.1607843
0.2274510 0.2274510 0.2274510
0.2901961 0.2901961 0.2901961
0.3607843 0.3607843 0.3607843
0.4313726 0.4313726 0.4313726
0.4941176 0.4941176 0.4941176
0.0274510 0.0274510 0.0274510
0.0901961 0.0901961 0.0901961
0.1607843 0.1607843 0.1607843
0.2274510 0.2274510 0.2274510
0.2901961 0.2901961 0.2901961
0.3607843 0.3607843 0.3607843
0.4235294 0.4235294 0.4235294
0.4941176 0.4941176 0.4941176
0.5647059 0.5647059 0.5647059
0.0901961 0.0901961 0.0901961
0.1607843 0.1607843 0.1607843
0.2274510 0.2274510 0.2274510
0.2901961 0.2901961 0.2901961
0.3607843 0.3607843 0.3607843
0.4235294 0.4235294 0.4235294
0.4941176 0.4941176 0.4941176
0.5647059 0.5647059 0.5647059
0.6274510 0.6274510 0.6274510
0.1607843 0.1607843 0.1607843
0.2274510 0.2274510 0.2274510
0.2901961 0.2901961 0.2901961
0.3607843 0.3607843 0.3607843
0.4313726 0.4313726 0.4313726
0.4941176 0.4941176 0.4941176
0.5647059 0.5647059 0.5647059
0.6274510 0.6274510 0.6274510
0.6941177 0.6941177 0.6941177
0.2274510 0.2274510 0.2274510
0.2901961 0.2901961 0.2901961
0.3607843 0.3607843 0.3607843
0.4313726 0.4313726 0.4313726
0.4941176 0.4941176 0.4941176
0.5647059 0.5647059 0.5647059
0.6274510 0.6274510 0.6274510
0.6941177 0.6941177 0.6941177
0.7647059 0.7647059 0.7647059
0.0000000 0.0000000 0.0000000
0.0000000 0.0000000 0.0000000
0.0000000 0.0000000 0.0000000
0.0000000 0.0000000 0.0000000
0.0274510 0.0274510 0.0274510
0.0901961 0.0901961 0.0901961
0.1607843 0.1607843 0.1607843
0.2274510 0.2274510 0.2274510
0.2901961 0.2901961 0.2901961
0.0000000 0.0000000 0.0000000
0.0000000 0.0000000 0.0000000
0.0000000 0.0000000 0.0000000
0.0274510 0.0274510 0.0274510
0.0980392 0.0980392 0.0980392
0.1607843 0.1607843 0.1607843
0.2274510 0.2274510 0.2274510
0.2901961 0.2901961 0.2901961
0.3607843 0.3607843 0.3607843
0.0000000 0.0000000 0.0000000
0.0000000 0.0000000 0.0000000
0.0274510 0.0274510 0.0274510
0.0980392 0.0980392 0.0980392
0.1607843 0.1607843 0.1607843
0.2274510 0.2274510 0.2274510
0.2901961 0.2901961 0.2901961
0.3607843 0.3607843 0.3607843
0.4313726 0.4313726 0.4313726
0.0000000 0.0000000 0.0000000
0.0274510 0.0274510 0.0274510
0.0980392 0.0980392 0.0980392
0.1607843 0.1607843 0.1607843
0.2274510 0.2274510 0.2274510
0.2901961 0.2901961 0.2901961
0.3607843 0.3607843 0.3607843
0.4313726 0.4313726 0.4313726
0.4941176 0.4941176 0.4941176
0.0274510 0.0274510 0.0274510
0.0980392 0.0980392 0.0980392
0.1607843 0.1607843 0.1607843
0.2274510 0.2274510 0.2274510
0.2980392 0.2980392 0.2980392
0.3607843 0.3607843 0.3607843
0.4313726 0.4313726 0.4313726
0.4941176 0.4941176 0.4941176
0.5647059 0.5647059 0.5647059
0.0901961 0.0901961 0.0901961
0.1607843 0.1607843 0.1607843
0.2274510 0.2274510 0.2274510
0.2901961 0.2901961 0.2901961
0.3607843 0.3607843 0.3607843
0.4235294 0.4235294 0.4235294
0.4941176 0.4941176 0.4941176
0.5647059 0.5647059 0.5647059
0.6274510 0.6274510 0.6274510
0.1607843 0.1607843 0.1607843
0.2274510 0.2274510 0.2274510
0.2901961 0.2901961 0.2901961
0.3607843 0.3607843 0.3607843
0.4313726 0.4313726 0.4313726
0.4941176 0.4941176 0.4941176
0.5647059 0.5647059 0.5647059
0.6274510 0.6274510 0.6274510
0.6941177 0.6941177 0.6941177
0.2274510 0.2274510 0.2274510
0.2901961 0.2901961 0.2901961
0.3607843 0.3607843 0.3607843
0.4313726 0.4313726 0.4313726
0.4941176 0.4941176 0.4941176
0.5647059 0.5647059 0.5647059
0.6274510 0.6274510 0.6274510
0.6941177 0.6941177 0.6941177
0.7647059 0.7647059 0.7647059
0.2901961 0.2901961 0.2901961
0.3607843 0.3607843 0.3607843
0.4313726 0.4313726 0.4313726
0.4941176 0.4941176 0.4941176
0.5647059 0.5647059 0.5647059
0.6274510 0.6274510 0.6274510
0.6941177 0.6941177 0.6941177
0.7647059 0.7647059 0.7647059
0.8274510 0.8274510 0.8274510
0.0000000 0.0000000 0.0000000
0.0000000 0.0000000 0.0000000
0.0000000 0.0000000 0.0000000
0.0274510 0.0274510 0.0274510
0.0980392 0.0980392 0.0980392
0.1607843 0.1607843 0.1607843
0.2274510 0.2274510 0.2274510
0.2901961 0.2901961 0.2901961
0.3607843 0.3607843 0.3607843
0.0000000 0.0000000 0.0000000
0.0000000 0.0000000 0.0000000
0.0274510 0.0274510 0.0274510
0.0980392 0.0980392 0.0980392
0.1607843 0.1607843 0.1607843
0.2274510 0.2274510 0.2274510
0.2901961 0.2901961 0.2901961
0.3607843 0.3607843 0.3607843
0.4313726 0.4313726 0.4313726
0.0000000 0.0000000 0.0000000
0.0274510 0.0274510 0.0274510
0.0980392 0.0980392 0.0980392
0.1607843 0.1607843 0.1607843
0.2274510 0.2274510 0.2274510
0.2901961 0.2901961 0.2901961
0.3607843 0.3607843 0.3607843
0.4313726 0.4313726 0.4313726
0.4941176 0.4941176 0.4941176
0.0274510 0.0274510 0.0274510
0.0980392 0.0980392 0.0980392
0.1607843 0.1607843 0.1607843
0.2274510 0.2274510 0.2274510
0.2980392 0.2980392 0.2980392
0.3607843 0.3607843 0.3607843
0.4313726 0.4313726 0.4313726
0.4941176 0.4941176 0.4941176
0.5647059 0.5647059 0.5647059
0.0980392 0.0980392 0.0980392
0.1607843 0.1607843 0.1607843
0.2274510 0.2274510 0.2274510
0.2980392 0.2980392 0.2980392
0.3607843 0.3607843 0.3607843
0.4313726 0.4313726 0.4313726
0.4941176 0.4941176 0.4941176
0.5647059 0.5647059 0.5647059
0.6313726 0.6313726 0.6313726
0.1607843 0.1607843 0.1607843
0.2274510 0.2274510 0.2274510
0.2901961 0.2901961 0.2901961
0.3607843 0.3607843 0.3607843
0.4313726 0.4313726 0.4313726
0.4941176 0.4941176 0.4941176
0.5647059 0.5647059 0.5647059
0.6274510 0.6274510 0.6274510
0.6941177 0.6941177 0.6941177
0.2274510 0.2274510 0.2274510
0.2901961 0.2901961 0.2901961
0.3607843 0.3607843 0.3607843
0.4313726 0.4313726 0.4313726
0.4941176 0.4941176 0.4941176
0.5647059 0.5647059 0.5647059
0.6274510 0.6274510 0.6274510
0.6941177 0.6941177 0.6941177
0.7647059 0.7647059 0.7647059
0.2901961 0.2901961 0.2901961
0.3607843 0.3607843 0.3607843
0.4313726 0.4313726 0.4313726
0.4941176 0.4941176 0.4941176
0.5647059 0.5647059 0.5647059
0.6274510 0.6274510 0.6274510
0.6941177 0.6941177 0.6941177
0.7647059 0.7647059 0.7647059
0.8274510 0.8274510 0.8274510
0.3607843 0.3607843 0.3607843
0.4313726 0.4313726 0.4313726
0.4941176 0.4941176 0.4941176
0.5647059 0.5647059 0.5647059
0.6313726 0.6313726 0.6313726
0.6941177 0.6941177 0.6941177
0.7647059 0.7647059 0.7647059
0.8274510 0.8274510 0.8274510
0.8980392 0.8980392 0.8980392
0.0000000 0.0000000 0.0000000
0.0000000 0.0000000 0.0000000
0.0274510 0.0274510 0.0274510
0.0980392 0.0980392 0.0980392
0.1607843 0.1607843 0.1607843
0.2274510 0.2274510 0.2274510
0.2901961 0.2901961 0.2901961
0.3607843 0.3607843 0.3607843
0.4313726 0.4313726 0.4313726
0.0000000 0.0000000 0.0000000
0.0274510 0.0274510 0.0274510
0.0980392 0.0980392 0.0980392
0.1607843 0.1607843 0.1607843
0.2274510 0.2274510 0.2274510
0.2901961 0.2901961 0.2901961
0.3607843 0.3607843 0.3607843
0.4313726 0.4313726 0.4313726
0.4941176 0.4941176 0.4941176
0.0274510 0.0274510 0.0274510
0.0980392 0.0980392 0.0980392
0.1607843 0.1607843 0.1607843
0.2274510 0.2274510 0.2274510
0.2980392 0.2980392 0.2980392
0.3607843 0.3607843 0.3607843
0.4313726 0.4313726 0.4313726
0.4941176 0.4941176 0.4941176
0.5647059 0.5647059 0.5647059
0.0980392 0.0980392 0.0980392
0.1607843 0.1607843 0.1607843
0.2274510 0.2274510 0.2274510
0.2980392 0.2980392 0.2980392
0.3607843 0.3607843 0.3607843
0.4313726 0.4313726 0.4313726
0.4941176 0.4941176 0.4941176
0.5647059 0.5647059 0.5647059
0.6313726 0.6313726 0.6313726
0.1607843 0.1607843 0.1607843
0.2274510 0.2274510 0.2274510
0.2980392 0.2980392 0.2980392
0.3607843 0.3607843 0.3607843
0.4313726 0.4313726 0.4313726
0.4941176 0.4941176 0.4941176
0.5647059 0.5647059 0.5647059
0.6313726 0.6313726 0.6313726
0.6941177 0.6941177 0.6941177
0.2274510 0.2274510 0.2274510
0.2901961 0.2901961 0.2901961
0.3607843 0.3607843 0.3607843
0.4313726 0.4313726 0.4313726
0.4941176 0.4941176 0.4941176
0.5647059 0.5647059 0.5647059
0.6274510 0.6274510 0.6274510
0.6941177 0.6941177 0.6941177
0.7647059 0.7647059 0.7647059
0.2901961 0.2901961 0.2901961
0.3607843 0.3607843 0.3607843
0.4313726 0.4313726 0.4313726
0.4941176 0.4941176 0.4941176
0.5647059 0.5647059 0.5647059
0.6274510 0.6274510 0.6274510
0.6941177 0.6941177 0.6941177
0.7647059 0.7647059 0.7647059
0.8274510 0.8274510 0.8274510
0.3607843 0.3607843 0.3607843
0.4313726 0.4313726 0.4313726
0.4941176 0.4941176 0.4941176
0.5647059 0.5647059 0.5647059
0.6313726 0.6313726 0.6313726
0.6941177 0.6941177 0.6941177
0.7647059 0.7647059 0.7647059
0.8274510 0.8274510 0.8274510
0.8980392 0.8980392 0.8980392
0.4313726 0.4313726 0.4313726
0.4941176 0.4941176 0.4941176
0.5647059 0.5647059 0.5647059
0.6313726 0.6313726 0.6313726
0.6941177 0.6941177 0.6941177
0.7647059 0.7647059 0.7647059
0.8274510 0.8274510 0.8274510
0.8980392 0.8980392 0.8980392
0.9647059 0.9647059 0.9647059
0.0000000 0.0000000 0.0000000
0.0274510 0.0274510 0.0274510
0.0980392 0.0980392 0.0980392
0.1607843 0.1607843 0.1607843
0.2274510 0.2274510 0.2274510
0.2901961 0.2901961 0.2901961
0.3607843 0.3607843 0.3607843
0.4313726 0.4313726 0.4313726
0.4941176 0.4941176 0.4941176
0.0274510 0.0274510 0.0274510
0.0980392 0.0980392 0.0980392
0.1607843 0.1607843 0.1607843
0.2274510 0.2274510 0.2274510
0.2980392 0.2980392 0.2980392
0.3607843 0.3607843 0.3607843
0.4313726 0.4313726 0.4313726
0.4941176 0.4941176 0.4941176
0.5647059 0.5647059 0.5647059
0.0980392 0.0980392 0.0980392
0.1607843 0.1607843 0.1607843
0.2274510 0.2274510 0.2274510
0.2980392 0.2980392 0.2980392
0.3607843 0.3607843 0.3607843
0.4313726 0.4313726 0.4313726
0.4941176 0.4941176 0.4941176
0.5647059 0.5647059 0.5647059
0.6313726 0.6313726 0.6313726
0.1607843 0.1607843 0.1607843
0.2274510 0.2274510 0.2274510
0.2980392 0.2980392 0.2980392
0.3607843 0.3607843 0.3607843
0.4313726 0.4313726 0.4313726
0.4941176 0.4941176 0.4941176
0.5647059 0.5647059 0.5647059
0.6313726 0.6313726 0.6313726
0.6941177 0.6941177 0.6941177
0.2274510 0.2274510 0.2274510
0.2980392 0.2980392 0.2980392
0.3607843 0.3607843 0.3607843
0.4313726 0.4313726 0.4313726
0.5019608 0.5019608 0.5019608
0.5647059 0.5647059 0.5647059
0.6313726 0.6313726 0.6313726
0.6941177 0.6941177 0.6941177
0.7647059 0.7647059 0.7647059
0.2901961 0.2901961 0.2901961
0.3607843 0.3607843 0.3607843
0.4313726 0.4313726 0.4313726
0.4941176 0.4941176 0.4941176
0.5647059 0.5647059 0.5647059
0.6274510 0.6274510 0.6274510
0.6941177 0.6941177 0.6941177
0.7647059 0.7647059 0.7647059
0.8274510 0.8274510 0.8274510
0.3607843 0.3607843 0.3607843
0.4313726 0.4313726 0.4313726
0.4941176 0.4941176 0.4941176
0.5647059 0.5647059 0.5647059
0.6313726 0.6313726 0.6313726
0.6941177 0.6941177 0.6941177
0.7647059 0.7647059 0.7647059
0.8274510 0.8274510 0.8274510
0.8980392 0.8980392 0.8980392
0.4313726 0.4313726 0.4313726
0.4941176 0.4941176 0.4941176
0.5647059 0.5647059 0.5647059
0.6313726 0.6313726 0.6313726
0.6941177 0.6941177 0.6941177
0.7647059 0.7647059 0.7647059
0.8274510 0.8274510 0.8274510
0.8980392 0.8980392 0.8980392
0.9647059 0.9647059 0.9647059
0.4941176 0.4941176 0.4941176
0.5647059 0.5647059 0.5647059
0.6313726 0.6313726 0.6313726
0.6941177 0.6941177 0.6941177
0.7647059 0.7647059 0.7647059
0.8274510 0.8274510 0.8274510
0.8980392 0.8980392 0.8980392
0.9647059 0.9647059 0.9647059
1.0000000 1.0000000 1.0000000
0.0274510 0.0274510 0.0274510
0.0901961 0.0901961 0.0901961
0.1607843 0.1607843 0.1607843
0.2274510 0.2274510 0.2274510
0.2901961 0.2901961 0.2901961
0.3607843 0.3607843 0.3607843
0.4235294 0.4235294 0.4235294
0.4941176 0.4941176 0.4941176
0.5647059 0.5647059 0.5647059
0.0901961 0.0901961 0.0901961
0.1607843 0.1607843 0.1607843
0.2274510 0.2274510 0.2274510
0.2901961 0.2901961 0.2901961
0.3607843 0.3607843 0.3607843
0.4235294 0.4235294 0.4235294
0.4941176 0.4941176 0.4941176
0.5647059 0.5647059 0.5647059
0.6274510 0.6274510 0.6274510
0.1607843 0.1607843 0.1607843
0.2274510 0.2274510 0.2274510
0.2901961 0.2901961 0.2901961
0.3607843 0.3607843 0.3607843
0.4313726 0.4313726 0.4313726
0.4941176 0.4941176 0.4941176
0.5647059 0.5647059 0.5647059
0.6274510 0.6274510 0.6274510
0.6941177 0.6941177 0.6941177
0.2274510 0.2274510 0.2274510
0.2901961 0.2901961 0.2901961
0.3607843 0.3607843 0.3607843
0.4313726 0.4313726 0.4313726
0.4941176 0.4941176 0.4941176
0.5647059 0.5647059 0.5647059
0.6274510 0.6274510 0.6274510
0.6941177 0.6941177 0.6941177
0.7647059 0.7647059 0.7647059
0.2901961 0.2901961 0.2901961
0.3607843 0.3607843 0.3607843
0.4313726 0.4313726 0.4313726
0.4941176 0.4941176 0.4941176
0.5647059 0.5647059 0.5647059
0.6274510 0.6274510 0.6274510
0.6941177 0.6941177 0.6941177
0.7647059 0.7647059 0.7647059
0.8274510 0.8274510 0.8274510
0.3607843 0.3607843 0.3607843
0.4235294 0.4235294 0.4235294
0.4941176 0.4941176 0.4941176
0.5647059 0.5647059 0.5647059
0.6274510 0.6274510 0.6274510
0.6941177 0.6941177 0.6941177
0.7568628 0.7568628 0.7568628
0.8274510 0.8274510 0.8274510
0.8980392 0.8980392 0.8980392
0.4235294 0.4235294 0.4235294
0.4941176 0.4941176 0.4941176
0.5647059 0.5647059 0.5647059
0.6274510 0.6274510 0.6274510
0.6941177 0.6941177 0.6941177
0.7568628 0.7568628 0.7568628
0.8274510 0.8274510 0.8274510
0.8980392 0.8980392 0.8980392
0.9607843 0.9607843 0.9607843
0.4941176 0.4941176 0.4941176
0.5647059 0.5647059 0.5647059
0.6274510 0.6274510 0.6274510
0.6941177 0.6941177 0.6941177
0.7647059 0.7647059 0.7647059
0.8274510 0.8274510 0.8274510
0.8980392 0.8980392 0.8980392
0.9607843 0.9607843 0.9607843
1.0000000 1.0000000 1.0000000
0.5647059 0.5647059 0.5647059
0.6274510 0.6274510 0.6274510
0.6941177 0.6941177 0.6941177
0.7647059 0.7647059 0.7647059
0.8274510 0.8274510 0.8274510
0.8980392 0.8980392 0.8980392
0.9607843 0.9607843 0.9607843
1.0000000 1.0000000 1.0000000
1.0000000 1.0000000 1.0000000
0.0901961 0.0901961 0.0901961
0.1607843 0.1607843 0.1607843
0.2274510 0.2274510 0.2274510
0.2901961 0.2901961 0.2901961
0.3607843 0.3607843 0.3607843
0.4235294 0.4235294 0.4235294
0.4941176 0.4941176 0.4941176
0.5647059 0.5647059 0.5647059
0.6274510 0.6274510 0.6274510
0.1607843 0.1607843 0.1607843
0.2274510 0.2274510 0.2274510
0.2901961 0.2901961 0.2901961
0.3607843 0.3607843 0.3607843
0.4313726 0.4313726 0.4313726
0.4941176 0.4941176 0.4941176
0.5647059 0.5647059 0.5647059
0.6274510 0.6274510 0.6274510
0.6941177 0.6941177 0.6941177
0.2274510 0.2274510 0.2274510
0.2901961 0.2901961 0.2901961
0.3607843 0.3607843 0.3607843
0.4313726 0.4313726 0.4313726
0.4941176 0.4941176 0.4941176
0.5647059 0.5647059 0.5647059
0.6274510 0.6274510 0.6274510
0.6941177 0.6941177 0.6941177
0.7647059 0.7647059 0.7647059
0.2901961 0.2901961 0.2901961
0.3607843 0.3607843 0.3607843
0.4313726 0.4313726 0.4313726
0.4941176 0.4941176 0.4941176
0.5647059 0.5647059 0.5647059
0.6274510 0.6274510 0.6274510
0.6941177 0.6941177 0.6941177
0.7647059 0.7647059 0.7647059
0.8274510 0.8274510 0.8274510
0.3607843 0.3607843 0.3607843
0.4313726 0.4313726 0.4313726
0.4941176 0.4941176 0.4941176
0.5647059 0.5647059 0.5647059
0.6313726 0.6313726 0.6313726
0.6941177 0.6941177 0.6941177
0.7647059 0.7647059 0.7647059
0.8274510 0.8274510 0.8274510
0.8980392 0.8980392 0.8980392
0.4235294 0.4235294 0.4235294
0.4941176 0.4941176 0.4941176
0.5647059 0.5647059 0.5647059
0.6274510 0.6274510 0.6274510
0.6941177 0.6941177 0.6941177
0.7568628 0.7568628 0.7568628
0.8274510 0.8274510 0.8274510
0.8980392 0.8980392 0.8980392
0.9607843 0.9607843 0.9607843
0.4941176 0.4941176 0.4941176
0.5647059 0.5647059 0.5647059
0.6274510 0.6274510 0.6274510
0.6941177 0.6941177 0.6941177
0.7647059 0.7647059 0.7647059
0.8274510 0.8274510 0.8274510
0.8980392 0.8980392 0.8980392
0.9607843 0.9607843 0.9607843
1.0000000 1.0000000 1.0000000
0.5647059 0.5647059 0.5647059
0.6274510 0.6274510 0.6274510
0.6941177 0.6941177 0.6941177
0.7647059 0.7647059 0.7647059
0.8274510 0.8274510 0.8274510
0.8980392 0.8980392 0.8980392
0.9607843 0.9607843 0.9607843
1.0000000 1.0000000 1.0000000
1.0000000 1.0000000 1.0000000
0.6274510 0.6274510 0.6274510
0.6941177 0.6941177 0.6941177
0.7647059 0.7647059 0.7647059
0.8274510 0.8274510 0.8274510
0.8980392 0.8980392 0.8980392
0.9607843 0.9607843 0.9607843
1.0000000 1.0000000 1.0000000
1.0000000 1.0000000 1.0000000
1.0000000 1.0000000 1.0000000
0.1607843 0.1607843 0.1607843
0.2274510 0.2274510 0.2274510
0.2901961 0.2901961 0.2901961
0.3607843 0.3607843 0.3607843
0.4313726 0.4313726 0.4313726
0.4941176 0.4941176 0.4941176
0.5647059 0.5647059 0.5647059
0.6274510 0.6274510 0.6274510
0.6941177 0.6941177 0.6941177
0.2274510 0.2274510 0.2274510
0.2901961 0.2901961 0.2901961
0.3607843 0.3607843 0.3607843
0.4313726 0.4313726 0.4313726
0.4941176 0.4941176 0.4941176
0.5647059 0.5647059 0.5647059
0.6274510 0.6274510 0.6274510
0.6941177 0.6941177 0.6941177
0.7647059 0.7647059 0.7647059
0.2901961 0.2901961 0.2901961
0.3607843 0.3607843 0.3607843
0.4313726 0.4313726 0.4313726
0.4941176 0.4941176 0.4941176
0.5647059 0.5647059 0.5647059
0.6274510 0.6274510 0.6274510
0.6941177 0.6941177 0.6941177
0.7647059 0.7647059 0.7647059
0.8274510 0.8274510 0.8274510
0.3607843 0.3607843 0.3607843
0.4313726 0.4313726 0.4313726
0.4941176 0.4941176 0.4941176
0.5647059 0.5647059 0.5647059
0.6313726 0.6313726 0.6313726
0.6941177 0.6941177 0.6941177
0.7647059 0.7647059 0.7647059
0.8274510 0.8274510 0.8274510
0.8980392 0.8980392 0.8980392
0.4313726 0.4313726 0.4313726
0.4941176 0.4941176 0.4941176
0.5647059 0.5647059 0.5647059
0.6313726 0.6313726 0.6313726
0.6941177 0.6941177 0.6941177
0.7647059 0.7647059 0.7647059
0.8274510 0.8274510 0.8274510
0.8980392 0.8980392 0.8980392
0.9647059 0.9647059 0.9647059
0.4941176 0.4941176 0.4941176
0.5647059 0.5647059 0.5647059
0.6274510 0.6274510 0.6274510
0.6941177 0.6941177 0.6941177
0.7647059 0.7647059 0.7647059
0.8274510 0.8274510 0.8274510
0.8980392 0.8980392 0.8980392
0.9607843 0.9607843 0.9607843
1.0000000 1.0000000 1.0000000
0.5647059 0.5647059 0.5647059
0.6274510 0.6274510 0.6274510
0.6941177 0.6941177 0.6941177
0.7647059 0.7647059 0.7647059
0.8274510 0.8274510 0.8274510
0.8980392 0.8980392 0.8980392
0.9607843 0.9607843 0.9607843
1.0000000 1.0000000 1.0000000
1.0000000 1.0000000 1.0000000
0.6274510 0.6274510 0.6274510
0.6941177 0.6941177 0.6941177
0.7647059 0.7647059 0.7647059
0.8274510 0.8274510 0.8274510
0.8980392 0.8980392 0.8980392
0.9607843 0.9607843 0.9607843
1.0000000 1.0000000 1.0000000
1.0000000 1.0000000 1.0000000
1.0000000 1.0000000 1.0000000
0.6941177 0.6941177 0.6941177
0.7647059 0.7647059 0.7647059
0.8274510 0.8274510 0.8274510
0.8980392 0.8980392 0.8980392
0.9647059 0.9647059 0.9647059
1.0000000 1.0000000 1.0000000
1.0000000 1.0000000 1.0000000
1.0000000 1.0000000 1.0000000
1.0000000 1.0000000 1.0000000
0.2274510 0.2274510 0.2274510
0.2901961 0.2901961 0.2901961
0.3607843 0.3607843 0.3607843
0.4313726 0.4313726 0.4313726
0.4941176 0.4941176 0.4941176
0.5647059 0.5647059 0.5647059
0.6274510 0.6274510 0.6274510
0.6941177 0.6941177 0.6941177
0.7647059 0.7647059 0.7647059
0.2901961 0.2901961 0.2901961
0.3607843 0.3607843 0.3607843
0.4313726 0.4313726 0.4313726
0.4941176 0.4941176 0.4941176
0.5647059 0.5647059 0.5647059
0.6274510 0.6274510 0.6274510
0.6941177 0.6941177 0.6941177
0.7647059 0.7647059 0.7647059
0.8274510 0.8274510 0.8274510
0.3607843 0.3607843 0.3607843
0.4313726 0.4313726 0.4313726
0.4941176 0.4941176 0.4941176
0.5647059 0.5647059 0.5647059
0.6313726 0.6313726 0.6313726
0.6941177 0.6941177 0.6941177
0.7647059 0.7647059 0.7647059
0.8274510 0.8274510 0.8274510
0.8980392 0.8980392 0.8980392
0.4313726 0.4313726 0.4313726
0.4941176 0.4941176 0.4941176
0.5647059 0.5647059 0.5647059
0.6313726 0.6313726 0.6313726
0.6941177 0.6941177 0.6941177
0.7647059 0.7647059 0.7647059
0.8274510 0.8274510 0.8274510
0.8980392 0.8980392 0.8980392
0.9647059 0.9647059 0.9647059
0.4941176 0.4941176 0.4941176
0.5647059 0.5647059 0.5647059
0.6313726 0.6313726 0.6313726
0.6941177 0.6941177 0.6941177
0.7647059 0.7647059 0.7647059
0.8274510 0.8274510 0.8274510
0.8980392 0.8980392 0.8980392
0.9647059 0.9647059 0.9647059
1.0000000 1.0000000 1.0000000
0.5647059 0.5647059 0.5647059
0.6274510 0.6274510 0.6274510
0.6941177 0.6941177 0.6941177
0.7647059 0.7647059 0.7647059
0.8274510 0.8274510 0.8274510
0.8980392 0.8980392 0.8980392
0.9607843 0.9607843 0.9607843
1.0000000 1.0000000 1.0000000
1.0000000 1.0000000 1.0000000
0.6274510 0.6274510 0.6274510
0.6941177 0.6941177 0.6941177
0.7647059 0.7647059 0.7647059
0.8274510 0.8274510 0.8274510
0.8980392 0.8980392 0.8980392
0.9607843 0.9607843 0.9607843
1.0000000 1.0000000 1.0000000
1.0000000 1.0000000 1.0000000
1.0000000 1.0000000 1.0000000
0.6941177 0.6941177 0.6941177
0.7647059 0.7647059 0.7647059
0.8274510 0.8274510 0.8274510
0.8980392 0.8980392 0.8980392
0.9647059 0.9647059 0.9647059
1.0000000 1.0000000 1.0000000
1.0000000 1.0000000 1.0000000
1.0000000 1.0000000 1.0000000
1.0000000 1.0000000 1.0000000
0.7647059 0.7647059 0.7647059
0.8274510 0.8274510 0.8274510
0.8980392 0.8980392 0.8980392
0.9647059 0.9647059 0.9647059
1.0000000 1.0000000 1.0000000
1.0000000 1.0000000 1.0000000
1.0000000 1.0000000 1.0000000
1.0000000 1.0000000 1.0000000
1.0000000 1.0000000 1.0000000
