rust/creative_luts/dramatic/lut.cube
TITLE "Pixel Craft Creative: dramatic"
LUT_3D_SIZE 33
DOMAIN_MIN 0.0 0.0 0.0
DOMAIN_MAX 1.0 1.0 1.0
0.0000000 0.0000000 0.0000000
0.0000000 0.0000000 0.0000000
0.0000000 0.0000000 0.0000000
0.0000000 0.0000000 0.0000000
0.0000000 0.0000000 0.0000000
0.0000000 0.0000000 0.0000000
0.0000000 0.0000000 0.0000000
0.0000000 0.0000000 0.0000000
0.0000000 0.0000000 0.0000000
0.0000000 0.0000000 0.0000000
0.0000000 0.0000000 0.0000000
0.0000000 0.0000000 0.0000000
0.0000000 0.0000000 0.0000000
0.0000000 0.0000000 0.0000000
0.0000000 0.0000000 0.0000000
0.0000000 0.0000000 0.0000000
0.0000000 0.0000000 0.0000000
0.0000000 0.0000000 0.0000000
0.0000000 0.0000000 0.0000000
0.0078431 0.0078431 0.0078431
0.0274510 0.0274510 0.0274510
0.0392157 0.0392157 0.0392157
0.0588235 0.0588235 0.0588235
0.0784314 0.0784314 0.0784314
0.0901961 0.0901961 0.0901961
0.1098039 0.1098039 0.1098039
0.1294118 0.1294118 0.1294118
0.1411765 0.1411765 0.1411765
0.1607843 0.1607843 0.1607843
0.1803922 0.1803922 0.1803922
0.1921569 0.1921569 0.1921569
0.2117647 0.2117647 0.2117647
0.2274510 0.2274510 0.2274510
0.0000000 0.0000000 0.0000000
0.0000000 0.0000000 0.0000000
0.0000000 0.0000000 0.0000000
0.0000000 0.0000000 0.0000000
0.0000000 0.0000000 0.0000000
0.0000000 0.0000000 0.0000000
0.0000000 0.0000000 0.0000000
0.0000000 0.0000000 0.0000000
0.0000000 0.0000000 0.0000000
0.0000000 0.0000000 0.0000000
0.0000000 0.0000000 0.0000000
0.0000000 0.0000000 0.0000000
0.0000000 0.0000000 0.0000000
0.0000000 0.0000000 0.0000000
0.0000000 0.0000000 0.0000000
0.0000000 0.0000000 0.0000000
0.0000000 0.0000000 0.0000000
0.0000000 0.0000000 0.0000000
0.0078431 0.0078431 0.0078431
0.0274510 0.0274510 0.0274510
0.0392157 0.0392157 0.0392157
0.0588235 0.0588235 0.0588235
0.0784314 0.0784314 0.0784314
0.0901961 0.0901961 0.0901961
0.1098039 0.1098039 0.1098039
0.1294118 0.1294118 0.1294118
0.1411765 0.1411765 0.1411765
0.1607843 0.1607843 0.1607843
0.1803922 0.1803922 0.1803922
0.1921569 0.1921569 0.1921569
0.2117647 0.2117647 0.2117647
0.2274510 0.2274510 0.2274510
0.2431373 0.2431373 0.2431373
0.0000000 0.0000000 0.0000000
0.0000000 0.0000000 0.0000000
0.0000000 0.0000000 0.0000000
0.0000000 0.0000000 0.0000000
0.0000000 0.0000000 0.0000000
0.0000000 0.0000000 0.0000000
0.0000000 0.0000000 0.0000000
0.0000000 0.0000000 0.0000000
0.0000000 0.0000000 0.0000000
0.0000000 0.0000000 0.0000000
0.0000000 0.0000000 0.0000000
0.0000000 0.0000000 0.0000000
0.0000000 0.0000000 0.0000000
0.0000000 0.0000000 0.0000000
0.0000000 0.0000000 0.0000000
0.0000000 0.0000000 0.0000000
0.0000000 0.0000000 0.0000000
0.0078431 0.0078431 0.0078431
0.0274510 0.0274510 0.0274510
0.0392157 0.0392157 0.0392157
0.0588235 0.0588235 0.0588235
0.0784314 0.0784314 0.0784314
0.0901961 0.0901961 0.0901961
0.1098039 0.1098039 0.1098039
0.1294118 0.1294118 0.1294118
0.1411765 0.1411765 0.1411765
0.1607843 0.1607843 0.1607843
0.1803922 0.1803922 0.1803922
0.1921569 0.1921569 0.1921569
0.2117647 0.2117647 0.2117647
0.2274510 0.2274510 0.2274510
0.2431373 0.2431373 0.2431373
0.2588235 0.2588235 0.2588235
0.0000000 0.0000000 0.0000000
0.0000000 0.0000000 0.0000000
0.0000000 0.0000000 0.0000000
0.0000000 0.0000000 0.0000000
0.0000000 0.0000000 0.0000000
0.0000000 0.0000000 0.0000000
0.0000000 0.0000000 0.0000000
0.0000000 0.0000000 0.0000000
0.0000000 0.0000000 0.0000000
0.0000000 0.0000000 0.0000000
0.0000000 0.0000000 0.0000000
0.0000000 0.0000000 0.0000000
0.0000000 0.0000000 0.0000000
0.0000000 0.0000000 0.0000000
0.0000000 0.0000000 0.0000000
0.0000000 0.0000000 0.0000000
0.0078431 0.0078431 0.0078431
0.0274510 0.0274510 0.0274510
0.0392157 0.0392157 0.0392157
0.0588235 0.0588235 0.0588235
0.0784314 0.0784314 0.0784314
0.0901961 0.0901961 0.0901961
0.1098039 0.1098039 0.1098039
0.1294118 0.1294118 0.1294118
0.1411765 0.1411765 0.1411765
0.1607843 0.1607843 0.1607843
0.1803922 0.1803922 0.1803922
0.1921569 0.1921569 0.1921569
0.2117647 0.2117647 0.2117647
0.2274510 0.2274510 0.2274510
0.2431373 0.2431373 0.2431373
0.2588235 0.2588235 0.2588235
0.2784314 0.2784314 0.2784314
0.0000000 0.0000000 0.0000000
0.0000000 0.0000000 0.0000000
0.0000000 0.0000000 0.0000000
0.0000000 0.0000000 0.0000000
0.0000000 0.0000000 0.0000000
0.0000000 0.0000000 0.0000000
0.0000000 0.0000000 0.0000000
0.0000000 0.0000000 0.0000000
0.0000000 0.0000000 0.0000000
0.0000000 0.0000000 0.0000000
0.0000000 0.0000000 0.0000000
0.0000000 0.0000000 0.0000000
0.0000000 0.0000000 0.0000000
0.0000000 0.0000000 0.0000000
0.0000000 0.0000000 0.0000000
0.0078431 0.0078431 0.0078431
0.0274510 0.0274510 0.0274510
0.0392157 0.0392157 0.0392157
0.0588235 0.0588235 0.0588235
0.0784314 0.0784314 0.0784314
0.0901961 0.0901961 0.0901961
0.1098039 0.1098039 0.1098039
0.1294118 0.1294118 0.1294118
0.1411765 0.1411765 0.1411765
0.1607843 0.1607843 0.1607843
0.1803922 0.1803922 0.1803922
0.1921569 0.1921569 0.1921569
0.2117647 0.2117647 0.2117647
0.2274510 0.2274510 0.2274510
0.2431373 0.2431373 0.2431373
0.2588235 0.2588235 0.2588235
0.2784314 0.2784314 0.2784314
0.2901961 0.2901961 0.2901961
0.0000000 0.0000000 0.0000000
0.0000000 0.0000000 0.0000000
0.0000000 0.0000000 0.0000000
0.0000000 0.0000000 0.0000000
0.0000000 0.0000000 0.0000000
0.0000000 0.0000000 0.0000000
0.0000000 0.0000000 0.0000000
0.0000000 0.0000000 0.0000000
0.0000000 0.0000000 0.0000000
0.0000000 0.0000000 0.0000000
0.0000000 0.0000000 0.0000000
0.0000000 0.0000000 0.0000000
0.0000000 0.0000000 0.0000000
0.0000000 0.0000000 0.0000000
0.0078431 0.0078431 0.0078431
0.0274510 0.0274510 0.0274510
0.0470588 0.0470588 0.0470588
0.0588235 0.0588235 0.0588235
0.0784314 0.0784314 0.0784314
0.0901961 0.0901961 0.0901961
0.1098039 0.1098039 0.1098039
0.1294118 0.1294118 0.1294118
0.1411765 0.1411765 0.1411765
0.1607843 0.1607843 0.1607843
0.1803922 0.1803922 0.1803922
0.1921569 0.1921569 0.1921569
0.2117647 0.2117647 0.2117647
0.2274510 0.2274510 0.2274510
0.2431373 0.2431373 0.2431373
0.2588235 0.2588235 0.2588235
0.2784314 0.2784314 0.2784314
0.2901961 0.2901961 0.2901961
0.3098039 0.3098039 0.3098039
0.0000000 0.0000000 0.0000000
0.0000000 0.0000000 0.0000000
0.0000000 0.0000000 0.0000000
0.0000000 0.0000000 0.0000000
0.0000000 0.0000000 0.0000000
0.0000000 0.0000000 0.0000000
0.0000000 0.0000000 0.0000000
0.0000000 0.0000000 0.0000000
0.0000000 0.0000000 0.0000000
0.0000000 0.0000000 0.0000000
0.0000000 0.0000000 0.0000000
0.0000000 0.0000000 0.0000000
0.0000000 0.0000000 0.0000000
0.0078431 0.0078431 0.0078431
0.0274510 0.0274510 0.0274510
0.0470588 0.0470588 0.0470588
0.0588235 0.0588235 0.0588235
0.0784314 0.0784314 0.0784314
0.0901961 0.0901961 0.0901961
0.1098039 0.1098039 0.1098039
0.1294118 0.1294118 0.1294118
0.1411765 0.1411765 0.1411765
0.1607843 0.1607843 0.1607843
0.1803922 0.1803922 0.1803922
0.1921569 0.1921569 0.1921569
0.2117647 0.2117647 0.2117647
0.2274510 0.2274510 0.2274510
0.2431373 0.2431373 0.2431373
0.2588235 0.2588235 0.2588235
0.2784314 0.2784314 0.2784314
0.2901961 0.2901961 0.2901961
0.3098039 0.3098039 0.3098039
0.3294118 0.3294118 0.3294118
0.0000000 0.0000000 0.0000000
0.0000000 0.0000000 0.0000000
0.0000000 0.0000000 0.0000000
0.0000000 0.0000000 0.0000000
0.0000000 0.0000000 0.0000000
0.0000000 0.0000000 0.0000000
0.0000000 0.0000000 0.0000000
0.0000000 0.0000000 0.0000000
0.0000000 0.0000000 0.0000000
0.0000000 0.0000000 0.0000000
0.0000000 0.0000000 0.0000000
0.0000000 0.0000000 0.0000000
0.0078431 0.0078431 0.0078431
0.0274510 0.0274510 0.0274510
0.0470588 0.0470588 0.0470588
0.0588235 0.0588235 0.0588235
0.0784314 0.0784314 0.0784314
0.0901961 0.0901961 0.0901961
0.1098039 0.1098039 0.1098039
0.1294118 0.1294118 0.1294118
0.1411765 0.1411765 0.1411765
0.1607843 0.1607843 0.1607843
0.1803922 0.1803922 0.1803922
0.1921569 0.1921569 0.1921569
0.2117647 0.2117647 0.2117647
0.2274510 0.2274510 0.2274510
0.2431373 0.2431373 0.2431373
0.2588235 0.2588235 0.2588235
0.2784314 0.2784314 0.2784314
0.2901961 0.2901961 0.2901961
0.3098039 0.3098039 0.3098039
0.3294118 0.3294118 0.3294118
0.3411765 0.3411765 0.3411765
0.0000000 0.0000000 0.0000000
0.0000000 0.0000000 0.0000000
0.0000000 0.0000000 0.0000000
0.0000000 0.0000000 0.0000000
0.0000000 0.0000000 0.0000000
0.0000000 0.0000000 0.0000000
0.0000000 0.0000000 0.0000000
0.0000000 0.0000000 0.0000000
0.0000000 0.0000000 0.0000000
0.0000000 0.0000000 0.0000000
0.0000000 0.0000000 0.0000000
0.0078431 0.0078431 0.0078431
0.0274510 0.0274510 0.0274510
0.0470588 0.0470588 0.0470588
0.0588235 0.0588235 0.0588235
0.0784314 0.0784314 0.0784314
0.0980392 0.0980392 0.0980392
0.1098039 0.1098039 0.1098039
0.1294118 0.1294118 0.1294118
0.1411765 0.1411765 0.1411765
0.1607843 0.1607843 0.1607843
0.1803922 0.1803922 0.1803922
0.1921569 0.1921569 0.1921569
0.2117647 0.2117647 0.2117647
0.2274510 0.2274510 0.2274510
0.2431373 0.2431373 0.2431373
0.2588235 0.2588235 0.2588235
0.2784314 0.2784314 0.2784314
0.2901961 0.2901961 0.2901961
0.3098039 0.3098039 0.3098039
0.3294118 0.3294118 0.3294118
0.3411765 0.3411765 0.3411765
0.3607843 0.3607843 0.3607843
0.0000000 0.0000000 0.0000000
0.0000000 0.0000000 0.0000000
0.0000000 0.0000000 0.0000000
0.0000000 0.0000000 0.0000000
0.0000000 0.0000000 0.0000000
0.0000000 0.0000000 0.0000000
0.0000000 0.0000000 0.0000000
0.0000000 0.0000000 0.0000000
0.0000000 0.0000000 0.0000000
0.0000000 0.0000000 0.0000000
0.0078431 0.0078431 0.0078431
0.0274510 0.0274510 0.0274510
0.0470588 0.0470588 0.0470588
0.0588235 0.0588235 0.0588235
0.0784314 0.0784314 0.0784314
0.0980392 0.0980392 0.0980392
0.1098039 0.1098039 0.1098039
0.1294118 0.1294118 0.1294118
0.1411765 0.1411765 0.1411765
0.1607843 0.1607843 0.1607843
0.1803922 0.1803922 0.1803922
0.1921569 0.1921569 0.1921569
0.2117647 0.2117647 0.2117647
0.2274510 0.2274510 0.2274510
0.2431373 0.2431373 0.2431373
0.2588235 0.2588235 0.2588235
0.2784314 0.2784314 0.2784314
0.2901961 0.2901961 0.2901961
0.3098039 0.3098039 0.3098039
0.3294118 0.3294118 0.3294118
0.3411765 0.3411765 0.3411765
0.3607843 0.3607843 0.3607843
0.3803922 0.3803922 0.3803922
0.0000000 0.0000000 0.0000000
0.0000000 0.0000000 0.0000000
0.0000000 0.0000000 0.0000000
0.0000000 0.0000000 0.0000000
0.0000000 0.0000000 0.0000000
0.0000000 0.0000000 0.0000000
0.0000000 0.0000000 0.0000000
0.0000000 0.0000000 0.0000000
0.0000000 0.0000000 0.0000000
0.0078431 0.0078431 0.0078431
0.0274510 0.0274510 0.0274510
0.0470588 0.0470588 0.0470588
0.0588235 0.0588235 0.0588235
0.0784314 0.0784314 0.0784314
0.0980392 0.0980392 0.0980392
0.1098039 0.1098039 0.1098039
0.1294118 0.1294118 0.1294118
0.1411765 0.1411765 0.1411765
0.1607843 0.1607843 0.1607843
0.1803922 0.1803922 0.1803922
0.1921569 0.1921569 0.1921569
0.2117647 0.2117647 0.2117647
0.2274510 0.2274510 0.2274510
0.2431373 0.2431373 0.2431373
0.2588235 0.2588235 0.2588235
0.2784314 0.2784314 0.2784314
0.2901961 0.2901961 0.2901961
0.3098039 0.3098039 0.3098039
0.3294118 0.3294118 0.3294118
0.3411765 0.3411765 0.3411765
0.3607843 0.3607843 0.3607843
0.3803922 0.3803922 0.3803922
0.3921569 0.3921569 0.3921569
0.0000000 0.0000000 0.0000000
0.0000000 0.0000000 0.0000000
0.0000000 0.0000000 0.0000000
0.0000000 0.0000000 0.0000000
0.0000000 0.0000000 0.0000000
0.0000000 0.0000000 0.0000000
0.0000000 0.0000000 0.0000000
0.0000000 0.0000000 0.0000000
0.0078431 0.0078431 0.0078431
0.0274510 0.0274510 0.0274510
0.0470588 0.0470588 0.0470588
0.0588235 0.0588235 0.0588235
0.0784314 0.0784314 0.0784314
0.0980392 0.0980392 0.0980392
0.1098039 0.1098039 0.1098039
0.1294118 0.1294118 0.1294118
0.1450980 0.1450980 0.1450980
0.1607843 0.1607843 0.1607843
0.1803922 0.1803922 0.1803922
0.1921569 0.1921569 0.1921569
0.2117647 0.2117647 0.2117647
0.2274510 0.2274510 0.2274510
0.2431373 0.2431373 0.2431373
0.2588235 0.2588235 0.2588235
0.2784314 0.2784314 0.2784314
0.2901961 0.2901961 0.2901961
0.3098039 0.3098039 0.3098039
0.3294118 0.3294118 0.3294118
0.3411765 0.3411765 0.3411765
0.3607843 0.3607843 0.3607843
0.3803922 0.3803922 0.3803922
0.3921569 0.3921569 0.3921569
0.4117647 0.4117647 0.4117647
0.0000000 0.0000000 0.0000000
0.0000000 0.0000000 0.0000000
0.0000000 0.0000000 0.0000000
0.0000000 0.0000000 0.0000000
0.0000000 0.0000000 0.0000000
0.0000000 0.0000000 0.0000000
0.0000000 0.0000000 0.0000000
0.0078431 0.0078431 0.0078431
0.0274510 0.0274510 0.0274510
0.0470588 0.0470588 0.0470588
0.0588235 0.0588235 0.0588235
0.0784314 0.0784314 0.0784314
0.0980392 0.0980392 0.0980392
0.1098039 0.1098039 0.1098039
0.1294118 0.1294118 0.1294118
0.1450980 0.1450980 0.1450980
0.1607843 0.1607843 0.1607843
0.1803922 0.1803922 0.1803922
0.1921569 0.1921569 0.1921569
0.2117647 0.2117647 0.2117647
0.2274510 0.2274510 0.2274510
0.2431373 0.2431373 0.2431373
0.2588235 0.2588235 0.2588235
0.2784314 0.2784314 0.2784314
0.2901961 0.2901961 0.2901961
0.3098039 0.3098039 0.3098039
0.3294118 0.3294118 0.3294118
0.3411765 0.3411765 0.3411765
0.3607843 0.3607843 0.3607843
0.3803922 0.3803922 0.3803922
0.3921569 0.3921569 0.3921569
0.4117647 0.4117647 0.4117647
0.4313726 0.4313726 0.4313726
0.0000000 0.0000000 0.0000000
0.0000000 0.0000000 0.0000000
0.0000000 0.0000000 0.0000000
0.0000000 0.0000000 0.0000000
0.0000000 0.0000000 0.0000000
0.0000000 0.0000000 0.0000000
0.0078431 0.0078431 0.0078431
0.0274510 0.0274510 0.0274510
0.0470588 0.0470588 0.0470588
0.0588235 0.0588235 0.0588235
0.0784314 0.0784314 0.0784314
0.0980392 0.0980392 0.0980392
0.1098039 0.1098039 0.1098039
0.1294118 0.1294118 0.1294118
0.1450980 0.1450980 0.1450980
0.1607843 0.1607843 0.1607843
0.1803922 0.1803922 0.1803922
0.1921569 0.1921569 0.1921569
0.2117647 0.2117647 0.2117647
0.2274510 0.2274510 0.2274510
0.2431373 0.2431373 0.2431373
0.2588235 0.2588235 0.2588235
0.2784314 0.2784314 0.2784314
0.2901961 0.2901961 0.2901961
0.3098039 0.3098039 0.3098039
0.3294118 0.3294118 0.3294118
0.3411765 0.3411765 0.3411765
0.3607843 0.3607843 0.3607843
0.3803922 0.3803922 0.3803922
0.3921569 0.3921569 0.3921569
0.4117647 0.4117647 0.4117647
0.4313726 0.4313726 0.4313726
0.4431373 0.4431373 0.4431373
0.0000000 0.0000000 0.0000000
0.0000000 0.0000000 0.0000000
0.0000000 0.0000000 0.0000000
0.0000000 0.0000000 0.0000000
0.0000000 0.0000000 0.0000000
0.0078431 0.0078431 0.0078431
0.0274510 0.0274510 0.0274510
0.0470588 0.0470588 0.0470588
0.0588235 0.0588235 0.0588235
0.0784314 0.0784314 0.0784314
0.0980392 0.0980392 0.0980392
0.1098039 0.1098039 0.1098039
0.1294118 0.1294118 0.1294118
0.1450980 0.1450980 0.1450980
0.1607843 0.1607843 0.1607843
0.1803922 0.1803922 0.1803922
0.1960784 0.1960784 0.1960784
0.2117647 0.2117647 0.2117647
0.2274510 0.2274510 0.2274510
0.2431373 0.2431373 0.2431373
0.2588235 0.2588235 0.2588235
0.2784314 0.2784314 0.2784314
0.2901961 0.2901961 0.2901961
0.3098039 0.3098039 0.3098039
0.3294118 0.3294118 0.3294118
0.3411765 0.3411765 0.3411765
0.3607843 0.3607843 0.3607843
0.3803922 0.3803922 0.3803922
0.3921569 0.3921569 0.3921569
0.4117647 0.4117647 0.4117647
0.4313726 0.4313726 0.4313726
0.4431373 0.4431373 0.4431373
0.4627451 0.4627451 0.4627451
0.0000000 0.0000000 0.0000000
0.0000000 0.0000000 0.0000000
0.0000000 0.0000000 0.0000000
0.0000000 0.0000000 0.0000000
0.0078431 0.0078431 0.0078431
0.0274510 0.0274510 0.0274510
0.0470588 0.0470588 0.0470588
0.0588235 0.0588235 0.0588235
0.0784314 0.0784314 0.0784314
0.0980392 0.0980392 0.0980392
0.1098039 0.1098039 0.1098039
0.1294118 0.1294118 0.1294118
0.1450980 0.1450980 0.1450980
0.1607843 0.1607843 0.1607843
0.1803922 0.1803922 0.1803922
0.1960784 0.1960784 0.1960784
0.2117647 0.2117647 0.2117647
0.2274510 0.2274510 0.2274510
0.2431373 0.2431373 0.2431373
0.2588235 0.2588235 0.2588235
0.2784314 0.2784314 0.2784314
0.2901961 0.2901961 0.2901961
0.3098039 0.3098039 0.3098039
0.3294118 0.3294118 0.3294118
0.3411765 0.3411765 0.3411765
0.3607843 0.3607843 0.3607843
0.3803922 0.3803922 0.3803922
0.3921569 0.3921569 0.3921569
0.4117647 0.4117647 0.4117647
0.4313726 0.4313726 0.4313726
0.4431373 0.4431373 0.4431373
0.4627451 0.4627451 0.4627451
0.4823529 0.4823529 0.4823529
0.0000000 0.0000000 0.0000000
0.0000000 0.0000000 0.0000000
0.0000000 0.0000000 0.0000000
0.0078431 0.0078431 0.0078431
0.0274510 0.0274510 0.0274510
0.0470588 0.0470588 0.0470588
0.0588235 0.0588235 0.0588235
0.0784314 0.0784314 0.0784314
0.0980392 0.0980392 0.0980392
0.1098039 0.1098039 0.1098039
0.1294118 0.1294118 0.1294118
0.1450980 0.1450980 0.1450980
0.1607843 0.1607843 0.1607843
0.1803922 0.1803922 0.1803922
0.1960784 0.1960784 0.1960784
0.2117647 0.2117647 0.2117647
0.2274510 0.2274510 0.2274510
0.2431373 0.2431373 0.2431373
0.2588235 0.2588235 0.2588235
0.2784314 0.2784314 0.2784314
0.2901961 0.2901961 0.2901961
0.3098039 0.3098039 0.3098039
0.3294118 0.3294118 0.3294118
0.3411765 0.3411765 0.3411765
0.3607843 0.3607843 0.3607843
0.3803922 0.3803922 0.3803922
0.3921569 0.3921569 0.3921569
0.4117647 0.4117647 0.4117647
0.4313726 0.4313726 0.4313726
0.4431373 0.4431373 0.4431373
0.4627451 0.4627451 0.4627451
0.4823529 0.4823529 0.4823529
0.4941176 0.4941176 0.4941176
0.0000000 0.0000000 0.0000000
0.0000000 0.0000000 0.0000000
0.0078431 0.0078431 0.0078431
0.0274510 0.0274510 0.0274510
0.0392157 0.0392157 0.0392157
0.0588235 0.0588235 0.0588235
0.0784314 0.0784314 0.0784314
0.0901961 0.0901961 0.0901961
0.1098039 0.1098039 0.1098039
0.1294118 0.1294118 0.1294118
0.1411765 0.1411765 0.1411765
0.1607843 0.1607843 0.1607843
0.1803922 0.1803922 0.1803922
0.1921569 0.1921569 0.1921569
0.2117647 0.2117647 0.2117647
0.2274510 0.2274510 0.2274510
0.2431373 0.2431373 0.2431373
0.2588235 0.2588235 0.2588235
0.2745098 0.2745098 0.2745098
0.2901961 0.2901961 0.2901961
0.3098039 0.3098039 0.3098039
0.3215686 0.3215686 0.3215686
0.3411765 0.3411765 0.3411765
0.3607843 0.3607843 0.3607843
0.3725490 0.3725490 0.3725490
0.3921569 0.3921569 0.3921569
0.4117647 0.4117647 0.4117647
0.4235294 0.4235294 0.4235294
0.4431373 0.4431373 0.4431373
0.4627451 0.4627451 0.4627451
0.4745098 0.4745098 0.4745098
0.4941176 0.4941176 0.4941176
0.5137255 0.5137255 0.5137255
0.0000000 0.0000000 0.0000000
0.0078431 0.0078431 0.0078431
0.0274510 0.0274510 0.0274510
0.0392157 0.0392157 0.0392157
0.0588235 0.0588235 0.0588235
0.0784314 0.0784314 0.0784314
0.0901961 0.0901961 0.0901961
0.1098039 0.1098039 0.1098039
0.1294118 0.1294118 0.1294118
0.1411765 0.1411765 0.1411765
0.1607843 0.1607843 0.1607843
0.1803922 0.1803922 0.1803922
0.1921569 0.1921569 0.1921569
0.2117647 0.2117647 0.2117647
0.2274510 0.2274510 0.2274510
0.2431373 0.2431373 0.2431373
0.2588235 0.2588235 0.2588235
0.2745098 0.2745098 0.2745098
0.2901961 0.2901961 0.2901961
0.3098039 0.3098039 0.3098039
0.3215686 0.3215686 0.3215686
0.3411765 0.3411765 0.3411765
0.3607843 0.3607843 0.3607843
0.3725490 0.3725490 0.3725490
0.3921569 0.3921569 0.3921569
0.4117647 0.4117647 0.4117647
0.4235294 0.4235294 0.4235294
0.4431373 0.4431373 0.4431373
0.4627451 0.4627451 0.4627451
0.4745098 0.4745098 0.4745098
0.4941176 0.4941176 0.4941176
0.5137255 0.5137255 0.5137255
0.5254902 0.5254902 0.5254902
0.0078431 0.0078431 0.0078431
0.0274510 0.0274510 0.0274510
0.0392157 0.0392157 0.0392157
0.0588235 0.0588235 0.0588235
0.0784314 0.0784314 0.0784314
0.0901961 0.0901961 0.0901961
0.1098039 0.1098039 0.1098039
0.1294118 0.1294118 0.1294118
0.1411765 0.1411765 0.1411765
0.1607843 0.1607843 0.1607843
0.1803922 0.1803922 0.1803922
0.1921569 0.1921569 0.1921569
0.2117647 0.2117647 0.2117647
0.2274510 0.2274510 0.2274510
0.2431373 0.2431373 0.2431373
0.2588235 0.2588235 0.2588235
0.2784314 0.2784314 0.2784314
0.2901961 0.2901961 0.2901961
0.3098039 0.3098039 0.3098039
0.3215686 0.3215686 0.3215686
0.3411765 0.3411765 0.3411765
0.3607843 0.3607843 0.3607843
0.3725490 0.3725490 0.3725490
0.3921569 0.3921569 0.3921569
0.4117647 0.4117647 0.4117647
0.4235294 0.4235294 0.4235294
0.4431373 0.4431373 0.4431373
0.4627451 0.4627451 0.4627451
0.4745098 0.4745098 0.4745098
0.4941176 0.4941176 0.4941176
0.5137255 0.5137255 0.5137255
0.5254902 0.5254902 0.5254902
0.5450981 0.5450981 0.5450981
0.0274510 0.0274510 0.0274510
0.0392157 0.0392157 0.0392157
0.0588235 0.0588235 0.0588235
0.0784314 0.0784314 0.0784314
0.0901961 0.0901961 0.0901961
0.1098039 0.1098039 0.1098039
0.1294118 0.1294118 0.1294118
0.1411765 0.1411765 0.1411765
0.1607843 0.1607843 0.1607843
0.1803922 0.1803922 0.1803922
0.1921569 0.1921569 0.1921569
0.2117647 0.2117647 0.2117647
0.2274510 0.2274510 0.2274510
0.2431373 0.2431373 0.2431373
0.2588235 0.2588235 0.2588235
0.2784314 0.2784314 0.2784314
0.2901961 0.2901961 0.2901961
0.3098039 0.3098039 0.3098039
0.3215686 0.3215686 0.3215686
0.3411765 0.3411765 0.3411765
0.3607843 0.3607843 0.3607843
0.3725490 0.3725490 0.3725490
0.3921569 0.3921569 0.3921569
0.4117647 0.4117647 0.4117647
0.4235294 0.4235294 0.4235294
0.4431373 0.4431373 0.4431373
0.4627451 0.4627451 0.4627451
0.4745098 0.4745098 0.4745098
0.4941176 0.4941176 0.4941176
0.5137255 0.5137255 0.5137255
0.5254902 0.5254902 0.5254902
0.5450981 0.5450981 0.5450981
0.5647059 0.5647059 0.5647059
0.0392157 0.0392157 0.0392157
0.0588235 0.0588235 0.0588235
0.0784314 0.0784314 0.0784314
0.0901961 0.0901961 0.0901961
0.1098039 0.1098039 0.1098039
0.1294118 0.1294118 0.1294118
0.1411765 0.1411765 0.1411765
0.1607843 0.1607843 0.1607843
0.1803922 0.1803922 0.1803922
0.1921569 0.1921569 0.1921569
0.2117647 0.2117647 0.2117647
0.2274510 0.2274510 0.2274510
0.2431373 0.2431373 0.2431373
0.2588235 0.2588235 0.2588235
0.2784314 0.2784314 0.2784314
0.2901961 0.2901961 0.2901961
0.3098039 0.3098039 0.3098039
0.3215686 0.3215686 0.3215686
0.3411765 0.3411765 0.3411765
0.3607843 0.3607843 0.3607843
0.3725490 0.3725490 0.3725490
0.3921569 0.3921569 0.3921569
0.4117647 0.4117647 0.4117647
0.4235294 0.4235294 0.4235294
0.4431373 0.4431373 0.4431373
0.4627451 0.4627451 0.4627451
0.4745098 0.4745098 0.4745098
0.4941176 0.4941176 0.4941176
0.5137255 0.5137255 0.5137255
0.5254902 0.5254902 0.5254902
0.5450981 0.5450981 0.5450981
0.5647059 0.5647059 0.5647059
0.5764706 0.5764706 0.5764706
0.0588235 0.0588235 0.0588235
0.0784314 0.0784314 0.0784314
0.0901961 0.0901961 0.0901961
0.1098039 0.1098039 0.1098039
0.1294118 0.1294118 0.1294118
0.1411765 0.1411765 0.1411765
0.1607843 0.1607843 0.1607843
0.1803922 0.1803922 0.1803922
0.1921569 0.1921569 0.1921569
0.2117647 0.2117647 0.2117647
0.2274510 0.2274510 0.2274510
0.2431373 0.2431373 0.2431373
0.2588235 0.2588235 0.2588235
0.2784314 0.2784314 0.2784314
0.2901961 0.2901961 0.2901961
0.3098039 0.3098039 0.3098039
0.3294118 0.3294118 0.3294118
0.3411765 0.3411765 0.3411765
0.3607843 0.3607843 0.3607843
0.3725490 0.3725490 0.3725490
0.3921569 0.3921569 0.3921569
0.4117647 0.4117647 0.4117647
0.4235294 0.4235294 0.4235294
0.4431373 0.4431373 0.4431373
0.4627451 0.4627451 0.4627451
0.4745098 0.4745098 0.4745098
0.4941176 0.4941176 0.4941176
0.5137255 0.5137255 0.5137255
0.5254902 0.5254902 0.5254902
0.5450981 0.5450981 0.5450981
0.5647059 0.5647059 0.5647059
0.5764706 0.5764706 0.5764706
0.5960785 0.5960785 0.5960785
0.0784314 0.0784314 0.0784314
0.0901961 0.0901961 0.0901961
0.1098039 0.1098039 0.1098039
0.1294118 0.1294118 0.1294118
0.1411765 0.1411765 0.1411765
0.1607843 0.1607843 0.1607843
0.1803922 0.1803922 0.1803922
0.1921569 0.1921569 0.1921569
0.2117647 0.2117647 0.2117647
0.2274510 0.2274510 0.2274510
0.2431373 0.2431373 0.2431373
0.2588235 0.2588235 0.2588235
0.2784314 0.2784314 0.2784314
0.2901961 0.2901961 0.2901961
0.3098039 0.3098039 0.3098039
0.3294118 0.3294118 0.3294118
0.3411765 0.3411765 0.3411765
0.3607843 0.3607843 0.3607843
0.3725490 0.3725490 0.3725490
0.3921569 0.3921569 0.3921569
0.4117647 0.4117647 0.4117647
0.4235294 0.4235294 0.4235294
0.4431373 0.4431373 0.4431373
0.4627451 0.4627451 0.4627451
0.4745098 0.4745098 0.4745098
0.4941176 0.4941176 0.4941176
0.5137255 0.5137255 0.5137255
0.5254902 0.5254902 0.5254902
0.5450981 0.5450981 0.5450981
0.5647059 0.5647059 0.5647059
0.5764706 0.5764706 0.5764706
0.5960785 0.5960785 0.5960785
0.6117647 0.6117647 0.6117647
0.0901961 0.0901961 0.0901961
0.1098039 0.1098039 0.1098039
0.1294118 0.1294118 0.1294118
0.1411765 0.1411765 0.1411765
