rust/film_profiles/astia_inspired/lut.cube
TITLE "Astia Inspired"
LUT_3D_SIZE 5
DOMAIN_MIN 0.0 0.0 0.0
DOMAIN_MAX 1.0 1.0 1.0
0.0277981 0.0248747 0.0257345
0.2831475 0.0322424 0.0311907
0.5300974 0.0396536 0.0366676
0.7721912 0.0471158 0.0421539
0.9716295 0.0525608 0.0461367
0.0309498 0.2684333 0.0250033
0.2680600 0.2657657 0.0273603
0.5259498 0.2996128 0.0635858
0.7704713 0.3148469 0.0760943
0.9716295 0.3146628 0.0798990
0.0350111 0.5064346 0.0241518
0.2587877 0.5031705 0.0239313
0.5024815 0.5014948 0.0287879
0.7577111 0.5364333 0.0713061
0.9716295 0.5503315 0.0964942
0.0399834 0.7391740 0.0239313
0.2524928 0.7359738 0.0239313
0.4930232 0.7327400 0.0239313
0.7320547 0.7319845 0.0300152
0.9716295 0.7513888 0.0679976
0.0451525 0.9716295 0.0239313
0.2464811 0.9716295 0.0239313
0.4874744 0.9716295 0.0239313
0.7227709 0.9716295 0.0239313
0.9716295 0.9716295 0.0312083
0.0276459 0.0264537 0.2768197
0.2784925 0.0255788 0.2713335
0.5284883 0.0447788 0.2790292
0.7696536 0.0481283 0.2793283
0.9716295 0.0479252 0.2744116
0.0267956 0.2669510 0.2643748
0.2668189 0.2632253 0.2609852
0.5148482 0.2675005 0.2622593
0.7569345 0.2717761 0.2634884
0.9716295 0.2730229 0.2621103
0.0268266 0.5031657 0.2487492
0.2402004 0.4999270 0.2304394
0.5005081 0.4982634 0.2460229
0.7578881 0.5361328 0.2840792
0.9716295 0.5393497 0.2867758
0.0277533 0.7358876 0.2311942
0.2160099 0.7326964 0.2013912
0.4865423 0.7295076 0.2192406
0.7300953 0.7287632 0.2316876
0.9716295 0.7501554 0.2657397
0.0293532 0.9716295 0.2147936
0.1936562 0.9716295 0.1739379
0.4685134 0.9716295 0.1895179
0.7194775 0.9716295 0.2090484
0.9716295 0.9716295 0.2169758
0.0275050 0.0280352 0.5237011
0.2751871 0.0247399 0.5172990
0.5212215 0.0263359 0.5130823
0.7670817 0.0498520 0.5203090
0.9716295 0.0623171 0.5211210
0.0267495 0.2721934 0.5151908
0.2557450 0.2533399 0.5078025
0.5090546 0.2556883 0.5017464
0.7560872 0.2740851 0.5112548
0.9716295 0.2722153 0.5074083
0.0268839 0.5036390 0.4994995
0.2436051 0.4994533 0.4954185
0.5002949 0.4966731 0.4928563
0.7425296 0.5009580 0.4940645
0.9716295 0.5010220 0.4913396
0.0278867 0.7326233 0.4855303
0.2276240 0.7294741 0.4745317
0.4742255 0.7262659 0.4614859
0.7283106 0.7255313 0.4773304
0.9716295 0.7489880 0.5055946
0.0295944 0.9716295 0.4696359
0.1992060 0.9716295 0.4452160
0.4527815 0.9716295 0.4342443
0.7149986 0.9716295 0.4514196
0.9716295 0.9716295 0.4620636
0.0273755 0.0296203 0.7667398
0.2720180 0.0247229 0.7592838
0.5178935 0.0246912 0.7545022
0.7586141 0.0271462 0.7503806
0.9716295 0.0453402 0.7496201
0.0267237 0.2711954 0.7587451
0.2454408 0.2442277 0.7505931
0.5059000 0.2512663 0.7430640
0.7466746 0.2496827 0.7389468
0.9716295 0.2660276 0.7400340
0.0269753 0.5117705 0.7469773
0.2128111 0.4893955 0.7430580
0.4889704 0.4864176 0.7338874
0.7352437 0.4881317 0.7270243
0.9716295 0.5023209 0.7306240
0.0280625 0.7350219 0.7295048
0.2221064 0.7309126 0.7253200
0.4785292 0.7267370 0.7212342
0.7290496 0.7248079 0.7193355
0.9716295 0.7238289 0.7152864
0.0298437 0.9716295 0.7154812
0.2204826 0.9716295 0.7096809
0.4641730 0.9716295 0.7001262
0.7027829 0.9716295 0.6867847
0.9716295 0.9716295 0.7005783
0.0272873 0.0307913 0.9716295
0.2683250 0.0247122 0.9716295
0.5149995 0.0246879 0.9716295
0.7550812 0.0246938 0.9716295
0.9716295 0.0275056 0.9716295
0.0267122 0.2671575 0.9716295
0.2356503 0.2353018 0.9716295
0.5031320 0.2478737 0.9716295
0.7433165 0.2444406 0.9716295
0.9716295 0.2432448 0.9713567
0.0270278 0.5085298 0.9714167
0.1968168 0.4721614 0.9713456
0.4782992 0.4766172 0.9708065
0.7319695 0.4837243 0.9702640
0.9716295 0.4819371 0.9698391
0.0282328 0.7381574 0.9699233
0.1865238 0.7203225 0.9697388
0.4477070 0.7123148 0.9692683
0.7148009 0.7115117 0.9686987
0.9716295 0.7142793 0.9681554
0.0300748 0.9716295 0.9600927
0.2015119 0.9716295 0.9612088
0.4578738 0.9716295 0.9629133
0.7053401 0.9716295 0.9646136
0.9716295 0.9716295 0.9663100
