rust/film_profiles/astia_inspired/lut.cube
TITLE "Astia Inspired"
LUT_3D_SIZE 33
DOMAIN_MIN 0.0 0.0 0.0
DOMAIN_MAX 1.0 1.0 1.0
0.0277981 0.0248747 0.0257345
0.0598094 0.0257947 0.0264144
0.0918378 0.0267144 0.0270952
0.1238867 0.0276343 0.0277766
0.1559143 0.0285547 0.0284586
0.1878830 0.0294757 0.0291411
0.2197614 0.0303972 0.0298240
0.2515234 0.0313194 0.0305072
0.2831475 0.0322424 0.0311907
0.3146170 0.0331660 0.0318746
0.3459195 0.0340905 0.0325587
0.3770467 0.0350157 0.0332430
0.4079952 0.0359417 0.0339276
0.4387659 0.0368685 0.0346124
0.4693645 0.0377961 0.0352973
0.4998026 0.0387244 0.0359824
0.5300974 0.0396536 0.0366676
0.5602724 0.0405836 0.0373531
0.5903593 0.0415144 0.0380386
0.6203984 0.0424459 0.0387242
0.6504405 0.0433783 0.0394100
0.6805495 0.0443115 0.0400958
0.7108054 0.0452455 0.0407818
0.7413095 0.0461803 0.0414678
0.7721912 0.0471158 0.0421539
0.8036212 0.0480522 0.0428401
0.8358303 0.0489893 0.0435263
0.8691521 0.0499273 0.0442126
0.9041125 0.0508660 0.0448989
0.9417000 0.0518055 0.0455853
0.9716295 0.0525608 0.0461367
0.9716295 0.0525608 0.0461367
0.9716295 0.0525608 0.0461367
0.0281423 0.0550956 0.0256498
0.0578221 0.0547505 0.0259484
0.0911576 0.0589737 0.0304243
0.1234901 0.0608679 0.0319656
0.1555510 0.0617157 0.0326986
0.1874989 0.0622522 0.0332613
0.2193419 0.0626719 0.0337792
0.2510648 0.0630409 0.0342861
0.2826497 0.0633859 0.0347921
0.3140808 0.0637188 0.0353006
0.3453471 0.0640494 0.0358165
0.3764443 0.0643950 0.0363542
0.4073674 0.0647542 0.0369101
0.4381164 0.0651243 0.0374800
0.4686962 0.0655034 0.0380610
0.4991175 0.0658900 0.0386507
0.5293966 0.0662830 0.0392478
0.5595569 0.0666813 0.0398508
0.5896295 0.0670842 0.0404587
0.6196541 0.0674912 0.0410708
0.6496811 0.0679018 0.0416866
0.6797734 0.0683155 0.0423053
0.7100111 0.0687321 0.0429268
0.7404940 0.0691512 0.0435505
0.7713509 0.0695727 0.0441763
0.8027503 0.0699963 0.0448039
0.8349214 0.0704218 0.0454330
0.8681928 0.0708491 0.0460635
0.9030831 0.0712780 0.0466952
0.9405576 0.0717086 0.0473281
0.9716295 0.0718731 0.0478371
0.9716295 0.0713279 0.0477860
0.9716295 0.0710665 0.0477616
0.0285008 0.0854986 0.0255632
0.0564765 0.0850526 0.0255407
0.0878802 0.0848083 0.0261593
0.1216024 0.0893367 0.0314122
0.1545929 0.0933017 0.0351360
0.1869774 0.0956725 0.0370869
0.2190235 0.0971152 0.0382314
0.2508501 0.0980958 0.0390434
0.2824911 0.0988267 0.0397024
0.3139537 0.0994138 0.0402861
0.3452371 0.0999134 0.0408309
0.3763388 0.1003579 0.0413553
0.4072583 0.1007664 0.0418693
0.4379984 0.1011507 0.0423782
0.4685656 0.1015185 0.0428851
0.4989718 0.1018750 0.0433918
0.5292342 0.1022234 0.0438991
0.5593765 0.1025662 0.0444077
0.5894300 0.1029050 0.0449177
0.6194348 0.1032413 0.0454297
0.6494429 0.1035832 0.0459510
0.6795180 0.1039339 0.0464843
0.7097393 0.1042925 0.0470280
0.7402064 0.1046581 0.0475808
0.7710471 0.1050301 0.0481414
0.8024296 0.1054078 0.0487090
0.8345816 0.1057908 0.0492827
0.8678305 0.1061785 0.0498619
0.9026908 0.1065706 0.0504461
0.9401203 0.1069667 0.0510344
0.9716295 0.1069301 0.0514908
0.9716295 0.1062050 0.0514080
0.9716295 0.1059339 0.0513771
0.0288735 0.1160096 0.0254746
0.0554101 0.1155680 0.0254530
0.0863359 0.1151144 0.0254274
0.1179825 0.1149766 0.0263672
0.1518246 0.1193804 0.0316746
0.1851097 0.1240454 0.0364932
0.2178461 0.1277539 0.0398608
0.2500911 0.1303411 0.0420126
0.2819805 0.1321547 0.0434546
0.3135988 0.1334951 0.0445175
0.3449834 0.1345339 0.0453657
0.3761533 0.1353738 0.0460864
0.4071198 0.1360782 0.0467287
0.4378928 0.1366882 0.0473217
0.4684837 0.1372306 0.0478829
0.4989072 0.1377239 0.0484236
0.5291823 0.1381809 0.0489509
0.5593341 0.1386106 0.0494695
0.5893949 0.1390197 0.0499825
0.6194050 0.1394130 0.0504922
0.6494154 0.1397940 0.0510001
0.6794894 0.1401655 0.0515069
0.7097068 0.1405297 0.0520136
0.7401673 0.1408881 0.0525206
0.7709993 0.1412419 0.0530280
0.8023705 0.1415921 0.0535364
0.8345089 0.1419396 0.0540457
0.8677412 0.1422849 0.0545559
0.9025808 0.1426285 0.0550670
0.9399825 0.1429731 0.0555818
0.9716295 0.1427145 0.0559495
0.9716295 0.1416863 0.0558113
0.9716295 0.1414069 0.0557739
0.0292603 0.1465656 0.0253841
0.0543127 0.1461292 0.0253634
0.0852352 0.1456767 0.0253372
0.1163377 0.1452246 0.0253109
0.1480945 0.1451940 0.0265719
0.1819766 0.1494760 0.0318042
0.2153406 0.1542874 0.0371092
0.2482551 0.1586806 0.0413982
0.2806892 0.1622480 0.0445951
0.3126833 0.1649560 0.0468662
0.3443202 0.1670112 0.0485180
0.3756652 0.1686196 0.0497892
0.4067567 0.1699149 0.0508178
0.4376209 0.1709862 0.0516867
0.4682796 0.1718935 0.0524479
0.4987542 0.1726792 0.0531349
0.5290684 0.1733728 0.0537698
0.5592508 0.1739962 0.0543679
0.5893354 0.1745649 0.0549395
0.6193648 0.1750908 0.0554920
0.6493906 0.1755829 0.0560307
0.6794773 0.1760480 0.0565593
0.7097052 0.1764914 0.0570806
0.7401747 0.1769172 0.0575966
0.7710145 0.1773287 0.0581090
0.8023931 0.1777284 0.0586188
0.8345382 0.1781186 0.0591269
0.8677771 0.1785009 0.0596340
0.9026241 0.1788765 0.0601405
0.9400343 0.1792468 0.0606468
0.9716295 0.1788151 0.0609710
0.9716295 0.1773798 0.0607691
0.9716295 0.1770972 0.0607294
0.0296614 0.1771196 0.0252918
0.0531916 0.1766887 0.0252719
0.0842072 0.1762380 0.0252452
0.1151294 0.1757878 0.0252185
0.1464102 0.1753379 0.0251912
0.1781838 0.1754145 0.0267736
0.2120667 0.1796148 0.0319105
0.2453991 0.1843802 0.0374285
0.2783628 0.1890802 0.0422791
0.3108847 0.1932462 0.0462381
0.3429699 0.1967233 0.0493363
0.3746492 0.1995057 0.0516867
0.4059826 0.2017269 0.0534921
0.4370259 0.2035359 0.0549313
0.4678197 0.2050377 0.0561185
0.4983980 0.2063070 0.0571282
0.5287930 0.2073980 0.0580105
0.5590391 0.2083505 0.0588000
0.5891743 0.2091941 0.0595208
0.6192448 0.2099514 0.0601903
0.6493040 0.2106393 0.0608210
0.6794185 0.2112713 0.0614221
0.7096694 0.2118577 0.0620006
0.7401586 0.2124067 0.0625617
0.7710155 0.2129247 0.0631093
0.8024092 0.2134170 0.0636465
0.8345683 0.2138880 0.0641757
0.8678207 0.2143409 0.0646985
0.9026817 0.2147787 0.0652165
0.9401082 0.2152037 0.0657309
0.9716295 0.2146330 0.0660331
0.9716295 0.2126895 0.0657577
0.9716295 0.2124065 0.0657177
0.0300767 0.2076344 0.0251975
0.0520599 0.2072095 0.0251786
0.0831775 0.2067611 0.0251513
0.1140886 0.2063132 0.0251241
0.1450930 0.2058656 0.0250966
0.1764974 0.2054183 0.0250685
0.2082228 0.2056018 0.0269723
0.2420805 0.2097551 0.0320187
0.2753184 0.2144065 0.0376186
0.3082486 0.2192191 0.0428136
0.3407777 0.2237259 0.0473065
0.3728909 0.2277209 0.0510482
0.4046038 0.2311327 0.0540827
0.4359453 0.2339628 0.0564897
0.4669661 0.2363027 0.0584118
0.4977199 0.2382645 0.0599873
0.5282526 0.2399317 0.0613108
0.5586081 0.2413674 0.0624481
0.5888316 0.2426187 0.0634458
0.6189733 0.2437224 0.0643374
0.6490914 0.2447063 0.0651476
0.6792544 0.2455927 0.0658946
0.7095461 0.2463988 0.0665922
0.7400700 0.2471384 0.0672508
0.7709565 0.2478227 0.0678785
0.8023762 0.2484607 0.0684816
0.8345585 0.2490595 0.0690649
0.8678327 0.2496252 0.0696323
0.9027146 0.2501628 0.0701870
0.9401640 0.2506765 0.0707312
0.9716295 0.2500063 0.0710320
0.9716295 0.2474593 0.0706737
0.9716295 0.2471767 0.0706339
0.0305062 0.2380805 0.0251014
0.0509261 0.2376616 0.0250836
0.0821361 0.2372159 0.0250556
0.1130929 0.2367706 0.0250278
0.1440050 0.2363257 0.0249999
0.1750864 0.2358811 0.0249716
0.2065572 0.2354420 0.0249582
0.2381881 0.2357269 0.0271678
0.2720010 0.2398590 0.0321341
0.3051058 0.2443754 0.0377497
0.3379487 0.2491981 0.0431557
0.3704287 0.2538872 0.0480239
0.4025194 0.2582158 0.0522533
0.4342279 0.2620788 0.0558428
0.4655764 0.2654391 0.0588329
0.4965976 0.2683000 0.0612825
0.5273412 0.2707269 0.0632960
0.5578653 0.2728067 0.0649833
0.5882246 0.2746074 0.0664237
0.6184773 0.2761820 0.0676748
0.6486866 0.2775717 0.0687792
0.6789255 0.2788092 0.0697685
0.7092808 0.2799209 0.0706669
0.7398584 0.2809275 0.0714928
0.7707912 0.2818460 0.0722605
0.8022506 0.2826901 0.0729811
0.8344676 0.2834713 0.0736634
0.8677732 0.2841987 0.0743144
0.9026844 0.2848803 0.0749398
0.9401622 0.2855222 0.0755440
0.9716295 0.2848089 0.0758736
0.9716295 0.2815737 0.0754290
0.9716295 0.2812927 0.0753903
0.0309498 0.2684333 0.0250033
0.0497954 0.2680207 0.0249867
0.0810857 0.2675779 0.0249581
0.1121059 0.2671357 0.0249297
0.1430063 0.2666937 0.0249013
0.1739409 0.2662521 0.0248726
0.2050705 0.2658110 0.0248435
0.2365533 0.2654057 0.0249224
0.2680600 0.2657657 0.0273603
0.3018125 0.2698956 0.0322568
0.3347598 0.2742748 0.0378543
0.3674801 0.2790526 0.0433870
0.3998730 0.2838253 0.0485198
0.4319062 0.2883620 0.0531193
0.4635814 0.2925387 0.0571511
0.4949187 0.2962959 0.0606284
0.5259498 0.2996128 0.0635858
0.5567144 0.3024932 0.0660686
0.5872690 0.3049849 0.0681556
0.6176813 0.3071573 0.0699359
0.6480222 0.3090665 0.0714769
0.6783707 0.3107572 0.0728289
0.7088177 0.3122656 0.0740305
0.7394728 0.3136207 0.0751112
0.7704713 0.3148469 0.0760943
0.8019873 0.3159634 0.0769978
0.8342535 0.3169867 0.0778360
0.8676018 0.3179297 0.0786203
0.9025505 0.3188039 0.0793599
0.9400622 0.3196186 0.0800624
0.9716295 0.3189386 0.0804619
0.9716295 0.3149411 0.0799358
0.9716295 0.3146628 0.0798990
0.0314077 0.2986735 0.0249034
0.0486710 0.2982670 0.0248880
0.0800304 0.2978276 0.0248588
0.1111175 0.2973885 0.0248298
0.1420428 0.2969497 0.0248008
0.1729197 0.2965114 0.0247717
0.2038679 0.2960735 0.0247422
0.2350123 0.2956359 0.0247124
0.2664599 0.2952832 0.0249410
0.2978226 0.2956989 0.0275496
0.3315028 0.2998404 0.0323855
0.3642771 0.3040881 0.0379475
0.3968527 0.3087919 0.0435528
0.4291341 0.3135859 0.0488720
0.4610875 0.3182447 0.0537529
0.4927125 0.3226351 0.0581374
0.5240290 0.3266832 0.0620168
0.5550699 0.3303528 0.0654080
0.5858786 0.3336318 0.0683406
0.6165084 0.3365237 0.0708500
0.6470290 0.3390643 0.0729973
0.6775273 0.3413101 0.0748560
0.7080998 0.3433079 0.0764838
0.7388606 0.3450961 0.0779253
0.7699487 0.3467062 0.0792150
0.8015411 0.3481646 0.0803806
0.8338726 0.3494927 0.0814438
0.8672767 0.3507088 0.0824219
0.9022726 0.3518280 0.0833291
0.9398222 0.3528633 0.0841770
0.9716295 0.3523148 0.0846984
0.9716295 0.3474925 0.0841058
0.9716295 0.3472173 0.0840717
0.0318799 0.3287856 0.0248016
0.0475548 0.3283854 0.0247874
0.0789739 0.3279494 0.0247577
0.1101258 0.3275138 0.0247281
0.1410927 0.3270785 0.0246985
0.1719590 0.3266435 0.0246689
0.2028154 0.3262090 0.0246390
0.2337576 0.3257748 0.0246089
0.2648849 0.3253410 0.0245782
0.2962582 0.3250529 0.0249947
0.3274633 0.3255112 0.0277359
0.3610626 0.3296750 0.0325189
0.3936554 0.3337995 0.0380369
0.4260741 0.3384147 0.0436793
0.4582307 0.3431908 0.0491291
0.4900930 0.3479125 0.0542243
0.5216616 0.3524437 0.0588903
0.5529575 0.3567019 0.0631014
0.5840175 0.3606401 0.0668601
0.6148905 0.3642355 0.0701835
0.6456370 0.3674802 0.0730964
0.6763315 0.3703779 0.0756275
0.7070689 0.3729559 0.0778250
0.7379684 0.3752603 0.0797508
0.7691740 0.3773314 0.0814543
0.8008656 0.3792018 0.0829753
0.8332812 0.3808996 0.0843448
0.8667557 0.3824479 0.0855885
0.9018095 0.3838668 0.0867265
0.9394009 0.3851726 0.0877757
0.9716295 0.3848787 0.0884828
0.9716295 0.3791787 0.0878507
0.9716295 0.3789071 0.0878202
0.0323662 0.3587586 0.0246979
0.0464483 0.3583647 0.0246851
0.0779192 0.3579322 0.0246548
0.1091317 0.3575001 0.0246246
0.1401470 0.3570683 0.0245945
0.1710285 0.3566369 0.0245643
0.2018449 0.3562059 0.0245340
0.2326710 0.3557752 0.0245034
0.2635846 0.3553450 0.0244724
0.2946668 0.3549151 0.0244410
0.3259346 0.3546998 0.0250722
0.3569728 0.3551918 0.0279190
0.3904862 0.3593856 0.0326556
0.4228947 0.3633961 0.0381261
0.4551521 0.3679165 0.0437821
0.4871800 0.3726500 0.0493221
0.5189501 0.3773937 0.0545806
0.5504658 0.3820127 0.0594715
0.5817523 0.3864197 0.0639567
0.6128514 0.3905606 0.0680264
0.6438197 0.3944042 0.0716872
0.6747286 0.3979353 0.0749556
0.7056664 0.4011491 0.0778524
0.7367421 0.4040486 0.0804017
0.7680965 0.4066552 0.0826418
0.7999138 0.4090073 0.0846251
0.8324349 0.4111391 0.0863952
0.8659966 0.4130796 0.0879870
0.9011194 0.4148532 0.0894289
0.9387558 0.4164807 0.0907442
0.9716295 0.4165910 0.0917125
0.9716295 0.4099694 0.0910821
0.9716295 0.4097019 0.0910561
0.0328667 0.3885855 0.0245923
0.0453525 0.3881975 0.0245809
0.0768688 0.3877687 0.0245501
0.1081369 0.3873402 0.0245193
0.1392030 0.3869120 0.0244886
0.1701134 0.3864842 0.0244579
0.2009210 0.3860568 0.0244271
0.2316840 0.3856297 0.0243961
0.2624644 0.3852029 0.0243648
0.2933276 0.3847767 0.0243331
0.3243414 0.3843509 0.0243009
0.3554792 0.3842139 0.0251660
0.3863453 0.3847327 0.0280991
0.4197717 0.3889632 0.0327947
0.4519981 0.3928688 0.0382168
0.4840971 0.3972934 0.0438705
0.5160005 0.4019692 0.0494715
0.5476863 0.4067069 0.0548539
0.5791631 0.4113750 0.0599248
0.6104619 0.4158844 0.0646365
0.6416320 0.4201763 0.0689695
0.6727405 0.4242137 0.0729217
0.7038726 0.4279752 0.0765018
0.7351362 0.4314502 0.0797246
0.7666664 0.4346359 0.0826083
0.7986382 0.4375347 0.0851726
0.8312887 0.4401636 0.0874492
0.8649562 0.4425548 0.0894827
0.9001602 0.4447382 0.0913115
0.9378448 0.4467388 0.0929667
0.9716295 0.4474317 0.0942831
0.9716295 0.4398518 0.0937118
0.9716295 0.4395887 0.0936911
0.0333815 0.4182630 0.0244849
0.0442680 0.4178810 0.0244750
0.0758244 0.4174558 0.0244435
0.1071436 0.4170309 0.0244122
0.1382597 0.4166063 0.0243810
0.1692065 0.4161820 0.0243497
0.2000240 0.4157582 0.0243184
0.2307579 0.4153347 0.0242869
0.2614576 0.4149116 0.0242552
0.2921762 0.4144889 0.0242232
0.3229695 0.4140666 0.0241908
0.3538959 0.4136449 0.0241581
0.3848860 0.4135902 0.0252713
0.4155788 0.4141309 0.0282760
0.4489209 0.4184033 0.0329352
0.4809729 0.4222129 0.0383097
0.5129229 0.4265433 0.0439506
0.5447144 0.4311530 0.0495907
0.5763332 0.4358658 0.0550669
0.6077951 0.4405551 0.0602817
0.6391391 0.4451319 0.0651807
0.6704255 0.4495346 0.0697367
0.7017347 0.4537224 0.0739405
0.7331715 0.4576689 0.0777940
0.7648689 0.4613588 0.0813063
0.7970005 0.4647850 0.0844908
0.8297983 0.4679453 0.0873632
0.8635914 0.4708423 0.0899405
0.8988902 0.4734891 0.0922487
0.9366263 0.4759133 0.0943262
0.9716295 0.4773979 0.0960881
0.9716295 0.4688284 0.0956515
0.9716295 0.4685697 0.0956373
0.0339105 0.4477924 0.0243757
0.0431952 0.4474160 0.0243672
0.0747875 0.4469944 0.0243353
0.1061532 0.4465731 0.0243034
0.1373177 0.4461521 0.0242716
0.1683046 0.4457314 0.0242398
0.1991436 0.4453111 0.0242080
0.2298702 0.4448911 0.0241760
0.2605241 0.4444715 0.0241439
0.2911486 0.4440523 0.0241115
0.3217900 0.4436334 0.0240788
0.3524972 0.4432152 0.0240457
0.3833208 0.4428072 0.0240429
0.4141527 0.4428277 0.0253847
0.4446748 0.4433866 0.0284498
0.4779401 0.4477057 0.0330763
0.5098304 0.4514278 0.0384048
0.5416474 0.4556678 0.0440258
0.5733477 0.4602076 0.0496891
0.6049262 0.4648830 0.0552353
0.6364082 0.4695736 0.0605652
0.6678438 0.4741916 0.0656192
0.6993073 0.4786743 0.0703644
0.7308977 0.4829780 0.0747854
0.7627451 0.4870727 0.0788784
0.7950203 0.4909398 0.0826478
0.8279531 0.4945678 0.0861023
0.8618685 0.4979515 0.0892541
0.8972687 0.5010898 0.0921169
0.9350592 0.5039847 0.0947053
0.9716295 0.5065038 0.0970191
0.9716295 0.4969159 0.0968131
0.9716295 0.4966617 0.0968063
0.0344537 0.4771794 0.0242646
0.0421348 0.4768084 0.0242578
0.0737590 0.4763902 0.0242253
0.1051676 0.4759724 0.0241928
0.1363782 0.4755547 0.0241605
0.1674064 0.4751375 0.0241282
0.1982737 0.4747206 0.0240959
0.2290075 0.4743040 0.0240635
0.2596394 0.4738878 0.0240309
0.2902046 0.4734720 0.0239982
0.3207421 0.4730565 0.0239652
0.3512930 0.4726416 0.0239321
0.3819018 0.4722271 0.0239313
0.4126104 0.4718468 0.0239692
0.4432807 0.4719305 0.0255037
0.4736392 0.4725048 0.0286204
0.5068397 0.4768752 0.0332176
0.5385866 0.4805178 0.0385019
0.5702946 0.4846725 0.0440986
0.6019326 0.4891412 0.0497729
0.6335078 0.4937721 0.0553707
0.6650574 0.4984503 0.0607923
0.6966460 0.5030906 0.0659747
0.7283664 0.5076296 0.0708804
0.7603433 0.5120223 0.0754889
0.7927431 0.5162362 0.0797921
0.8257915 0.5202495 0.0837895
0.8598088 0.5240477 0.0874862
0.8952884 0.5276226 0.0908910
0.9331135 0.5309703 0.0940144
0.9716295 0.5340902 0.0968687
0.9716295 0.5241440 0.0971090
0.9716295 0.5238942 0.0971105
0.0350111 0.5064346 0.0241518
0.0410867 0.5060685 0.0241466
0.0727401 0.5056536 0.0241136
0.1041877 0.5052390 0.0240807
0.1354420 0.5048246 0.0240478
0.1665115 0.5044106 0.0240151
0.1974111 0.5039969 0.0239823
0.2281615 0.5035836 0.0239495
0.2587877 0.5031705 0.0239313
0.2893185 0.5027579 0.0239313
0.3197862 0.5023457 0.0239313
0.3502259 0.5019338 0.0239313
0.3806763 0.5015225 0.0239313
0.4111784 0.5011117 0.0239313
0.4417639 0.5007699 0.0239313
0.4722756 0.5009072 0.0256267
0.5024815 0.5014948 0.0287879
0.5356356 0.5059211 0.0333585
0.5672640 0.5094920 0.0386009
0.5988938 0.5135672 0.0441702
0.6305087 0.5179667 0.0498466
0.6621293 0.5225492 0.0554814
0.6938084 0.5272063 0.0609758
0.7256298 0.5318553 0.0662643
0.7577111 0.5364333 0.0713061
0.7902134 0.5408945 0.0760769
0.8233563 0.5452045 0.0805643
0.8574541 0.5493393 0.0847642
0.8929883 0.5532821 0.0886781
0.9308149 0.5570220 0.0923117
0.9716295 0.5605527 0.0956729
0.9716295 0.5505778 0.0964842
0.9716295 0.5503315 0.0964942
0.0355828 0.5355736 0.0240374
0.0400514 0.5352122 0.0240338
0.0717312 0.5348002 0.0240004
0.1032149 0.5343885 0.0239670
0.1345103 0.5339772 0.0239339
0.1656204 0.5335660 0.0239313
0.1965547 0.5331554 0.0239313
0.2273276 0.5327449 0.0239313
0.2579593 0.5323348 0.0239313
0.2884730 0.5319252 0.0239313
0.3188958 0.5315158 0.0239313
0.3492576 0.5311071 0.0239313
0.3795917 0.5306986 0.0239313
0.4099346 0.5302907 0.0239313
0.4403260 0.5298833 0.0239313
0.4707858 0.5295882 0.0239313
0.5011472 0.5297717 0.0257522
0.5312173 0.5303711 0.0289523
0.5643490 0.5348582 0.0334986
0.5958912 0.5383651 0.0387013
0.6274828 0.5423677 0.0442415
0.6591242 0.5467012 0.0499132
0.6908530 0.5512348 0.0555737
0.7227414 0.5558658 0.0611252
0.7548987 0.5605146 0.0665015
0.7874780 0.5651196 0.0716587
0.8206921 0.5696340 0.0765698
0.8548468 0.5740227 0.0812188
0.8904107 0.5782600 0.0855985
0.9282085 0.5823270 0.0897072
0.9702349 0.5862110 0.0935478
0.9716295 0.5763707 0.0950004
0.9716295 0.5761266 0.0950184
0.0361687 0.5646185 0.0239313
0.0390288 0.5642611 0.0239313
0.0707330 0.5638518 0.0239313
0.1022499 0.5634428 0.0239313
0.1335839 0.5630341 0.0239313
0.1647336 0.5626254 0.0239313
0.1957032 0.5622174 0.0239313
0.2265030 0.5618095 0.0239313
0.2571481 0.5614021 0.0239313
0.2876573 0.5609949 0.0239313
0.3180532 0.5605882 0.0239313
0.3483614 0.5601820 0.0239313
0.3786111 0.5597761 0.0239313
0.4088343 0.5593708 0.0239313
0.4390668 0.5589659 0.0239313
0.4693485 0.5585614 0.0239313
0.4996851 0.5583200 0.0239313
0.5299106 0.5585437 0.0258792
0.5598666 0.5591539 0.0291136
0.5930083 0.5637074 0.0336377
0.6245042 0.5671581 0.0388029
0.6561081 0.5710950 0.0443130
0.6878393 0.5753677 0.0499748
0.7197557 0.5798542 0.0556517
0.7519557 0.5844576 0.0612478
0.7845833 0.5891013 0.0666963
0.8178431 0.5937251 0.0719516
0.8520304 0.5982824 0.0769841
0.8875986 0.6027375 0.0817750
0.9253390 0.6070631 0.0863142
0.9671035 0.6112392 0.0905977
0.9716295 0.6016850 0.0927452
0.9716295 0.6014417 0.0927704
0.0367688 0.5935977 0.0239313
0.0380192 0.5932440 0.0239313
0.0697460 0.5928367 0.0239313
0.1012934 0.5924299 0.0239313
0.1326641 0.5920233 0.0239313
0.1638516 0.5916169 0.0239313
0.1948569 0.5912110 0.0239313
0.2256859 0.5908053 0.0239313
0.2563499 0.5904000 0.0239313
0.2868636 0.5899951 0.0239313
0.3172461 0.5895904 0.0239313
0.3475192 0.5891864 0.0239313
0.3777083 0.5887827 0.0239313
0.4078420 0.5883794 0.0239313
0.4379526 0.5879765 0.0239313
0.4680762 0.5875743 0.0239313
0.4982537 0.5871725 0.0239313
0.5284756 0.5869899 0.0239313
0.5585859 0.5872495 0.0260070
0.5884565 0.5878694 0.0292717
0.6216487 0.5924960 0.0337753
0.6531488 0.5958986 0.0389051
0.6848282 0.5997781 0.0443848
0.7167280 0.6039962 0.0500330
0.7489336 0.6084396 0.0557191
0.7815775 0.6130165 0.0613493
0.8148544 0.6176536 0.0668570
0.8490480 0.6222924 0.0721955
0.8845952 0.6268865 0.0773328
0.9222513 0.6313998 0.0822484
0.9637309 0.6358042 0.0869295
0.9716295 0.6266735 0.0898062
0.9716295 0.6264295 0.0898381
0.0373832 0.6225483 0.0239313
0.0373757 0.6221976 0.0239313
0.0687705 0.6217918 0.0239313
0.1003464 0.6213864 0.0239313
0.1317511 0.6209815 0.0239313
0.1629753 0.6205767 0.0239313
0.1940160 0.6201723 0.0239313
0.2248758 0.6197681 0.0239313
0.2555622 0.6193644 0.0239313
0.2860870 0.6189612 0.0239313
0.3164660 0.6185581 0.0239313
0.3467179 0.6181556 0.0239313
0.3768646 0.6177534 0.0239313
0.4069322 0.6173518 0.0239313
0.4369494 0.6169506 0.0239313
0.4669497 0.6165499 0.0239313
0.4969704 0.6161497 0.0239313
0.5270550 0.6157522 0.0239313
0.5571774 0.6156308 0.0239616
0.5871997 0.6159222 0.0261349
0.6170210 0.6165521 0.0294267
0.6503148 0.6212596 0.0339113
0.6818814 0.6246222 0.0390077
0.7137148 0.6284531 0.0444570
0.7458839 0.6326245 0.0500888
0.7785087 0.6370308 0.0557783
0.8117713 0.6415851 0.0614341
0.8459434 0.6462173 0.0669901
0.8814432 0.6508706 0.0723988
0.9189899 0.6554992 0.0776270
0.9601671 0.6600669 0.0826519
0.9716295 0.6518804 0.0862103
0.9716295 0.6512349 0.0863095
0.0380119 0.6515160 0.0239313
0.0380043 0.6511683 0.0239313
0.0678067 0.6507624 0.0239313
0.0994092 0.6503580 0.0239313
0.1308461 0.6499538 0.0239313
0.1621054 0.6495500 0.0239313
0.1931807 0.6491464 0.0239313
0.2240717 0.6487432 0.0239313
0.2547832 0.6483404 0.0239313
0.2853241 0.6479379 0.0239313
0.3157070 0.6475359 0.0239313
0.3459481 0.6471341 0.0239313
0.3760668 0.6467329 0.0239313
0.4060862 0.6463321 0.0239313
0.4360325 0.6459318 0.0239313
0.4659365 0.6455320 0.0239313
0.4958331 0.6451327 0.0239313
0.5257626 0.6447338 0.0239313
0.5557699 0.6443503 0.0239313
0.5858164 0.6442840 0.0240023
0.6157860 0.6446046 0.0262625
0.6456028 0.6452446 0.0295785
0.6790627 0.6500426 0.0340455
0.7107731 0.6533742 0.0391103
0.7428590 0.6571660 0.0445297
0.7754251 0.6613000 0.0501431
0.8086401 0.6656772 0.0558312
0.8427604 0.6702157 0.0615055
0.8781861 0.6748478 0.0671005
0.9155989 0.6795186 0.0725686
0.9564602 0.6841834 0.0778752
0.9716295 0.6775274 0.0820089
0.9716295 0.6759968 0.0822728
0.0386548 0.6805585 0.0239313
0.0386471 0.6802132 0.0239313
0.0668552 0.6798062 0.0239313
0.0984823 0.6794017 0.0239313
0.1299495 0.6789975 0.0239313
0.1612424 0.6785936 0.0239313
0.1923515 0.6781902 0.0239313
0.2232741 0.6777869 0.0239313
0.2540123 0.6773841 0.0239313
0.2845728 0.6769817 0.0239313
0.3149651 0.6765797 0.0239313
0.3452035 0.6761781 0.0239313
0.3753051 0.6757770 0.0239313
0.4052902 0.6753761 0.0239313
0.4351834 0.6749759 0.0239313
0.4650126 0.6745761 0.0239313
0.4948106 0.6741768 0.0239313
0.5246153 0.6737781 0.0239313
0.5544707 0.6733800 0.0239313
0.5844234 0.6730187 0.0239313
0.6144260 0.6730018 0.0240512
0.6443874 0.6733496 0.0263893
0.6742554 0.6740003 0.0297272
0.7079615 0.6789009 0.0341778
0.7399125 0.6822113 0.0392128
0.7723764 0.6859752 0.0446026
0.8055065 0.6900827 0.0501961
0.8395435 0.6944411 0.0558792
0.8748667 0.6989726 0.0615661
0.9121214 0.7036129 0.0671924
0.9526558 0.7083082 0.0727103
0.9716295 0.7033704 0.0773466
0.9716295 0.7008511 0.0778163
0.0393119 0.7097477 0.0239313
0.0393041 0.7094038 0.0239313
0.0659158 0.7089943 0.0239313
0.0975659 0.7085888 0.0239313
0.1290621 0.7081835 0.0239313
0.1603868 0.7077786 0.0239313
0.1915288 0.7073740 0.0239313
0.2224830 0.7069697 0.0239313
0.2532489 0.7065659 0.0239313
0.2838311 0.7061625 0.0239313
0.3142374 0.7057593 0.0239313
0.3444793 0.7053567 0.0239313
0.3745721 0.7049545 0.0239313
0.4045344 0.7045528 0.0239313
0.4343883 0.7041515 0.0239313
0.4641599 0.7037508 0.0239313
0.4938799 0.7033505 0.0239313
0.5235842 0.7029508 0.0239313
0.5533145 0.7025518 0.0239313
0.5831200 0.7021532 0.0239313
0.6130475 0.7018216 0.0239313
0.6430482 0.7018495 0.0241065
0.6730567 0.7022232 0.0265150
0.7030449 0.7028859 0.0298727
0.7370982 0.7079037 0.0343080
0.7694125 0.7112044 0.0393149
0.8024173 0.7149529 0.0446758
0.8363365 0.7190471 0.0502483
0.8715277 0.7233996 0.0559233
0.9085998 0.7279366 0.0616179
0.9487972 0.7325965 0.0672689
0.9716295 0.7295648 0.0723187
0.9716295 0.7259348 0.0730284
0.0399834 0.7391740 0.0239313
0.0399755 0.7388304 0.0239313
0.0649890 0.7384169 0.0239313
0.0966609 0.7380089 0.0239313
0.1281841 0.7376012 0.0239313
