rust/film_profiles/astia_inspired/lut.cube
TITLE "Astia Inspired"
LUT_3D_SIZE 9
DOMAIN_MIN 0.0 0.0 0.0
DOMAIN_MAX 1.0 1.0 1.0
0.0277981 0.0248747 0.0257345
0.1559143 0.0285547 0.0284586
0.2831475 0.0322424 0.0311907
0.4079952 0.0359417 0.0339276
0.5300974 0.0396536 0.0366676
0.6504405 0.0433783 0.0394100
0.7721912 0.0471158 0.0421539
0.9041125 0.0508660 0.0448989
0.9716295 0.0525608 0.0461367
0.0292603 0.1465656 0.0253841
0.1480945 0.1451940 0.0265719
0.2806892 0.1622480 0.0445951
0.4067567 0.1699149 0.0508178
0.5290684 0.1733728 0.0537698
0.6493906 0.1755829 0.0560307
0.7710145 0.1773287 0.0581090
0.9026241 0.1788765 0.0601405
0.9716295 0.1770972 0.0607294
0.0309498 0.2684333 0.0250033
0.1430063 0.2666937 0.0249013
0.2680600 0.2657657 0.0273603
0.3998730 0.2838253 0.0485198
0.5259498 0.2996128 0.0635858
0.6480222 0.3090665 0.0714769
0.7704713 0.3148469 0.0760943
0.9025505 0.3188039 0.0793599
0.9716295 0.3146628 0.0798990
0.0328667 0.3885855 0.0245923
0.1392030 0.3869120 0.0244886
0.2624644 0.3852029 0.0243648
0.3863453 0.3847327 0.0280991
0.5160005 0.4019692 0.0494715
0.6416320 0.4201763 0.0689695
0.7666664 0.4346359 0.0826083
0.9001602 0.4447382 0.0913115
0.9716295 0.4395887 0.0936911
0.0350111 0.5064346 0.0241518
0.1354420 0.5048246 0.0240478
0.2587877 0.5031705 0.0239313
0.3806763 0.5015225 0.0239313
0.5024815 0.5014948 0.0287879
0.6305087 0.5179667 0.0498466
0.7577111 0.5364333 0.0713061
0.8929883 0.5532821 0.0886781
0.9716295 0.5503315 0.0964942
0.0373832 0.6225483 0.0239313
0.1317511 0.6209815 0.0239313
0.2555622 0.6193644 0.0239313
0.3768646 0.6177534 0.0239313
0.4969704 0.6161497 0.0239313
0.6170210 0.6165521 0.0294267
0.7458839 0.6326245 0.0500888
0.8814432 0.6508706 0.0723988
0.9716295 0.6512349 0.0863095
0.0399834 0.7391740 0.0239313
0.1281841 0.7376012 0.0239313
0.2524928 0.7359738 0.0239313
0.3738627 0.7343531 0.0239313
0.4930232 0.7327400 0.0239313
0.6117423 0.7311358 0.0239313
0.7320547 0.7319845 0.0300152
0.8682121 0.7482873 0.0502998
0.9716295 0.7513888 0.0679976
0.0428117 0.8621797 0.0239313
0.1247750 0.8604764 0.0239313
0.2495414 0.8587139 0.0239313
0.3711959 0.8569611 0.0239313
0.4901044 0.8552188 0.0239313
0.6076796 0.8534881 0.0239313
0.7269437 0.8517920 0.0239313
0.8529495 0.8531755 0.0305532
0.9716295 0.8603522 0.0472048
0.0451525 0.9716295 0.0239313
0.1213294 0.9716295 0.0239313
0.2464811 0.9716295 0.0239313
0.3684796 0.9716295 0.0239313
0.4874744 0.9716295 0.0239313
0.6046596 0.9716295 0.0239313
0.7227709 0.9716295 0.0239313
0.8477054 0.9716295 0.0239313
0.9716295 0.9716295 0.0312083
0.0277206 0.0256641 0.1506934
0.1535477 0.0252201 0.1479386
0.2822875 0.0347925 0.1518147
0.4067117 0.0364379 0.1519751
0.5280022 0.0363796 0.1502897
0.6476902 0.0368573 0.1485317
0.7689276 0.0382452 0.1471754
0.9000316 0.0401545 0.1461009
0.9716295 0.0411981 0.1441426
0.0271607 0.1458101 0.1444603
0.1474404 0.1439034 0.1427699
0.2749215 0.1460197 0.1434253
0.4000587 0.1481286 0.1440617
0.5224301 0.1502462 0.1446947
0.6429245 0.1523724 0.1453242
0.7645288 0.1545072 0.1459503
0.8954102 0.1566506 0.1465731
0.9716295 0.1563655 0.1452866
0.0268196 0.2667235 0.1366738
0.1335894 0.2649998 0.1275259
0.2669884 0.2640720 0.1353501
0.3999023 0.2836472 0.1545030
0.5234752 0.2921658 0.1594629
0.6439703 0.2961338 0.1605485
0.7654530 0.2988112 0.1608649
0.8962841 0.3010200 0.1609960
0.9716295 0.2978800 0.1584579
0.0266998 0.3869143 0.1279684
0.1207899 0.3852526 0.1131095
0.2590421 0.3835512 0.1220513
0.3852933 0.3830823 0.1283091
0.5161729 0.4024219 0.1495243
0.6412250 0.4191004 0.1640641
0.7648290 0.4295408 0.1710043
0.8967402 0.4361115 0.1741881
0.9716295 0.4304315 0.1716493
0.0268051 0.5048006 0.1194034
0.1081954 0.5031955 0.0986898
0.2483489 0.5015520 0.1064937
0.3788375 0.4999134 0.1165764
0.5014457 0.4998870 0.1212203
0.6303433 0.5178432 0.1419698
0.7576827 0.5365453 0.1606822
0.8922514 0.5518098 0.1735285
0.9716295 0.5472374 0.1753308
0.0271353 0.6209322 0.1109594
0.0958085 0.6193606 0.0842765
0.2369125 0.6177575 0.0913346
0.3708629 0.6161605 0.1020512
0.4955626 0.6145657 0.1096002
0.6159872 0.6149695 0.1140849
0.7454316 0.6320476 0.1341105
0.8813306 0.6509554 0.1544754
0.9716295 0.6504916 0.1639051
0.0276900 0.7375256 0.1025873
0.0836317 0.7359359 0.0698814
0.2254710 0.7343266 0.0766139
0.3612726 0.7327244 0.0864483
0.4892990 0.7311271 0.0969478
0.6104403 0.7295319 0.1017341
0.7309904 0.7303815 0.1069038
0.8674850 0.7473798 0.1262648
0.9716295 0.7505037 0.1413288
0.0284689 0.8603660 0.0942564
0.0716673 0.8586296 0.0555211
0.2141972 0.8568931 0.0622056
0.3510087 0.8551664 0.0709175
0.4815393 0.8534493 0.0819554
0.6051258 0.8517379 0.0909027
0.7256190 0.8500308 0.0933315
0.8517717 0.8514348 0.0996784
0.9716295 0.8587170 0.1147322
0.0292377 0.9716295 0.0869539
0.0611928 0.9716295 0.0432008
0.2043582 0.9716295 0.0499870
0.3416173 0.9716295 0.0576621
0.4736093 0.9716295 0.0683036
0.5992041 0.9716295 0.0785755
0.7209709 0.9716295 0.0851700
0.8463408 0.9716295 0.0856465
0.9716295 0.9716295 0.0927736
0.0276459 0.0264537 0.2768197
0.1518620 0.0247970 0.2735089
0.2784925 0.0255788 0.2713335
0.4054053 0.0372872 0.2750871
0.5284883 0.0447788 0.2790292
0.6486324 0.0473829 0.2800092
0.7696536 0.0481283 0.2793283
0.9002209 0.0482175 0.2778434
0.9716295 0.0479252 0.2744116
0.0271039 0.1484441 0.2724376
0.1418217 0.1389151 0.2686236
0.2718828 0.1400572 0.2655082
0.3995827 0.1492756 0.2704499
0.5213728 0.1493576 0.2706743
0.6408623 0.1475804 0.2690198
0.7615114 0.1460503 0.2671612
0.8913410 0.1454886 0.2657276
0.9716295 0.1442924 0.2631391
0.0267956 0.2669510 0.2643748
0.1352468 0.2647322 0.2622837
0.2668189 0.2632253 0.2609852
0.3922377 0.2653746 0.2616396
0.5148482 0.2675005 0.2622593
0.6354750 0.2696342 0.2628756
0.7569345 0.2717761 0.2634884
0.8868553 0.2739259 0.2640976
0.9716295 0.2730229 0.2621103
0.0267002 0.3852428 0.2572424
0.1265527 0.3835927 0.2515909
0.2525759 0.3818887 0.2449002
0.3843113 0.3814177 0.2531067
0.5170132 0.4031495 0.2746535
0.6385904 0.4112993 0.2793191
0.7597722 0.4148480 0.2799995
0.8895851 0.4172329 0.2800203
0.9716295 0.4122345 0.2754794
0.0268266 0.5031657 0.2487492
0.1107119 0.5015749 0.2357053
0.2402004 0.4999270 0.2304394
0.3764048 0.4982922 0.2393732
0.5005081 0.4982634 0.2460229
0.6313044 0.5191625 0.2690791
0.7578881 0.5361328 0.2840792
0.8902311 0.5463840 0.2909022
0.9716295 0.5393497 0.2867758
0.0271778 0.6193196 0.2399641
0.0954131 0.6177614 0.2189625
0.2280110 0.6161532 0.2159353
0.3662083 0.6145598 0.2237534
0.4940678 0.6129700 0.2338409
0.6150833 0.6133707 0.2388831
0.7459427 0.6326292 0.2610295
0.8822343 0.6520287 0.2804007
0.9716295 0.6493309 0.2843515
0.0277533 0.7358876 0.2311942
0.0807243 0.7343101 0.2021822
0.2160099 0.7326964 0.2013912
0.3552781 0.7310989 0.2084848
0.4865423 0.7295076 0.2192406
0.6091482 0.7279176 0.2267987
0.7300953 0.7287632 0.2316876
0.8676475 0.7473782 0.2528286
0.9716295 0.7501554 0.2657397
0.0285528 0.8585753 0.2224826
0.0665225 0.8568514 0.1854843
0.2041993 0.8551136 0.1868103
0.3443375 0.8533953 0.1936033
0.4774359 0.8516865 0.2035094
0.6032409 0.8499842 0.2140595
0.7243384 0.8482848 0.2188538
0.8508233 0.8496821 0.2244363
0.9716295 0.8571579 0.2396508
0.0293532 0.9716295 0.2147936
0.0543957 0.9716295 0.1712408
0.1936562 0.9716295 0.1739379
0.3345629 0.9716295 0.1806915
0.4685134 0.9716295 0.1895179
0.5964005 0.9716295 0.2004960
0.7194775 0.9716295 0.2090484
0.8450208 0.9716295 0.2107842
0.9716295 0.9716295 0.2169758
0.0275741 0.0272440 0.4013957
0.1502435 0.0247840 0.3977080
0.2767380 0.0247496 0.3953393
0.4011815 0.0259507 0.3932968
0.5253717 0.0377062 0.3962907
0.6474140 0.0483938 0.4012248
0.7697688 0.0548410 0.4046231
0.9012027 0.0579414 0.4059436
0.9716295 0.0584838 0.4018619
0.0270616 0.1479300 0.3974622
0.1365971 0.1343210 0.3934130
0.2702055 0.1378178 0.3896694
0.3948615 0.1369727 0.3876249
0.5200431 0.1479377 0.3920528
0.6417282 0.1543549 0.3962762
0.7630653 0.1555892 0.3974464
0.8928879 0.1547991 0.3969255
0.9716295 0.1524211 0.3927786
0.0267683 0.2711512 0.3916593
0.1197112 0.2595059 0.3897088
0.2608925 0.2578927 0.3851346
0.3885296 0.2587070 0.3817081
0.5147232 0.2689706 0.3876124
0.6345384 0.2688538 0.3875938
0.7547037 0.2669016 0.3857349
0.8831863 0.2652947 0.3837730
0.9716295 0.2632024 0.3804384
0.0267033 0.3864253 0.3829765
0.1236888 0.3842916 0.3808892
0.2547141 0.3820925 0.3788595
0.3845960 0.3810183 0.3779378
0.5074899 0.3831795 0.3785837
0.6282573 0.3853018 0.3791800
0.7496030 0.3874316 0.3797728
0.8786825 0.3895693 0.3803623
0.9716295 0.3880752 0.3777083
0.0268503 0.5017174 0.3760136
0.1217413 0.4999817 0.3728155
0.2459409 0.4983107 0.3678311
0.3700875 0.4966691 0.3612227
0.4995716 0.4966398 0.3697022
0.6327159 0.5204369 0.3933489
0.7549410 0.5282342 0.3976777
0.8838500 0.5313816 0.3979557
0.9716295 0.5241752 0.3910191
0.0272224 0.6177077 0.3682896
0.1074391 0.6161716 0.3601680
0.2305387 0.6145591 0.3521245
0.3582372 0.6129577 0.3469151
0.4917095 0.6113735 0.3557166
0.6141810 0.6117724 0.3626650
0.7474282 0.6344061 0.3872523
0.8827919 0.6518816 0.4025449
0.9716295 0.6452751 0.3988707
0.0278191 0.7342514 0.3597293
0.0920317 0.7326997 0.3448798
0.2156469 0.7310780 0.3355532
0.3465634 0.7294731 0.3325489
0.4820077 0.7278873 0.3402584
0.6076956 0.7263041 0.3502036
0.7292020 0.7271466 0.3555690
0.8685886 0.7482919 0.3788093
0.9716295 0.7499218 0.3879008
0.0286396 0.8567896 0.3509935
0.0768373 0.8550985 0.3286153
0.2013338 0.8533490 0.3189210
0.3350678 0.8516262 0.3181250
0.4715902 0.8499257 0.3251280
0.6005425 0.8482332 0.3357456
0.7230527 0.8465425 0.3431976
0.8498779 0.8479335 0.3484143
0.9716295 0.8558220 0.3635886
0.0294723 0.9716295 0.3431339
0.0637580 0.9716295 0.3141759
0.1889009 0.9716295 0.3043475
0.3246184 0.9716295 0.3050841
0.4619630 0.9716295 0.3117839
0.5924346 0.9716295 0.3215496
0.7176390 0.9716295 0.3316756
0.8436299 0.9716295 0.3357339
0.9716295 0.9716295 0.3405350
0.0275050 0.0280352 0.5237011
0.1482762 0.0247720 0.5198831
0.2751871 0.0247399 0.5172990
0.3993744 0.0247154 0.5149939
0.5212215 0.0263359 0.5130823
0.6434984 0.0377972 0.5154808
0.7670817 0.0498520 0.5203090
0.8997923 0.0590261 0.5248258
0.9716295 0.0623171 0.5211210
0.0270231 0.1469893 0.5199573
0.1313721 0.1297274 0.5159339
0.2686469 0.1360024 0.5117996
0.3931273 0.1343139 0.5094821
0.5151727 0.1339000 0.5075694
0.6382026 0.1446295 0.5110087
0.7617221 0.1542084 0.5161653
0.8931772 0.1594810 0.5197763
0.9716295 0.1589696 0.5155224
0.0267495 0.2721934 0.5151908
0.1117031 0.2518990 0.5125930
0.2557450 0.2533399 0.5078025
0.3868153 0.2563970 0.5036756
0.5090546 0.2556883 0.5017464
0.6332645 0.2674774 0.5069163
0.7560872 0.2740851 0.5112548
0.8855311 0.2752481 0.5123015
0.9716295 0.2722153 0.5074083
0.0267118 0.3913343 0.5084730
0.1050348 0.3814499 0.5067147
0.2400692 0.3776675 0.5048178
0.3784175 0.3754014 0.4996099
0.5031357 0.3758875 0.4958898
0.6284741 0.3870734 0.5027125
0.7487596 0.3867634 0.5024589
0.8760667 0.3846588 0.5004062
0.9716295 0.3810726 0.4959189
0.0268839 0.5036390 0.4994995
0.1123856 0.5015854 0.4974226
0.2436051 0.4994533 0.4954185
0.3726762 0.4973276 0.4934112
0.5002949 0.4966731 0.4928563
0.6212704 0.4988421 0.4934923
0.7425296 0.5009580 0.4940645
0.8708706 0.5030817 0.4946332
0.9716295 0.5010220 0.4913396
0.0272704 0.6165988 0.4923843
0.1140794 0.6148775 0.4896995
0.2415120 0.6130005 0.4870054
0.3639020 0.6113697 0.4820898
0.4855453 0.6097746 0.4755844
0.6132802 0.6101747 0.4842989
0.7494696 0.6362302 0.5099209
0.8792157 0.6437803 0.5139192
0.9716295 0.6340780 0.5042704
0.0278867 0.7326233 0.4855303
0.1037276 0.7310908 0.4801858
0.2276240 0.7294741 0.4745317
0.3490761 0.7278628 0.4666169
0.4742255 0.7262659 0.4614859
0.6053894 0.7246907 0.4701202
0.7283106 0.7255313 0.4773304
0.8707941 0.7505935 0.5033300
0.9716295 0.7489880 0.5055946
0.0287284 0.8550087 0.4773594
0.0892601 0.8533524 0.4669513
0.2126188 0.8516093 0.4594702
0.3347404 0.8498760 0.4502941
0.4630817 0.8481668 0.4473290
0.5960894 0.8464836 0.4548908
0.7216048 0.8448038 0.4646496
0.8489353 0.8461891 0.4703046
0.9716295 0.8548297 0.4853595
0.0295944 0.9716295 0.4696359
0.0759048 0.9716295 0.4538659
0.1992060 0.9716295 0.4452160
0.3221178 0.9716295 0.4355305
0.4527815 0.9716295 0.4342443
0.5866945 0.9716295 0.4411065
0.7149986 0.9716295 0.4514196
0.8422465 0.9716295 0.4582151
0.9716295 0.9716295 0.4620636
0.0274388 0.0288272 0.6444918
0.1460985 0.0247607 0.6406161
0.2736379 0.0247310 0.6376708
0.3978654 0.0247090 0.6353779
0.5193625 0.0246944 0.6330826
0.6394463 0.0267344 0.6312771
0.7627046 0.0378678 0.6332626
0.8957362 0.0504859 0.6377552
0.9716295 0.0566676 0.6347677
0.0269870 0.1459827 0.6408234
0.1261470 0.1251345 0.6368377
0.2656881 0.1327170 0.6325265
0.3916881 0.1325975 0.6299524
0.5133837 0.1308216 0.6276652
0.6335806 0.1308392 0.6258606
0.7572519 0.1411012 0.6286020
0.8898214 0.1519538 0.6336479
0.9716295 0.1554866 0.6305337
0.0267352 0.2719196 0.6365044
0.1057553 0.2457157 0.6335261
0.2505944 0.2487848 0.6287561
0.3853180 0.2546093 0.6242077
0.5072848 0.2529607 0.6218900
0.6275979 0.2526802 0.6200708
0.7520527 0.2640218 0.6240895
0.8840657 0.2739050 0.6295284
0.9716295 0.2749916 0.6258088
0.0267228 0.3934768 0.6308169
0.0918949 0.3733250 0.6288775
0.2320253 0.3700843 0.6259794
0.3733884 0.3709349 0.6206247
0.5013865 0.3735313 0.6160865
0.6218185 0.3729630 0.6142526
0.7475023 0.3854425 0.6201921
0.8781645 0.3921756 0.6246846
0.9716295 0.3894605 0.6195933
0.0269310 0.5089788 0.6236086
0.0927094 0.5003498 0.6218311
0.2257422 0.4972541 0.6201023
0.3590360 0.4936837 0.6183136
0.4938784 0.4907916 0.6124426
0.6162420 0.4909596 0.6084057
0.7431015 0.5030187 0.6161807
0.8700653 0.5025227 0.6156958
0.9716295 0.4974957 0.6098821
0.0273372 0.6191217 0.6143467
0.1013395 0.6171212 0.6122636
0.2327351 0.6150346 0.6102679
0.3621038 0.6129546 0.6082693
0.4885651 0.6108812 0.6062679
0.6144378 0.6106289 0.6060654
0.7357104 0.6128250 0.6066967
0.8634019 0.6149541 0.6072498
0.9716295 0.6123284 0.6033072
0.0279602 0.7318754 0.6068601
0.1048860 0.7301773 0.6041156
0.2343052 0.7282297 0.6021955
0.3598862 0.7262973 0.5994630
0.4798039 0.7246644 0.5945811
0.5993239 0.7230744 0.5881356
0.7274212 0.7239175 0.5971332
0.8737285 0.7530394 0.6248914
0.9716295 0.7432284 0.6150587
0.0288195 0.8533818 0.6006550
0.0990629 0.8516505 0.5968255
0.2242717 0.8498730 0.5926815
0.3465398 0.8481483 0.5870789
0.4655717 0.8464315 0.5792469
0.5884354 0.8447343 0.5741678
0.7192916 0.8430670 0.5826818
0.8479953 0.8444489 0.5901868
0.9716295 0.8543285 0.6049148
0.0297187 0.9716295 0.5935987
0.0874559 0.9716295 0.5866634
0.2114134 0.9716295 0.5808533
0.3331969 0.9716295 0.5734901
0.4527192 0.9716295 0.5643446
0.5782192 0.9716295 0.5609967
0.7105696 0.9716295 0.5684342
0.8407257 0.9716295 0.5777630
0.9716295 0.9716295 0.5815491
0.0273755 0.0296203 0.7667398
0.1438228 0.0247503 0.7627065
0.2720180 0.0247229 0.7592838
0.3963586 0.0247033 0.7568661
0.5178935 0.0246912 0.7545022
0.6375124 0.0246865 0.7521380
0.7586141 0.0271462 0.7503806
0.8906004 0.0379827 0.7521131
0.9716295 0.0453402 0.7496201
0.0269531 0.1449678 0.7629858
0.1209217 0.1205422 0.7589116
0.2616312 0.1285166 0.7543969
0.3902501 0.1308819 0.7513375
0.5119817 0.1291080 0.7489877
0.6317163 0.1273411 0.7466376
0.7527225 0.1277903 0.7448843
0.8844612 0.1376128 0.7471986
0.9716295 0.1435702 0.7448819
0.0267237 0.2711954 0.7587451
0.1003827 0.2402817 0.7554661
0.2454408 0.2442277 0.7505931
0.3824903 0.2514077 0.7457684
0.5059000 0.2512663 0.7430640
0.6257538 0.2495344 0.7407110
0.7466746 0.2496827 0.7389468
0.8785074 0.2604194 0.7422274
0.9716295 0.2660276 0.7400340
0.0267357 0.3941754 0.7535720
0.0829926 0.3654549 0.7512236
0.2260142 0.3638903 0.7476314
0.3683553 0.3664650 0.7422524
0.4999491 0.3717885 0.7371520
0.6199957 0.3701956 0.7347687
0.7408491 0.3700484 0.7329940
0.8732042 0.3818758 0.7377120
0.9716295 0.3861866 0.7354090
0.0269753 0.5117705 0.7469773
0.0765760 0.4932855 0.7451907
0.2128111 0.4893955 0.7430580
0.3510367 0.4861391 0.7399668
0.4889704 0.4864176 0.7338874
0.6144416 0.4885634 0.7288103
0.7352437 0.4881317 0.7270243
0.8687260 0.5012568 0.7339018
0.9716295 0.5023209 0.7306240
0.0274246 0.6248326 0.7392936
0.0812368 0.6169841 0.7374422
0.2137142 0.6142778 0.7355808
0.3451941 0.6113608 0.7339223
0.4759230 0.6079658 0.7321933
0.6077306 0.6044407 0.7254956
0.7298560 0.6043012 0.7210375
0.8644194 0.6173154 0.7299742
0.9716295 0.6119671 0.7234505
0.0280625 0.7350219 0.7295048
0.0905520 0.7330130 0.7273609
0.2221064 0.7309126 0.7253200
0.3517617 0.7288206 0.7232777
0.4785292 0.7267370 0.7212342
0.6027870 0.7246616 0.7191890
0.7290496 0.7248079 0.7193355
0.8562618 0.7270898 0.7199777
0.9716295 0.7238289 0.7152864
0.0289191 0.8528764 0.7213707
0.0950561 0.8510889 0.7183489
0.2255736 0.8490178 0.7166708
0.3531929 0.8468762 0.7146561
0.4761943 0.8447558 0.7118212
0.5939687 0.8430144 0.7068626
0.7131743 0.8413285 0.7003376
0.8470583 0.8427126 0.7098145
0.9716295 0.8537042 0.7224072
0.0298437 0.9716295 0.7154812
0.0928765 0.9716295 0.7123419
0.2204826 0.9716295 0.7096809
0.3443547 0.9716295 0.7057126
0.4641730 0.9716295 0.7001262
0.5808650 0.9716295 0.6922266
0.7027829 0.9716295 0.6867847
0.8383220 0.9716295 0.6952881
0.9716295 0.9716295 0.7005783
0.0273150 0.0304144 0.8988886
0.1414949 0.0247406 0.8942540
0.2701660 0.0247157 0.8900650
0.3948531 0.0246985 0.8870724
0.5164268 0.0246888 0.8843945
0.6360640 0.0246866 0.8817248
0.7565341 0.0246919 0.8790630
0.8860527 0.0275715 0.8772006
0.9716295 0.0333227 0.8747489
0.0269213 0.1439570 0.8946103
0.1156967 0.1159509 0.8900124
0.2570025 0.1239238 0.8848538
0.3886508 0.1289697 0.8809216
0.5105813 0.1273952 0.8782419
0.6303341 0.1256302 0.8756068
0.7507168 0.1238723 0.8729790
0.8795685 0.1247533 0.8711335
0.9716295 0.1295009 0.8688805
0.0267146 0.2703074 0.8899026
0.0952259 0.2352381 0.8860554
0.2402843 0.2396684 0.8805924
0.3785865 0.2472980 0.8751538
0.5045164 0.2495721 0.8716133
0.6243899 0.2478420 0.8689935
0.7446940 0.2461182 0.8663805
0.8729053 0.2466960 0.8645350
0.9716295 0.2521125 0.8625636
0.0267502 0.3940281 0.8844866
0.0760120 0.3584788 0.8815467
0.2206079 0.3584665 0.8771294
0.3633182 0.3619921 0.8712485
0.4972503 0.3687016 0.8654634
0.6186499 0.3685400 0.8624077
0.7388945 0.3668692 0.8598076
0.8665338 0.3671438 0.8579615
0.9716295 0.3732517 0.8564031
0.0270189 0.5132678 0.8778693
0.0643593 0.4851109 0.8756917
0.2039204 0.4816387 0.8726625
0.3450257 0.4799507 0.8684486
0.4840589 0.4820408 0.8619686
0.6130489 0.4868677 0.8558798
0.7333152 0.4853320 0.8532572
0.8604440 0.4853138 0.8514100
0.9716295 0.4921525 0.8504978
0.0275038 0.6280540 0.8699606
0.0634655 0.6110384 0.8680351
0.1978650 0.6074709 0.8659275
0.3326109 0.6036951 0.8636053
0.4679886 0.6003982 0.8600655
0.6028987 0.6001227 0.8527424
0.7279544 0.6018471 0.8467262
0.8546267 0.6015447 0.8448772
0.9716295 0.6090338 0.8450218
0.0281917 0.7412282 0.8612597
0.0702516 0.7337274 0.8592026
0.2025500 0.7311643 0.8570549
0.3335886 0.7285264 0.8550966
0.4625884 0.7257113 0.8533999
0.5910193 0.7224032 0.8516173
0.7218687 0.7181521 0.8435601
0.8490744 0.7176996 0.8383598
0.9716295 0.7244993 0.8398685
0.0290592 0.8569169 0.8501866
0.0800247 0.8547462 0.8478304
0.2117205 0.8524795 0.8456022
0.3416513 0.8502263 0.8433766
0.4687218 0.8479864 0.8411536
0.5931934 0.8457597 0.8389331
0.7171686 0.8435459 0.8367145
0.8493201 0.8441411 0.8372515
0.9716295 0.8400970 0.8315783
0.0299678 0.9716295 0.8391235
0.0839933 0.9716295 0.8357705
0.2150773 0.9716295 0.8342723
0.3441623 0.9716295 0.8327953
0.4696419 0.9716295 0.8310891
0.5909299 0.9716295 0.8285726
0.7084510 0.9716295 0.8234516
0.8317568 0.9716295 0.8163284
0.9716295 0.9716295 0.8236846
0.0272873 0.0307913 0.9716295
0.1393438 0.0247363 0.9716295
0.2683250 0.0247122 0.9716295
0.3933950 0.0246962 0.9716295
0.5149995 0.0246879 0.9716295
0.6346496 0.0246871 0.9716295
0.7550812 0.0246938 0.9716295
0.8836359 0.0248324 0.9716295
0.9716295 0.0275056 0.9716295
0.0269099 0.1419486 0.9716295
0.1117115 0.1121988 0.9716295
0.2532320 0.1203204 0.9716295
0.3866432 0.1266315 0.9716295
0.5092101 0.1257076 0.9716295
0.6289758 0.1239410 0.9716295
0.7493255 0.1221814 0.9716295
0.8772317 0.1204337 0.9716295
0.9716295 0.1213135 0.9716295
0.0267122 0.2671575 0.9716295
0.0911849 0.2303226 0.9716295
0.2356503 0.2353018 0.9716295
0.3748582 0.2435775 0.9716295
0.5031320 0.2478737 0.9716295
0.6230410 0.2461661 0.9716295
0.7433165 0.2444406 0.9716295
0.8706036 0.2427216 0.9715128
0.9716295 0.2432448 0.9713567
0.0267538 0.3897446 0.9716295
0.0710926 0.3509716 0.9716295
0.2153827 0.3523288 0.9716295
0.3581026 0.3570786 0.9716295
0.4939134 0.3652005 0.9714646
0.6173122 0.3668969 0.9712270
0.7375318 0.3652245 0.9710121
0.8642689 0.3635584 0.9707935
0.9716295 0.3637242 0.9706187
0.0270278 0.5085298 0.9714167
0.0568943 0.4747507 0.9715704
0.1968168 0.4721614 0.9713456
0.3384076 0.4722978 0.9710935
0.4782992 0.4766172 0.9708065
0.6106578 0.4841628 0.9705011
0.7319695 0.4837243 0.9702640
0.8582164 0.4821139 0.9700332
0.9716295 0.4819371 0.9698391
0.0275236 0.6237875 0.9706861
0.0517161 0.5995623 0.9707996
0.1863854 0.5954707 0.9705806
0.3224031 0.5919295 0.9703493
0.4594307 0.5905694 0.9700914
0.5965683 0.5941659 0.9697883
0.7266164 0.6002520 0.9694752
0.8524377 0.5986949 0.9692324
0.9716295 0.5981870 0.9690177
0.0282328 0.7381574 0.9699233
0.0547413 0.7239267 0.9699684
0.1865238 0.7203225 0.9697388
0.3176652 0.7164153 0.9695063
0.4477070 0.7123148 0.9692683
0.5789372 0.7092104 0.9690111
0.7148009 0.7115117 0.9686987
0.8469256 0.7151289 0.9683915
0.9716295 0.7142793 0.9681554
0.0291526 0.8576504 0.9691263
0.0625710 0.8511094 0.9691013
0.1935314 0.8481650 0.9688545
0.3230635 0.8450948 0.9686050
0.4499910 0.8418006 0.9683532
0.5746396 0.8380986 0.9681003
0.7000629 0.8338322 0.9678440
0.8380478 0.8334418 0.9675389
0.9716295 0.8349595 0.9672526
0.0300748 0.9716295 0.9600927
0.0703271 0.9716295 0.9603549
0.2015119 0.9716295 0.9612088
0.3310899 0.9716295 0.9620615
0.4578738 0.9716295 0.9629133
0.5819998 0.9716295 0.9637640
0.7053401 0.9716295 0.9646136
0.8331409 0.9716295 0.9654623
0.9716295 0.9716295 0.9663100
