rust/creative_luts/vintage/lut.cube
TITLE "Pixel Craft Creative: vintage"
LUT_3D_SIZE 9
DOMAIN_MIN 0.0 0.0 0.0
DOMAIN_MAX 1.0 1.0 1.0
0.0941176 0.0549020 0.0078431
0.1921569 0.0549020 0.0078431
0.2941177 0.0549020 0.0078431
0.3921569 0.0549020 0.0078431
0.4941176 0.0549020 0.0078431
0.5921569 0.0549020 0.0078431
0.6901961 0.0549020 0.0078431
0.7921569 0.0549020 0.0078431
0.8941177 0.0549020 0.0078431
0.0941176 0.1529412 0.0078431
0.1921569 0.1529412 0.0078431
0.2941177 0.1529412 0.0078431
0.3921569 0.1529412 0.0078431
0.4941176 0.1529412 0.0078431
0.5921569 0.1529412 0.0078431
0.6901961 0.1529412 0.0078431
0.7921569 0.1529412 0.0078431
0.8941177 0.1529412 0.0078431
0.0941176 0.2549020 0.0078431
0.1921569 0.2549020 0.0078431
0.2941177 0.2549020 0.0078431
0.3921569 0.2549020 0.0078431
0.4941176 0.2549020 0.0078431
0.5921569 0.2549020 0.0078431
0.6901961 0.2549020 0.0078431
0.7921569 0.2549020 0.0078431
0.8941177 0.2549020 0.0078431
0.0941176 0.3529412 0.0078431
0.1921569 0.3529412 0.0078431
0.2941177 0.3529412 0.0078431
0.3921569 0.3529412 0.0078431
0.4941176 0.3529412 0.0078431
0.5921569 0.3529412 0.0078431
0.6901961 0.3529412 0.0078431
0.7921569 0.3529412 0.0078431
0.8941177 0.3529412 0.0078431
0.0941176 0.4549020 0.0078431
0.1921569 0.4549020 0.0078431
0.2941177 0.4549020 0.0078431
0.3921569 0.4549020 0.0078431
0.4941176 0.4549020 0.0078431
0.5921569 0.4549020 0.0078431
0.6901961 0.4549020 0.0078431
0.7921569 0.4549020 0.0078431
0.8941177 0.4549020 0.0078431
0.0941176 0.5529412 0.0078431
0.1921569 0.5529412 0.0078431
0.2941177 0.5529412 0.0078431
0.3921569 0.5529412 0.0078431
0.4941176 0.5529412 0.0078431
0.5921569 0.5529412 0.0078431
0.6901961 0.5529412 0.0078431
0.7921569 0.5529412 0.0078431
0.8941177 0.5529412 0.0078431
0.0941176 0.6509804 0.0078431
0.1921569 0.6509804 0.0078431
0.2941177 0.6509804 0.0078431
0.3921569 0.6509804 0.0078431
0.4941176 0.6509804 0.0078431
0.5921569 0.6509804 0.0078431
0.6901961 0.6509804 0.0078431
0.7921569 0.6509804 0.0078431
0.8941177 0.6509804 0.0078431
0.0941176 0.7529412 0.0078431
0.1921569 0.7529412 0.0078431
0.2941177 0.7529412 0.0078431
0.3921569 0.7529412 0.0078431
0.4941176 0.7529412 0.0078431
0.5921569 0.7529412 0.0078431
0.6901961 0.7529412 0.0078431
0.7921569 0.7529412 0.0078431
0.8941177 0.7529412 0.0078431
0.0941176 0.8549020 0.0078431
0.1921569 0.8549020 0.0078431
0.2941177 0.8549020 0.0078431
0.3921569 0.8549020 0.0078431
0.4941176 0.8549020 0.0078431
0.5921569 0.8549020 0.0078431
0.6901961 0.8549020 0.0078431
0.7921569 0.8549020 0.0078431
0.8941177 0.8549020 0.0078431
0.0941176 0.0549020 0.1098039
0.1921569 0.0549020 0.1098039
0.2941177 0.0549020 0.1098039
0.3921569 0.0549020 0.1098039
0.4941176 0.0549020 0.1098039
0.5921569 0.0549020 0.1098039
0.6901961 0.0549020 0.1098039
0.7921569 0.0549020 0.1098039
0.8941177 0.0549020 0.1098039
0.0941176 0.1529412 0.1098039
0.1921569 0.1529412 0.1098039
0.2941177 0.1529412 0.1098039
0.3921569 0.1529412 0.1098039
0.4941176 0.1529412 0.1098039
0.5921569 0.1529412 0.1098039
0.6901961 0.1529412 0.1098039
0.7921569 0.1529412 0.1098039
0.8941177 0.1529412 0.1098039
0.0941176 0.2549020 0.1098039
0.1921569 0.2549020 0.1098039
0.2941177 0.2549020 0.1098039
0.3921569 0.2549020 0.1098039
0.4941176 0.2549020 0.1098039
0.5921569 0.2549020 0.1098039
0.6901961 0.2549020 0.1098039
0.7921569 0.2549020 0.1098039
0.8941177 0.2549020 0.1098039
0.0941176 0.3529412 0.1098039
0.1921569 0.3529412 0.1098039
0.2941177 0.3529412 0.1098039
0.3921569 0.3529412 0.1098039
0.4941176 0.3529412 0.1098039
0.5921569 0.3529412 0.1098039
0.6901961 0.3529412 0.1098039
0.7921569 0.3529412 0.1098039
0.8941177 0.3529412 0.1098039
0.0941176 0.4549020 0.1098039
0.1921569 0.4549020 0.1098039
0.2941177 0.4549020 0.1098039
0.3921569 0.4549020 0.1098039
0.4941176 0.4549020 0.1098039
0.5921569 0.4549020 0.1098039
0.6901961 0.4549020 0.1098039
0.7921569 0.4549020 0.1098039
0.8941177 0.4549020 0.1098039
0.0941176 0.5529412 0.1098039
0.1921569 0.5529412 0.1098039
0.2941177 0.5529412 0.1098039
0.3921569 0.5529412 0.1098039
0.4941176 0.5529412 0.1098039
0.5921569 0.5529412 0.1098039
0.6901961 0.5529412 0.1098039
0.7921569 0.5529412 0.1098039
0.8941177 0.5529412 0.1098039
0.0941176 0.6509804 0.1098039
0.1921569 0.6509804 0.1098039
0.2941177 0.6509804 0.1098039
0.3921569 0.6509804 0.1098039
0.4941176 0.6509804 0.1098039
0.5921569 0.6509804 0.1098039
0.6901961 0.6509804 0.1098039
0.7921569 0.6509804 0.1098039
0.8941177 0.6509804 0.1098039
0.0941176 0.7529412 0.1098039
0.1921569 0.7529412 0.1098039
0.2941177 0.7529412 0.1098039
0.3921569 0.7529412 0.1098039
0.4941176 0.7529412 0.1098039
0.5921569 0.7529412 0.1098039
0.6901961 0.7529412 0.1098039
0.7921569 0.7529412 0.1098039
0.8941177 0.7529412 0.1098039
0.0941176 0.8549020 0.1098039
0.1921569 0.8549020 0.1098039
0.2941177 0.8549020 0.1098039
0.3921569 0.8549020 0.1098039
0.4941176 0.8549020 0.1098039
0.5921569 0.8549020 0.1098039
0.6901961 0.8549020 0.1098039
0.7921569 0.8549020 0.1098039
0.8941177 0.8549020 0.1098039
0.0941176 0.0549020 0.2078431
0.1921569 0.0549020 0.2078431
0.2941177 0.0549020 0.2078431
0.3921569 0.0549020 0.2078431
0.4941176 0.0549020 0.2078431
0.5921569 0.0549020 0.2078431
0.6901961 0.0549020 0.2078431
0.7921569 0.0549020 0.2078431
0.8941177 0.0549020 0.2078431
0.0941176 0.1529412 0.2078431
0.1921569 0.1529412 0.2078431
0.2941177 0.1529412 0.2078431
0.3921569 0.1529412 0.2078431
0.4941176 0.1529412 0.2078431
0.5921569 0.1529412 0.2078431
0.6901961 0.1529412 0.2078431
0.7921569 0.1529412 0.2078431
0.8941177 0.1529412 0.2078431
0.0941176 0.2549020 0.2078431
0.1921569 0.2549020 0.2078431
0.2941177 0.2549020 0.2078431
0.3921569 0.2549020 0.2078431
0.4941176 0.2549020 0.2078431
0.5921569 0.2549020 0.2078431
0.6901961 0.2549020 0.2078431
0.7921569 0.2549020 0.2078431
0.8941177 0.2549020 0.2078431
0.0941176 0.3529412 0.2078431
0.1921569 0.3529412 0.2078431
0.2941177 0.3529412 0.2078431
0.3921569 0.3529412 0.2078431
0.4941176 0.3529412 0.2078431
0.5921569 0.3529412 0.2078431
0.6901961 0.3529412 0.2078431
0.7921569 0.3529412 0.2078431
0.8941177 0.3529412 0.2078431
0.0941176 0.4549020 0.2078431
0.1921569 0.4549020 0.2078431
0.2941177 0.4549020 0.2078431
0.3921569 0.4549020 0.2078431
0.4941176 0.4549020 0.2078431
0.5921569 0.4549020 0.2078431
0.6901961 0.4549020 0.2078431
0.7921569 0.4549020 0.2078431
0.8941177 0.4549020 0.2078431
0.0941176 0.5529412 0.2078431
0.1921569 0.5529412 0.2078431
0.2941177 0.5529412 0.2078431
0.3921569 0.5529412 0.2078431
0.4941176 0.5529412 0.2078431
0.5921569 0.5529412 0.2078431
0.6901961 0.5529412 0.2078431
0.7921569 0.5529412 0.2078431
0.8941177 0.5529412 0.2078431
0.0941176 0.6509804 0.2078431
0.1921569 0.6509804 0.2078431
0.2941177 0.6509804 0.2078431
0.3921569 0.6509804 0.2078431
0.4941176 0.6509804 0.2078431
0.5921569 0.6509804 0.2078431
0.6901961 0.6509804 0.2078431
0.7921569 0.6509804 0.2078431
0.8941177 0.6509804 0.2078431
0.0941176 0.7529412 0.2078431
0.1921569 0.7529412 0.2078431
0.2941177 0.7529412 0.2078431
0.3921569 0.7529412 0.2078431
0.4941176 0.7529412 0.2078431
0.5921569 0.7529412 0.2078431
0.6901961 0.7529412 0.2078431
0.7921569 0.7529412 0.2078431
0.8941177 0.7529412 0.2078431
0.0941176 0.8549020 0.2078431
0.1921569 0.8549020 0.2078431
0.2941177 0.8549020 0.2078431
0.3921569 0.8549020 0.2078431
0.4941176 0.8549020 0.2078431
0.5921569 0.8549020 0.2078431
0.6901961 0.8549020 0.2078431
0.7921569 0.8549020 0.2078431
0.8941177 0.8549020 0.2078431
0.0941176 0.0549020 0.3098039
0.1921569 0.0549020 0.3098039
0.2941177 0.0549020 0.3098039
0.3921569 0.0549020 0.3098039
0.4941176 0.0549020 0.3098039
0.5921569 0.0549020 0.3098039
0.6901961 0.0549020 0.3098039
0.7921569 0.0549020 0.3098039
0.8941177 0.0549020 0.3098039
0.0941176 0.1529412 0.3098039
0.1921569 0.1529412 0.3098039
0.2941177 0.1529412 0.3098039
0.3921569 0.1529412 0.3098039
0.4941176 0.1529412 0.3098039
0.5921569 0.1529412 0.3098039
0.6901961 0.1529412 0.3098039
0.7921569 0.1529412 0.3098039
0.8941177 0.1529412 0.3098039
0.0941176 0.2549020 0.3098039
0.1921569 0.2549020 0.3098039
0.2941177 0.2549020 0.3098039
0.3921569 0.2549020 0.3098039
0.4941176 0.2549020 0.3098039
0.5921569 0.2549020 0.3098039
0.6901961 0.2549020 0.3098039
0.7921569 0.2549020 0.3098039
0.8941177 0.2549020 0.3098039
0.0941176 0.3529412 0.3098039
0.1921569 0.3529412 0.3098039
0.2941177 0.3529412 0.3098039
0.3921569 0.3529412 0.3098039
0.4941176 0.3529412 0.3098039
0.5921569 0.3529412 0.3098039
0.6901961 0.3529412 0.3098039
0.7921569 0.3529412 0.3098039
0.8941177 0.3529412 0.3098039
0.0941176 0.4549020 0.3098039
0.1921569 0.4549020 0.3098039
0.2941177 0.4549020 0.3098039
0.3921569 0.4549020 0.3098039
0.4941176 0.4549020 0.3098039
0.5921569 0.4549020 0.3098039
0.6901961 0.4549020 0.3098039
0.7921569 0.4549020 0.3098039
0.8941177 0.4549020 0.3098039
0.0941176 0.5529412 0.3098039
0.1921569 0.5529412 0.3098039
0.2941177 0.5529412 0.3098039
0.3921569 0.5529412 0.3098039
0.4941176 0.5529412 0.3098039
0.5921569 0.5529412 0.3098039
0.6901961 0.5529412 0.3098039
0.7921569 0.5529412 0.3098039
0.8941177 0.5529412 0.3098039
0.0941176 0.6509804 0.3098039
0.1921569 0.6509804 0.3098039
0.2941177 0.6509804 0.3098039
0.3921569 0.6509804 0.3098039
0.4941176 0.6509804 0.3098039
0.5921569 0.6509804 0.3098039
0.6901961 0.6509804 0.3098039
0.7921569 0.6509804 0.3098039
0.8941177 0.6509804 0.3098039
0.0941176 0.7529412 0.3098039
0.1921569 0.7529412 0.3098039
0.2941177 0.7529412 0.3098039
0.3921569 0.7529412 0.3098039
0.4941176 0.7529412 0.3098039
0.5921569 0.7529412 0.3098039
0.6901961 0.7529412 0.3098039
0.7921569 0.7529412 0.3098039
0.8941177 0.7529412 0.3098039
0.0941176 0.8549020 0.3098039
0.1921569 0.8549020 0.3098039
0.2941177 0.8549020 0.3098039
0.3921569 0.8549020 0.3098039
0.4941176 0.8549020 0.3098039
0.5921569 0.8549020 0.3098039
0.6901961 0.8549020 0.3098039
0.7921569 0.8549020 0.3098039
0.8941177 0.8549020 0.3098039
0.0941176 0.0549020 0.4117647
0.1921569 0.0549020 0.4117647
0.2941177 0.0549020 0.4117647
0.3921569 0.0549020 0.4117647
0.4941176 0.0549020 0.4117647
0.5921569 0.0549020 0.4117647
0.6901961 0.0549020 0.4117647
0.7921569 0.0549020 0.4117647
0.8941177 0.0549020 0.4117647
0.0941176 0.1529412 0.4117647
0.1921569 0.1529412 0.4117647
0.2941177 0.1529412 0.4117647
0.3921569 0.1529412 0.4117647
0.4941176 0.1529412 0.4117647
0.5921569 0.1529412 0.4117647
0.6901961 0.1529412 0.4117647
0.7921569 0.1529412 0.4117647
0.8941177 0.1529412 0.4117647
0.0941176 0.2549020 0.4117647
0.1921569 0.2549020 0.4117647
0.2941177 0.2549020 0.4117647
0.3921569 0.2549020 0.4117647
0.4941176 0.2549020 0.4117647
0.5921569 0.2549020 0.4117647
0.6901961 0.2549020 0.4117647
0.7921569 0.2549020 0.4117647
0.8941177 0.2549020 0.4117647
0.0941176 0.3529412 0.4117647
0.1921569 0.3529412 0.4117647
0.2941177 0.3529412 0.4117647
0.3921569 0.3529412 0.4117647
0.4941176 0.3529412 0.4117647
0.5921569 0.3529412 0.4117647
0.6901961 0.3529412 0.4117647
0.7921569 0.3529412 0.4117647
0.8941177 0.3529412 0.4117647
0.0941176 0.4549020 0.4117647
0.1921569 0.4549020 0.4117647
0.2941177 0.4549020 0.4117647
0.3921569 0.4549020 0.4117647
0.4941176 0.4549020 0.4117647
0.5921569 0.4549020 0.4117647
0.6901961 0.4549020 0.4117647
0.7921569 0.4549020 0.4117647
0.8941177 0.4549020 0.4117647
0.0941176 0.5529412 0.4117647
0.1921569 0.5529412 0.4117647
0.2941177 0.5529412 0.4117647
0.3921569 0.5529412 0.4117647
0.4941176 0.5529412 0.4117647
0.5921569 0.5529412 0.4117647
0.6901961 0.5529412 0.4117647
0.7921569 0.5529412 0.4117647
0.8941177 0.5529412 0.4117647
0.0941176 0.6509804 0.4117647
0.1921569 0.6509804 0.4117647
0.2941177 0.6509804 0.4117647
0.3921569 0.6509804 0.4117647
0.4941176 0.6509804 0.4117647
0.5921569 0.6509804 0.4117647
0.6901961 0.6509804 0.4117647
0.7921569 0.6509804 0.4117647
0.8941177 0.6509804 0.4117647
0.0941176 0.7529412 0.4117647
0.1921569 0.7529412 0.4117647
0.2941177 0.7529412 0.4117647
0.3921569 0.7529412 0.4117647
0.4941176 0.7529412 0.4117647
0.5921569 0.7529412 0.4117647
0.6901961 0.7529412 0.4117647
0.7921569 0.7529412 0.4117647
0.8941177 0.7529412 0.4117647
0.0941176 0.8549020 0.4117647
0.1921569 0.8549020 0.4117647
0.2941177 0.8549020 0.4117647
0.3921569 0.8549020 0.4117647
0.4941176 0.8549020 0.4117647
0.5921569 0.8549020 0.4117647
0.6901961 0.8549020 0.4117647
0.7921569 0.8549020 0.4117647
0.8941177 0.8549020 0.4117647
0.0941176 0.0549020 0.5058824
0.1921569 0.0549020 0.5058824
0.2941177 0.0549020 0.5058824
0.3921569 0.0549020 0.5058824
0.4941176 0.0549020 0.5058824
0.5921569 0.0549020 0.5058824
0.6901961 0.0549020 0.5058824
0.7921569 0.0549020 0.5058824
0.8941177 0.0549020 0.5058824
0.0941176 0.1529412 0.5058824
0.1921569 0.1529412 0.5058824
0.2941177 0.1529412 0.5058824
0.3921569 0.1529412 0.5058824
0.4941176 0.1529412 0.5058824
0.5921569 0.1529412 0.5058824
0.6901961 0.1529412 0.5058824
0.7921569 0.1529412 0.5058824
0.8941177 0.1529412 0.5058824
0.0941176 0.2549020 0.5058824
0.1921569 0.2549020 0.5058824
0.2941177 0.2549020 0.5058824
0.3921569 0.2549020 0.5058824
0.4941176 0.2549020 0.5058824
0.5921569 0.2549020 0.5058824
0.6901961 0.2549020 0.5058824
0.7921569 0.2549020 0.5058824
0.8941177 0.2549020 0.5058824
0.0941176 0.3529412 0.5058824
0.1921569 0.3529412 0.5058824
0.2941177 0.3529412 0.5058824
0.3921569 0.3529412 0.5058824
0.4941176 0.3529412 0.5058824
0.5921569 0.3529412 0.5058824
0.6901961 0.3529412 0.5058824
0.7921569 0.3529412 0.5058824
0.8941177 0.3529412 0.5058824
0.0941176 0.4549020 0.5058824
0.1921569 0.4549020 0.5058824
0.2941177 0.4549020 0.5058824
0.3921569 0.4549020 0.5058824
0.4941176 0.4549020 0.5058824
0.5921569 0.4549020 0.5058824
0.6901961 0.4549020 0.5058824
0.7921569 0.4549020 0.5058824
0.8941177 0.4549020 0.5058824
0.0941176 0.5529412 0.5058824
0.1921569 0.5529412 0.5058824
0.2941177 0.5529412 0.5058824
0.3921569 0.5529412 0.5058824
0.4941176 0.5529412 0.5058824
0.5921569 0.5529412 0.5058824
0.6901961 0.5529412 0.5058824
0.7921569 0.5529412 0.5058824
0.8941177 0.5529412 0.5058824
0.0941176 0.6509804 0.5058824
0.1921569 0.6509804 0.5058824
0.2941177 0.6509804 0.5058824
0.3921569 0.6509804 0.5058824
0.4941176 0.6509804 0.5058824
0.5921569 0.6509804 0.5058824
0.6901961 0.6509804 0.5058824
0.7921569 0.6509804 0.5058824
0.8941177 0.6509804 0.5058824
0.0941176 0.7529412 0.5058824
0.1921569 0.7529412 0.5058824
0.2941177 0.7529412 0.5058824
0.3921569 0.7529412 0.5058824
0.4941176 0.7529412 0.5058824
0.5921569 0.7529412 0.5058824
0.6901961 0.7529412 0.5058824
0.7921569 0.7529412 0.5058824
0.8941177 0.7529412 0.5058824
0.0941176 0.8549020 0.5058824
0.1921569 0.8549020 0.5058824
0.2941177 0.8549020 0.5058824
0.3921569 0.8549020 0.5058824
0.4941176 0.8549020 0.5058824
0.5921569 0.8549020 0.5058824
0.6901961 0.8549020 0.5058824
0.7921569 0.8549020 0.5058824
0.8941177 0.8549020 0.5058824
0.0941176 0.0549020 0.6078432
0.1921569 0.0549020 0.6078432
0.2941177 0.0549020 0.6078432
0.3921569 0.0549020 0.6078432
0.4941176 0.0549020 0.6078432
0.5921569 0.0549020 0.6078432
0.6901961 0.0549020 0.6078432
0.7921569 0.0549020 0.6078432
0.8941177 0.0549020 0.6078432
0.0941176 0.1529412 0.6078432
0.1921569 0.1529412 0.6078432
0.2941177 0.1529412 0.6078432
0.3921569 0.1529412 0.6078432
0.4941176 0.1529412 0.6078432
0.5921569 0.1529412 0.6078432
0.6901961 0.1529412 0.6078432
0.7921569 0.1529412 0.6078432
0.8941177 0.1529412 0.6078432
0.0941176 0.2549020 0.6078432
0.1921569 0.2549020 0.6078432
0.2941177 0.2549020 0.6078432
0.3921569 0.2549020 0.6078432
0.4941176 0.2549020 0.6078432
0.5921569 0.2549020 0.6078432
0.6901961 0.2549020 0.6078432
0.7921569 0.2549020 0.6078432
0.8941177 0.2549020 0.6078432
0.0941176 0.3529412 0.6078432
0.1921569 0.3529412 0.6078432
0.2941177 0.3529412 0.6078432
0.3921569 0.3529412 0.6078432
0.4941176 0.3529412 0.6078432
0.5921569 0.3529412 0.6078432
0.6901961 0.3529412 0.6078432
0.7921569 0.3529412 0.6078432
0.8941177 0.3529412 0.6078432
0.0941176 0.4549020 0.6078432
0.1921569 0.4549020 0.6078432
0.2941177 0.4549020 0.6078432
0.3921569 0.4549020 0.6078432
0.4941176 0.4549020 0.6078432
0.5921569 0.4549020 0.6078432
0.6901961 0.4549020 0.6078432
0.7921569 0.4549020 0.6078432
0.8941177 0.4549020 0.6078432
0.0941176 0.5529412 0.6078432
0.1921569 0.5529412 0.6078432
0.2941177 0.5529412 0.6078432
0.3921569 0.5529412 0.6078432
0.4941176 0.5529412 0.6078432
0.5921569 0.5529412 0.6078432
0.6901961 0.5529412 0.6078432
0.7921569 0.5529412 0.6078432
0.8941177 0.5529412 0.6078432
0.0941176 0.6509804 0.6078432
0.1921569 0.6509804 0.6078432
0.2941177 0.6509804 0.6078432
0.3921569 0.6509804 0.6078432
0.4941176 0.6509804 0.6078432
0.5921569 0.6509804 0.6078432
0.6901961 0.6509804 0.6078432
0.7921569 0.6509804 0.6078432
0.8941177 0.6509804 0.6078432
0.0941176 0.7529412 0.6078432
0.1921569 0.7529412 0.6078432
0.2941177 0.7529412 0.6078432
0.3921569 0.7529412 0.6078432
0.4941176 0.7529412 0.6078432
0.5921569 0.7529412 0.6078432
0.6901961 0.7529412 0.6078432
0.7921569 0.7529412 0.6078432
0.8941177 0.7529412 0.6078432
0.0941176 0.8549020 0.6078432
0.1921569 0.8549020 0.6078432
0.2941177 0.8549020 0.6078432
0.3921569 0.8549020 0.6078432
0.4941176 0.8549020 0.6078432
0.5921569 0.8549020 0.6078432
0.6901961 0.8549020 0.6078432
0.7921569 0.8549020 0.6078432
0.8941177 0.8549020 0.6078432
0.0941176 0.0549020 0.7098039
0.1921569 0.0549020 0.7098039
0.2941177 0.0549020 0.7098039
0.3921569 0.0549020 0.7098039
0.4941176 0.0549020 0.7098039
0.5921569 0.0549020 0.7098039
0.6901961 0.0549020 0.7098039
0.7921569 0.0549020 0.7098039
0.8941177 0.0549020 0.7098039
0.0941176 0.1529412 0.7098039
0.1921569 0.1529412 0.7098039
0.2941177 0.1529412 0.7098039
0.3921569 0.1529412 0.7098039
0.4941176 0.1529412 0.7098039
0.5921569 0.1529412 0.7098039
0.6901961 0.1529412 0.7098039
0.7921569 0.1529412 0.7098039
0.8941177 0.1529412 0.7098039
0.0941176 0.2549020 0.7098039
0.1921569 0.2549020 0.7098039
0.2941177 0.2549020 0.7098039
0.3921569 0.2549020 0.7098039
0.4941176 0.2549020 0.7098039
0.5921569 0.2549020 0.7098039
0.6901961 0.2549020 0.7098039
0.7921569 0.2549020 0.7098039
0.8941177 0.2549020 0.7098039
0.0941176 0.3529412 0.7098039
0.1921569 0.3529412 0.7098039
0.2941177 0.3529412 0.7098039
0.3921569 0.3529412 0.7098039
0.4941176 0.3529412 0.7098039
0.5921569 0.3529412 0.7098039
0.6901961 0.3529412 0.7098039
0.7921569 0.3529412 0.7098039
0.8941177 0.3529412 0.7098039
0.0941176 0.4549020 0.7098039
0.1921569 0.4549020 0.7098039
0.2941177 0.4549020 0.7098039
0.3921569 0.4549020 0.7098039
0.4941176 0.4549020 0.7098039
0.5921569 0.4549020 0.7098039
0.6901961 0.4549020 0.7098039
0.7921569 0.4549020 0.7098039
0.8941177 0.4549020 0.7098039
0.0941176 0.5529412 0.7098039
0.1921569 0.5529412 0.7098039
0.2941177 0.5529412 0.7098039
0.3921569 0.5529412 0.7098039
0.4941176 0.5529412 0.7098039
0.5921569 0.5529412 0.7098039
0.6901961 0.5529412 0.7098039
0.7921569 0.5529412 0.7098039
0.8941177 0.5529412 0.7098039
0.0941176 0.6509804 0.7098039
0.1921569 0.6509804 0.7098039
0.2941177 0.6509804 0.7098039
0.3921569 0.6509804 0.7098039
0.4941176 0.6509804 0.7098039
0.5921569 0.6509804 0.7098039
0.6901961 0.6509804 0.7098039
0.7921569 0.6509804 0.7098039
0.8941177 0.6509804 0.7098039
0.0941176 0.7529412 0.7098039
0.1921569 0.7529412 0.7098039
0.2941177 0.7529412 0.7098039
0.3921569 0.7529412 0.7098039
0.4941176 0.7529412 0.7098039
0.5921569 0.7529412 0.7098039
0.6901961 0.7529412 0.7098039
0.7921569 0.7529412 0.7098039
0.8941177 0.7529412 0.7098039
0.0941176 0.8549020 0.7098039
0.1921569 0.8549020 0.7098039
0.2941177 0.8549020 0.7098039
0.3921569 0.8549020 0.7098039
0.4941176 0.8549020 0.7098039
0.5921569 0.8549020 0.7098039
0.6901961 0.8549020 0.7098039
0.7921569 0.8549020 0.7098039
0.8941177 0.8549020 0.7098039
0.0941176 0.0549020 0.8078431
0.1921569 0.0549020 0.8078431
0.2941177 0.0549020 0.8078431
0.3921569 0.0549020 0.8078431
0.4941176 0.0549020 0.8078431
0.5921569 0.0549020 0.8078431
0.6901961 0.0549020 0.8078431
0.7921569 0.0549020 0.8078431
0.8941177 0.0549020 0.8078431
0.0941176 0.1529412 0.8078431
0.1921569 0.1529412 0.8078431
0.2941177 0.1529412 0.8078431
0.3921569 0.1529412 0.8078431
0.4941176 0.1529412 0.8078431
0.5921569 0.1529412 0.8078431
0.6901961 0.1529412 0.8078431
0.7921569 0.1529412 0.8078431
0.8941177 0.1529412 0.8078431
0.0941176 0.2549020 0.8078431
0.1921569 0.2549020 0.8078431
0.2941177 0.2549020 0.8078431
0.3921569 0.2549020 0.8078431
0.4941176 0.2549020 0.8078431
0.5921569 0.2549020 0.8078431
0.6901961 0.2549020 0.8078431
0.7921569 0.2549020 0.8078431
0.8941177 0.2549020 0.8078431
0.0941176 0.3529412 0.8078431
0.1921569 0.3529412 0.8078431
0.2941177 0.3529412 0.8078431
0.3921569 0.3529412 0.8078431
0.4941176 0.3529412 0.8078431
0.5921569 0.3529412 0.8078431
0.6901961 0.3529412 0.8078431
0.7921569 0.3529412 0.8078431
0.8941177 0.3529412 0.8078431
0.0941176 0.4549020 0.8078431
0.1921569 0.4549020 0.8078431
0.2941177 0.4549020 0.8078431
0.3921569 0.4549020 0.8078431
0.4941176 0.4549020 0.8078431
0.5921569 0.4549020 0.8078431
0.6901961 0.4549020 0.8078431
0.7921569 0.4549020 0.8078431
0.8941177 0.4549020 0.8078431
0.0941176 0.5529412 0.8078431
0.1921569 0.5529412 0.8078431
0.2941177 0.5529412 0.8078431
0.3921569 0.5529412 0.8078431
0.4941176 0.5529412 0.8078431
0.5921569 0.5529412 0.8078431
0.6901961 0.5529412 0.8078431
0.7921569 0.5529412 0.8078431
0.8941177 0.5529412 0.8078431
0.0941176 0.6509804 0.8078431
0.1921569 0.6509804 0.8078431
0.2941177 0.6509804 0.8078431
0.3921569 0.6509804 0.8078431
0.4941176 0.6509804 0.8078431
0.5921569 0.6509804 0.8078431
0.6901961 0.6509804 0.8078431
0.7921569 0.6509804 0.8078431
0.8941177 0.6509804 0.8078431
0.0941176 0.7529412 0.8078431
0.1921569 0.7529412 0.8078431
0.2941177 0.7529412 0.8078431
0.3921569 0.7529412 0.8078431
0.4941176 0.7529412 0.8078431
0.5921569 0.7529412 0.8078431
0.6901961 0.7529412 0.8078431
0.7921569 0.7529412 0.8078431
0.8941177 0.7529412 0.8078431
0.0941176 0.8549020 0.8078431
0.1921569 0.8549020 0.8078431
0.2941177 0.8549020 0.8078431
0.3921569 0.8549020 0.8078431
0.4941176 0.8549020 0.8078431
0.5921569 0.8549020 0.8078431
0.6901961 0.8549020 0.8078431
0.7921569 0.8549020 0.8078431
0.8941177 0.8549020 0.8078431
