rust/creative_luts/vintage/lut.cube
TITLE "Pixel Craft Creative: vintage"
LUT_3D_SIZE 5
DOMAIN_MIN 0.0 0.0 0.0
DOMAIN_MAX 1.0 1.0 1.0
0.0941176 0.0549020 0.0078431
0.2941177 0.0549020 0.0078431
0.4941176 0.0549020 0.0078431
0.6901961 0.0549020 0.0078431
0.8941177 0.0549020 0.0078431
0.0941176 0.2549020 0.0078431
0.2941177 0.2549020 0.0078431
0.4941176 0.2549020 0.0078431
0.6901961 0.2549020 0.0078431
0.8941177 0.2549020 0.0078431
0.0941176 0.4549020 0.0078431
0.2941177 0.4549020 0.0078431
0.4941176 0.4549020 0.0078431
0.6901961 0.4549020 0.0078431
0.8941177 0.4549020 0.0078431
0.0941176 0.6509804 0.0078431
0.2941177 0.6509804 0.0078431
0.4941176 0.6509804 0.0078431
0.6901961 0.6509804 0.0078431
0.8941177 0.6509804 0.0078431
0.0941176 0.8549020 0.0078431
0.2941177 0.8549020 0.0078431
0.4941176 0.8549020 0.0078431
0.6901961 0.8549020 0.0078431
0.8941177 0.8549020 0.0078431
0.0941176 0.0549020 0.2078431
0.2941177 0.0549020 0.2078431
0.4941176 0.0549020 0.2078431
0.6901961 0.0549020 0.2078431
0.8941177 0.0549020 0.2078431
0.0941176 0.2549020 0.2078431
0.2941177 0.2549020 0.2078431
0.4941176 0.2549020 0.2078431
0.6901961 0.2549020 0.2078431
0.8941177 0.2549020 0.2078431
0.0941176 0.4549020 0.2078431
0.2941177 0.4549020 0.2078431
0.4941176 0.4549020 0.2078431
0.6901961 0.4549020 0.2078431
0.8941177 0.4549020 0.2078431
0.0941176 0.6509804 0.2078431
0.2941177 0.6509804 0.2078431
0.4941176 0.6509804 0.2078431
0.6901961 0.6509804 0.2078431
0.8941177 0.6509804 0.2078431
0.0941176 0.8549020 0.2078431
0.2941177 0.8549020 0.2078431
0.4941176 0.8549020 0.2078431
0.6901961 0.8549020 0.2078431
0.8941177 0.8549020 0.2078431
0.0941176 0.0549020 0.4117647
0.2941177 0.0549020 0.4117647
0.4941176 0.0549020 0.4117647
0.6901961 0.0549020 0.4117647
0.8941177 0.0549020 0.4117647
0.0941176 0.2549020 0.4117647
0.2941177 0.2549020 0.4117647
0.4941176 0.2549020 0.4117647
0.6901961 0.2549020 0.4117647
0.8941177 0.2549020 0.4117647
0.0941176 0.4549020 0.4117647
0.2941177 0.4549020 0.4117647
0.4941176 0.4549020 0.4117647
0.6901961 0.4549020 0.4117647
0.8941177 0.4549020 0.4117647
0.0941176 0.6509804 0.4117647
0.2941177 0.6509804 0.4117647
0.4941176 0.6509804 0.4117647
0.6901961 0.6509804 0.4117647
0.8941177 0.6509804 0.4117647
0.0941176 0.8549020 0.4117647
0.2941177 0.8549020 0.4117647
0.4941176 0.8549020 0.4117647
0.6901961 0.8549020 0.4117647
0.8941177 0.8549020 0.4117647
0.0941176 0.0549020 0.6078432
0.2941177 0.0549020 0.6078432
0.4941176 0.0549020 0.6078432
0.6901961 0.0549020 0.6078432
0.8941177 0.0549020 0.6078432
0.0941176 0.2549020 0.6078432
0.2941177 0.2549020 0.6078432
0.4941176 0.2549020 0.6078432
0.6901961 0.2549020 0.6078432
0.8941177 0.2549020 0.6078432
0.0941176 0.4549020 0.6078432
0.2941177 0.4549020 0.6078432
0.4941176 0.4549020 0.6078432
0.6901961 0.4549020 0.6078432
0.8941177 0.4549020 0.6078432
0.0941176 0.6509804 0.6078432
0.2941177 0.6509804 0.6078432
0.4941176 0.6509804 0.6078432
0.6901961 0.6509804 0.6078432
0.8941177 0.6509804 0.6078432
0.0941176 0.8549020 0.6078432
0.2941177 0.8549020 0.6078432
0.4941176 0.8549020 0.6078432
0.6901961 0.8549020 0.6078432
0.8941177 0.8549020 0.6078432
0.0941176 0.0549020 0.8078431
0.2941177 0.0549020 0.8078431
0.4941176 0.0549020 0.8078431
0.6901961 0.0549020 0.8078431
0.8941177 0.0549020 0.8078431
0.0941176 0.2549020 0.8078431
0.2941177 0.2549020 0.8078431
0.4941176 0.2549020 0.8078431
0.6901961 0.2549020 0.8078431
0.8941177 0.2549020 0.8078431
0.0941176 0.4549020 0.8078431
0.2941177 0.4549020 0.8078431
0.4941176 0.4549020 0.8078431
0.6901961 0.4549020 0.8078431
0.8941177 0.4549020 0.8078431
0.0941176 0.6509804 0.8078431
0.2941177 0.6509804 0.8078431
0.4941176 0.6509804 0.8078431
0.6901961 0.6509804 0.8078431
0.8941177 0.6509804 0.8078431
0.0941176 0.8549020 0.8078431
0.2941177 0.8549020 0.8078431
0.4941176 0.8549020 0.8078431
0.6901961 0.8549020 0.8078431
0.8941177 0.8549020 0.8078431
