rust/creative_luts/vintage/lut.cube
TITLE "Pixel Craft Creative: vintage"
LUT_3D_SIZE 33
DOMAIN_MIN 0.0 0.0 0.0
DOMAIN_MAX 1.0 1.0 1.0
0.0941176 0.0549020 0.0078431
0.1176471 0.0549020 0.0078431
0.1411765 0.0549020 0.0078431
0.1686275 0.0549020 0.0078431
0.1921569 0.0549020 0.0078431
0.2196078 0.0549020 0.0078431
0.2431373 0.0549020 0.0078431
0.2666667 0.0549020 0.0078431
0.2941177 0.0549020 0.0078431
0.3176471 0.0549020 0.0078431
0.3450980 0.0549020 0.0078431
0.3686275 0.0549020 0.0078431
0.3921569 0.0549020 0.0078431
0.4196078 0.0549020 0.0078431
0.4431373 0.0549020 0.0078431
0.4705882 0.0549020 0.0078431
0.4941176 0.0549020 0.0078431
0.5176471 0.0549020 0.0078431
0.5411765 0.0549020 0.0078431
0.5647059 0.0549020 0.0078431
0.5921569 0.0549020 0.0078431
0.6156863 0.0549020 0.0078431
0.6431373 0.0549020 0.0078431
0.6666667 0.0549020 0.0078431
0.6901961 0.0549020 0.0078431
0.7176471 0.0549020 0.0078431
0.7411765 0.0549020 0.0078431
0.7686275 0.0549020 0.0078431
0.7921569 0.0549020 0.0078431
0.8156863 0.0549020 0.0078431
0.8431373 0.0549020 0.0078431
0.8666667 0.0549020 0.0078431
0.8941177 0.0549020 0.0078431
0.0941176 0.0784314 0.0078431
0.1176471 0.0784314 0.0078431
0.1411765 0.0784314 0.0078431
0.1686275 0.0784314 0.0078431
0.1921569 0.0784314 0.0078431
0.2196078 0.0784314 0.0078431
0.2431373 0.0784314 0.0078431
0.2666667 0.0784314 0.0078431
0.2941177 0.0784314 0.0078431
0.3176471 0.0784314 0.0078431
0.3450980 0.0784314 0.0078431
0.3686275 0.0784314 0.0078431
0.3921569 0.0784314 0.0078431
0.4196078 0.0784314 0.0078431
0.4431373 0.0784314 0.0078431
0.4705882 0.0784314 0.0078431
0.4941176 0.0784314 0.0078431
0.5176471 0.0784314 0.0078431
0.5411765 0.0784314 0.0078431
0.5647059 0.0784314 0.0078431
0.5921569 0.0784314 0.0078431
0.6156863 0.0784314 0.0078431
0.6431373 0.0784314 0.0078431
0.6666667 0.0784314 0.0078431
0.6901961 0.0784314 0.0078431
0.7176471 0.0784314 0.0078431
0.7411765 0.0784314 0.0078431
0.7686275 0.0784314 0.0078431
0.7921569 0.0784314 0.0078431
0.8156863 0.0784314 0.0078431
0.8431373 0.0784314 0.0078431
0.8666667 0.0784314 0.0078431
0.8941177 0.0784314 0.0078431
0.0941176 0.1019608 0.0078431
0.1176471 0.1019608 0.0078431
0.1411765 0.1019608 0.0078431
0.1686275 0.1019608 0.0078431
0.1921569 0.1019608 0.0078431
0.2196078 0.1019608 0.0078431
0.2431373 0.1019608 0.0078431
0.2666667 0.1019608 0.0078431
0.2941177 0.1019608 0.0078431
0.3176471 0.1019608 0.0078431
0.3450980 0.1019608 0.0078431
0.3686275 0.1019608 0.0078431
0.3921569 0.1019608 0.0078431
0.4196078 0.1019608 0.0078431
0.4431373 0.1019608 0.0078431
0.4705882 0.1019608 0.0078431
0.4941176 0.1019608 0.0078431
0.5176471 0.1019608 0.0078431
0.5411765 0.1019608 0.0078431
0.5647059 0.1019608 0.0078431
0.5921569 0.1019608 0.0078431
0.6156863 0.1019608 0.0078431
0.6431373 0.1019608 0.0078431
0.6666667 0.1019608 0.0078431
0.6901961 0.1019608 0.0078431
0.7176471 0.1019608 0.0078431
0.7411765 0.1019608 0.0078431
0.7686275 0.1019608 0.0078431
0.7921569 0.1019608 0.0078431
0.8156863 0.1019608 0.0078431
0.8431373 0.1019608 0.0078431
0.8666667 0.1019608 0.0078431
0.8941177 0.1019608 0.0078431
0.0941176 0.1294118 0.0078431
0.1176471 0.1294118 0.0078431
0.1411765 0.1294118 0.0078431
0.1686275 0.1294118 0.0078431
0.1921569 0.1294118 0.0078431
0.2196078 0.1294118 0.0078431
0.2431373 0.1294118 0.0078431
0.2666667 0.1294118 0.0078431
0.2941177 0.1294118 0.0078431
0.3176471 0.1294118 0.0078431
0.3450980 0.1294118 0.0078431
0.3686275 0.1294118 0.0078431
0.3921569 0.1294118 0.0078431
0.4196078 0.1294118 0.0078431
0.4431373 0.1294118 0.0078431
0.4705882 0.1294118 0.0078431
0.4941176 0.1294118 0.0078431
0.5176471 0.1294118 0.0078431
0.5411765 0.1294118 0.0078431
0.5647059 0.1294118 0.0078431
0.5921569 0.1294118 0.0078431
0.6156863 0.1294118 0.0078431
0.6431373 0.1294118 0.0078431
0.6666667 0.1294118 0.0078431
0.6901961 0.1294118 0.0078431
0.7176471 0.1294118 0.0078431
0.7411765 0.1294118 0.0078431
0.7686275 0.1294118 0.0078431
0.7921569 0.1294118 0.0078431
0.8156863 0.1294118 0.0078431
0.8431373 0.1294118 0.0078431
0.8666667 0.1294118 0.0078431
0.8941177 0.1294118 0.0078431
0.0941176 0.1529412 0.0078431
0.1176471 0.1529412 0.0078431
0.1411765 0.1529412 0.0078431
0.1686275 0.1529412 0.0078431
0.1921569 0.1529412 0.0078431
0.2196078 0.1529412 0.0078431
0.2431373 0.1529412 0.0078431
0.2666667 0.1529412 0.0078431
0.2941177 0.1529412 0.0078431
0.3176471 0.1529412 0.0078431
0.3450980 0.1529412 0.0078431
0.3686275 0.1529412 0.0078431
0.3921569 0.1529412 0.0078431
0.4196078 0.1529412 0.0078431
0.4431373 0.1529412 0.0078431
0.4705882 0.1529412 0.0078431
0.4941176 0.1529412 0.0078431
0.5176471 0.1529412 0.0078431
0.5411765 0.1529412 0.0078431
0.5647059 0.1529412 0.0078431
0.5921569 0.1529412 0.0078431
0.6156863 0.1529412 0.0078431
0.6431373 0.1529412 0.0078431
0.6666667 0.1529412 0.0078431
0.6901961 0.1529412 0.0078431
0.7176471 0.1529412 0.0078431
0.7411765 0.1529412 0.0078431
0.7686275 0.1529412 0.0078431
0.7921569 0.1529412 0.0078431
0.8156863 0.1529412 0.0078431
0.8431373 0.1529412 0.0078431
0.8666667 0.1529412 0.0078431
0.8941177 0.1529412 0.0078431
0.0941176 0.1803922 0.0078431
0.1176471 0.1803922 0.0078431
0.1411765 0.1803922 0.0078431
0.1686275 0.1803922 0.0078431
0.1921569 0.1803922 0.0078431
0.2196078 0.1803922 0.0078431
0.2431373 0.1803922 0.0078431
0.2666667 0.1803922 0.0078431
0.2941177 0.1803922 0.0078431
0.3176471 0.1803922 0.0078431
0.3450980 0.1803922 0.0078431
0.3686275 0.1803922 0.0078431
0.3921569 0.1803922 0.0078431
0.4196078 0.1803922 0.0078431
0.4431373 0.1803922 0.0078431
0.4705882 0.1803922 0.0078431
0.4941176 0.1803922 0.0078431
0.5176471 0.1803922 0.0078431
0.5411765 0.1803922 0.0078431
0.5647059 0.1803922 0.0078431
0.5921569 0.1803922 0.0078431
0.6156863 0.1803922 0.0078431
0.6431373 0.1803922 0.0078431
0.6666667 0.1803922 0.0078431
0.6901961 0.1803922 0.0078431
0.7176471 0.1803922 0.0078431
0.7411765 0.1803922 0.0078431
0.7686275 0.1803922 0.0078431
0.7921569 0.1803922 0.0078431
0.8156863 0.1803922 0.0078431
0.8431373 0.1803922 0.0078431
0.8666667 0.1803922 0.0078431
0.8941177 0.1803922 0.0078431
0.0941176 0.2039216 0.0078431
0.1176471 0.2039216 0.0078431
0.1411765 0.2039216 0.0078431
0.1686275 0.2039216 0.0078431
0.1921569 0.2039216 0.0078431
0.2196078 0.2039216 0.0078431
0.2431373 0.2039216 0.0078431
0.2666667 0.2039216 0.0078431
0.2941177 0.2039216 0.0078431
0.3176471 0.2039216 0.0078431
0.3450980 0.2039216 0.0078431
0.3686275 0.2039216 0.0078431
0.3921569 0.2039216 0.0078431
0.4196078 0.2039216 0.0078431
0.4431373 0.2039216 0.0078431
0.4705882 0.2039216 0.0078431
0.4941176 0.2039216 0.0078431
0.5176471 0.2039216 0.0078431
0.5411765 0.2039216 0.0078431
0.5647059 0.2039216 0.0078431
0.5921569 0.2039216 0.0078431
0.6156863 0.2039216 0.0078431
0.6431373 0.2039216 0.0078431
0.6666667 0.2039216 0.0078431
0.6901961 0.2039216 0.0078431
0.7176471 0.2039216 0.0078431
0.7411765 0.2039216 0.0078431
0.7686275 0.2039216 0.0078431
0.7921569 0.2039216 0.0078431
0.8156863 0.2039216 0.0078431
0.8431373 0.2039216 0.0078431
0.8666667 0.2039216 0.0078431
0.8941177 0.2039216 0.0078431
0.0941176 0.2274510 0.0078431
0.1176471 0.2274510 0.0078431
0.1411765 0.2274510 0.0078431
0.1686275 0.2274510 0.0078431
0.1921569 0.2274510 0.0078431
0.2196078 0.2274510 0.0078431
0.2431373 0.2274510 0.0078431
0.2666667 0.2274510 0.0078431
0.2941177 0.2274510 0.0078431
0.3176471 0.2274510 0.0078431
0.3450980 0.2274510 0.0078431
0.3686275 0.2274510 0.0078431
0.3921569 0.2274510 0.0078431
0.4196078 0.2274510 0.0078431
0.4431373 0.2274510 0.0078431
0.4705882 0.2274510 0.0078431
0.4941176 0.2274510 0.0078431
0.5176471 0.2274510 0.0078431
0.5411765 0.2274510 0.0078431
0.5647059 0.2274510 0.0078431
0.5921569 0.2274510 0.0078431
0.6156863 0.2274510 0.0078431
0.6431373 0.2274510 0.0078431
0.6666667 0.2274510 0.0078431
0.6901961 0.2274510 0.0078431
0.7176471 0.2274510 0.0078431
0.7411765 0.2274510 0.0078431
0.7686275 0.2274510 0.0078431
0.7921569 0.2274510 0.0078431
0.8156863 0.2274510 0.0078431
0.8431373 0.2274510 0.0078431
0.8666667 0.2274510 0.0078431
0.8941177 0.2274510 0.0078431
0.0941176 0.2549020 0.0078431
0.1176471 0.2549020 0.0078431
0.1411765 0.2549020 0.0078431
0.1686275 0.2549020 0.0078431
0.1921569 0.2549020 0.0078431
0.2196078 0.2549020 0.0078431
0.2431373 0.2549020 0.0078431
0.2666667 0.2549020 0.0078431
0.2941177 0.2549020 0.0078431
0.3176471 0.2549020 0.0078431
0.3450980 0.2549020 0.0078431
0.3686275 0.2549020 0.0078431
0.3921569 0.2549020 0.0078431
0.4196078 0.2549020 0.0078431
0.4431373 0.2549020 0.0078431
0.4705882 0.2549020 0.0078431
0.4941176 0.2549020 0.0078431
0.5176471 0.2549020 0.0078431
0.5411765 0.2549020 0.0078431
0.5647059 0.2549020 0.0078431
0.5921569 0.2549020 0.0078431
0.6156863 0.2549020 0.0078431
0.6431373 0.2549020 0.0078431
0.6666667 0.2549020 0.0078431
0.6901961 0.2549020 0.0078431
0.7176471 0.2549020 0.0078431
0.7411765 0.2549020 0.0078431
0.7686275 0.2549020 0.0078431
0.7921569 0.2549020 0.0078431
0.8156863 0.2549020 0.0078431
0.8431373 0.2549020 0.0078431
0.8666667 0.2549020 0.0078431
0.8941177 0.2549020 0.0078431
0.0941176 0.2784314 0.0078431
0.1176471 0.2784314 0.0078431
0.1411765 0.2784314 0.0078431
0.1686275 0.2784314 0.0078431
0.1921569 0.2784314 0.0078431
0.2196078 0.2784314 0.0078431
0.2431373 0.2784314 0.0078431
0.2666667 0.2784314 0.0078431
0.2941177 0.2784314 0.0078431
0.3176471 0.2784314 0.0078431
0.3450980 0.2784314 0.0078431
0.3686275 0.2784314 0.0078431
0.3921569 0.2784314 0.0078431
0.4196078 0.2784314 0.0078431
0.4431373 0.2784314 0.0078431
0.4705882 0.2784314 0.0078431
0.4941176 0.2784314 0.0078431
0.5176471 0.2784314 0.0078431
0.5411765 0.2784314 0.0078431
0.5647059 0.2784314 0.0078431
0.5921569 0.2784314 0.0078431
0.6156863 0.2784314 0.0078431
0.6431373 0.2784314 0.0078431
0.6666667 0.2784314 0.0078431
0.6901961 0.2784314 0.0078431
0.7176471 0.2784314 0.0078431
0.7411765 0.2784314 0.0078431
0.7686275 0.2784314 0.0078431
0.7921569 0.2784314 0.0078431
0.8156863 0.2784314 0.0078431
0.8431373 0.2784314 0.0078431
0.8666667 0.2784314 0.0078431
0.8941177 0.2784314 0.0078431
0.0941176 0.3058824 0.0078431
0.1176471 0.3058824 0.0078431
0.1411765 0.3058824 0.0078431
0.1686275 0.3058824 0.0078431
0.1921569 0.3058824 0.0078431
0.2196078 0.3058824 0.0078431
0.2431373 0.3058824 0.0078431
0.2666667 0.3058824 0.0078431
0.2941177 0.3058824 0.0078431
0.3176471 0.3058824 0.0078431
0.3450980 0.3058824 0.0078431
0.3686275 0.3058824 0.0078431
0.3921569 0.3058824 0.0078431
0.4196078 0.3058824 0.0078431
0.4431373 0.3058824 0.0078431
0.4705882 0.3058824 0.0078431
0.4941176 0.3058824 0.0078431
0.5176471 0.3058824 0.0078431
0.5411765 0.3058824 0.0078431
0.5647059 0.3058824 0.0078431
0.5921569 0.3058824 0.0078431
0.6156863 0.3058824 0.0078431
0.6431373 0.3058824 0.0078431
0.6666667 0.3058824 0.0078431
0.6901961 0.3058824 0.0078431
0.7176471 0.3058824 0.0078431
0.7411765 0.3058824 0.0078431
0.7686275 0.3058824 0.0078431
0.7921569 0.3058824 0.0078431
0.8156863 0.3058824 0.0078431
0.8431373 0.3058824 0.0078431
0.8666667 0.3058824 0.0078431
0.8941177 0.3058824 0.0078431
0.0941176 0.3294118 0.0078431
0.1176471 0.3294118 0.0078431
0.1411765 0.3294118 0.0078431
0.1686275 0.3294118 0.0078431
0.1921569 0.3294118 0.0078431
0.2196078 0.3294118 0.0078431
0.2431373 0.3294118 0.0078431
0.2666667 0.3294118 0.0078431
0.2941177 0.3294118 0.0078431
0.3176471 0.3294118 0.0078431
0.3450980 0.3294118 0.0078431
0.3686275 0.3294118 0.0078431
0.3921569 0.3294118 0.0078431
0.4196078 0.3294118 0.0078431
0.4431373 0.3294118 0.0078431
0.4705882 0.3294118 0.0078431
0.4941176 0.3294118 0.0078431
0.5176471 0.3294118 0.0078431
0.5411765 0.3294118 0.0078431
0.5647059 0.3294118 0.0078431
0.5921569 0.3294118 0.0078431
0.6156863 0.3294118 0.0078431
0.6431373 0.3294118 0.0078431
0.6666667 0.3294118 0.0078431
0.6901961 0.3294118 0.0078431
0.7176471 0.3294118 0.0078431
0.7411765 0.3294118 0.0078431
0.7686275 0.3294118 0.0078431
0.7921569 0.3294118 0.0078431
0.8156863 0.3294118 0.0078431
0.8431373 0.3294118 0.0078431
0.8666667 0.3294118 0.0078431
0.8941177 0.3294118 0.0078431
0.0941176 0.3529412 0.0078431
0.1176471 0.3529412 0.0078431
0.1411765 0.3529412 0.0078431
0.1686275 0.3529412 0.0078431
0.1921569 0.3529412 0.0078431
0.2196078 0.3529412 0.0078431
0.2431373 0.3529412 0.0078431
0.2666667 0.3529412 0.0078431
0.2941177 0.3529412 0.0078431
0.3176471 0.3529412 0.0078431
0.3450980 0.3529412 0.0078431
0.3686275 0.3529412 0.0078431
0.3921569 0.3529412 0.0078431
0.4196078 0.3529412 0.0078431
0.4431373 0.3529412 0.0078431
0.4705882 0.3529412 0.0078431
0.4941176 0.3529412 0.0078431
0.5176471 0.3529412 0.0078431
0.5411765 0.3529412 0.0078431
0.5647059 0.3529412 0.0078431
0.5921569 0.3529412 0.0078431
0.6156863 0.3529412 0.0078431
0.6431373 0.3529412 0.0078431
0.6666667 0.3529412 0.0078431
0.6901961 0.3529412 0.0078431
0.7176471 0.3529412 0.0078431
0.7411765 0.3529412 0.0078431
0.7686275 0.3529412 0.0078431
0.7921569 0.3529412 0.0078431
0.8156863 0.3529412 0.0078431
0.8431373 0.3529412 0.0078431
0.8666667 0.3529412 0.0078431
0.8941177 0.3529412 0.0078431
0.0941176 0.3803922 0.0078431
0.1176471 0.3803922 0.0078431
0.1411765 0.3803922 0.0078431
0.1686275 0.3803922 0.0078431
0.1921569 0.3803922 0.0078431
0.2196078 0.3803922 0.0078431
0.2431373 0.3803922 0.0078431
0.2666667 0.3803922 0.0078431
0.2941177 0.3803922 0.0078431
0.3176471 0.3803922 0.0078431
0.3450980 0.3803922 0.0078431
0.3686275 0.3803922 0.0078431
0.3921569 0.3803922 0.0078431
0.4196078 0.3803922 0.0078431
0.4431373 0.3803922 0.0078431
0.4705882 0.3803922 0.0078431
0.4941176 0.3803922 0.0078431
0.5176471 0.3803922 0.0078431
0.5411765 0.3803922 0.0078431
0.5647059 0.3803922 0.0078431
0.5921569 0.3803922 0.0078431
0.6156863 0.3803922 0.0078431
0.6431373 0.3803922 0.0078431
0.6666667 0.3803922 0.0078431
0.6901961 0.3803922 0.0078431
0.7176471 0.3803922 0.0078431
0.7411765 0.3803922 0.0078431
0.7686275 0.3803922 0.0078431
0.7921569 0.3803922 0.0078431
0.8156863 0.3803922 0.0078431
0.8431373 0.3803922 0.0078431
0.8666667 0.3803922 0.0078431
0.8941177 0.3803922 0.0078431
0.0941176 0.4039216 0.0078431
0.1176471 0.4039216 0.0078431
0.1411765 0.4039216 0.0078431
0.1686275 0.4039216 0.0078431
0.1921569 0.4039216 0.0078431
0.2196078 0.4039216 0.0078431
0.2431373 0.4039216 0.0078431
0.2666667 0.4039216 0.0078431
0.2941177 0.4039216 0.0078431
0.3176471 0.4039216 0.0078431
0.3450980 0.4039216 0.0078431
0.3686275 0.4039216 0.0078431
0.3921569 0.4039216 0.0078431
0.4196078 0.4039216 0.0078431
0.4431373 0.4039216 0.0078431
0.4705882 0.4039216 0.0078431
0.4941176 0.4039216 0.0078431
0.5176471 0.4039216 0.0078431
0.5411765 0.4039216 0.0078431
0.5647059 0.4039216 0.0078431
0.5921569 0.4039216 0.0078431
0.6156863 0.4039216 0.0078431
0.6431373 0.4039216 0.0078431
0.6666667 0.4039216 0.0078431
0.6901961 0.4039216 0.0078431
0.7176471 0.4039216 0.0078431
0.7411765 0.4039216 0.0078431
0.7686275 0.4039216 0.0078431
0.7921569 0.4039216 0.0078431
0.8156863 0.4039216 0.0078431
0.8431373 0.4039216 0.0078431
0.8666667 0.4039216 0.0078431
0.8941177 0.4039216 0.0078431
0.0941176 0.4313726 0.0078431
0.1176471 0.4313726 0.0078431
0.1411765 0.4313726 0.0078431
0.1686275 0.4313726 0.0078431
0.1921569 0.4313726 0.0078431
0.2196078 0.4313726 0.0078431
0.2431373 0.4313726 0.0078431
0.2666667 0.4313726 0.0078431
0.2941177 0.4313726 0.0078431
0.3176471 0.4313726 0.0078431
0.3450980 0.4313726 0.0078431
0.3686275 0.4313726 0.0078431
0.3921569 0.4313726 0.0078431
0.4196078 0.4313726 0.0078431
0.4431373 0.4313726 0.0078431
0.4705882 0.4313726 0.0078431
0.4941176 0.4313726 0.0078431
0.5176471 0.4313726 0.0078431
0.5411765 0.4313726 0.0078431
0.5647059 0.4313726 0.0078431
0.5921569 0.4313726 0.0078431
0.6156863 0.4313726 0.0078431
0.6431373 0.4313726 0.0078431
0.6666667 0.4313726 0.0078431
0.6901961 0.4313726 0.0078431
0.7176471 0.4313726 0.0078431
0.7411765 0.4313726 0.0078431
0.7686275 0.4313726 0.0078431
0.7921569 0.4313726 0.0078431
0.8156863 0.4313726 0.0078431
0.8431373 0.4313726 0.0078431
0.8666667 0.4313726 0.0078431
0.8941177 0.4313726 0.0078431
0.0941176 0.4549020 0.0078431
0.1176471 0.4549020 0.0078431
0.1411765 0.4549020 0.0078431
0.1686275 0.4549020 0.0078431
0.1921569 0.4549020 0.0078431
0.2196078 0.4549020 0.0078431
0.2431373 0.4549020 0.0078431
0.2666667 0.4549020 0.0078431
0.2941177 0.4549020 0.0078431
0.3176471 0.4549020 0.0078431
0.3450980 0.4549020 0.0078431
0.3686275 0.4549020 0.0078431
0.3921569 0.4549020 0.0078431
0.4196078 0.4549020 0.0078431
0.4431373 0.4549020 0.0078431
0.4705882 0.4549020 0.0078431
0.4941176 0.4549020 0.0078431
0.5176471 0.4549020 0.0078431
0.5411765 0.4549020 0.0078431
0.5647059 0.4549020 0.0078431
0.5921569 0.4549020 0.0078431
0.6156863 0.4549020 0.0078431
0.6431373 0.4549020 0.0078431
0.6666667 0.4549020 0.0078431
0.6901961 0.4549020 0.0078431
0.7176471 0.4549020 0.0078431
0.7411765 0.4549020 0.0078431
0.7686275 0.4549020 0.0078431
0.7921569 0.4549020 0.0078431
0.8156863 0.4549020 0.0078431
0.8431373 0.4549020 0.0078431
0.8666667 0.4549020 0.0078431
0.8941177 0.4549020 0.0078431
0.0941176 0.4784314 0.0078431
0.1176471 0.4784314 0.0078431
0.1411765 0.4784314 0.0078431
0.1686275 0.4784314 0.0078431
0.1921569 0.4784314 0.0078431
0.2196078 0.4784314 0.0078431
0.2431373 0.4784314 0.0078431
0.2666667 0.4784314 0.0078431
0.2941177 0.4784314 0.0078431
0.3176471 0.4784314 0.0078431
0.3450980 0.4784314 0.0078431
0.3686275 0.4784314 0.0078431
0.3921569 0.4784314 0.0078431
0.4196078 0.4784314 0.0078431
0.4431373 0.4784314 0.0078431
0.4705882 0.4784314 0.0078431
0.4941176 0.4784314 0.0078431
0.5176471 0.4784314 0.0078431
0.5411765 0.4784314 0.0078431
0.5647059 0.4784314 0.0078431
0.5921569 0.4784314 0.0078431
0.6156863 0.4784314 0.0078431
0.6431373 0.4784314 0.0078431
0.6666667 0.4784314 0.0078431
0.6901961 0.4784314 0.0078431
0.7176471 0.4784314 0.0078431
0.7411765 0.4784314 0.0078431
0.7686275 0.4784314 0.0078431
0.7921569 0.4784314 0.0078431
0.8156863 0.4784314 0.0078431
0.8431373 0.4784314 0.0078431
0.8666667 0.4784314 0.0078431
0.8941177 0.4784314 0.0078431
0.0941176 0.5019608 0.0078431
0.1176471 0.5019608 0.0078431
0.1411765 0.5019608 0.0078431
0.1686275 0.5019608 0.0078431
0.1921569 0.5019608 0.0078431
0.2196078 0.5019608 0.0078431
0.2431373 0.5019608 0.0078431
0.2666667 0.5019608 0.0078431
0.2941177 0.5019608 0.0078431
0.3176471 0.5019608 0.0078431
0.3450980 0.5019608 0.0078431
0.3686275 0.5019608 0.0078431
0.3921569 0.5019608 0.0078431
0.4196078 0.5019608 0.0078431
0.4431373 0.5019608 0.0078431
0.4705882 0.5019608 0.0078431
0.4941176 0.5019608 0.0078431
0.5176471 0.5019608 0.0078431
0.5411765 0.5019608 0.0078431
0.5647059 0.5019608 0.0078431
0.5921569 0.5019608 0.0078431
0.6156863 0.5019608 0.0078431
0.6431373 0.5019608 0.0078431
0.6666667 0.5019608 0.0078431
0.6901961 0.5019608 0.0078431
0.7176471 0.5019608 0.0078431
0.7411765 0.5019608 0.0078431
0.7686275 0.5019608 0.0078431
0.7921569 0.5019608 0.0078431
0.8156863 0.5019608 0.0078431
0.8431373 0.5019608 0.0078431
0.8666667 0.5019608 0.0078431
0.8941177 0.5019608 0.0078431
0.0941176 0.5254902 0.0078431
0.1176471 0.5254902 0.0078431
0.1411765 0.5254902 0.0078431
0.1686275 0.5254902 0.0078431
0.1921569 0.5254902 0.0078431
0.2196078 0.5254902 0.0078431
0.2431373 0.5254902 0.0078431
0.2666667 0.5254902 0.0078431
0.2941177 0.5254902 0.0078431
0.3176471 0.5254902 0.0078431
0.3450980 0.5254902 0.0078431
0.3686275 0.5254902 0.0078431
0.3921569 0.5254902 0.0078431
0.4196078 0.5254902 0.0078431
0.4431373 0.5254902 0.0078431
0.4705882 0.5254902 0.0078431
0.4941176 0.5254902 0.0078431
0.5176471 0.5254902 0.0078431
0.5411765 0.5254902 0.0078431
0.5647059 0.5254902 0.0078431
0.5921569 0.5254902 0.0078431
0.6156863 0.5254902 0.0078431
0.6431373 0.5254902 0.0078431
0.6666667 0.5254902 0.0078431
0.6901961 0.5254902 0.0078431
0.7176471 0.5254902 0.0078431
0.7411765 0.5254902 0.0078431
0.7686275 0.5254902 0.0078431
0.7921569 0.5254902 0.0078431
0.8156863 0.5254902 0.0078431
0.8431373 0.5254902 0.0078431
0.8666667 0.5254902 0.0078431
0.8941177 0.5254902 0.0078431
0.0941176 0.5529412 0.0078431
0.1176471 0.5529412 0.0078431
0.1411765 0.5529412 0.0078431
0.1686275 0.5529412 0.0078431
0.1921569 0.5529412 0.0078431
0.2196078 0.5529412 0.0078431
0.2431373 0.5529412 0.0078431
0.2666667 0.5529412 0.0078431
0.2941177 0.5529412 0.0078431
0.3176471 0.5529412 0.0078431
0.3450980 0.5529412 0.0078431
0.3686275 0.5529412 0.0078431
0.3921569 0.5529412 0.0078431
0.4196078 0.5529412 0.0078431
0.4431373 0.5529412 0.0078431
0.4705882 0.5529412 0.0078431
0.4941176 0.5529412 0.0078431
0.5176471 0.5529412 0.0078431
0.5411765 0.5529412 0.0078431
0.5647059 0.5529412 0.0078431
0.5921569 0.5529412 0.0078431
0.6156863 0.5529412 0.0078431
0.6431373 0.5529412 0.0078431
0.6666667 0.5529412 0.0078431
0.6901961 0.5529412 0.0078431
0.7176471 0.5529412 0.0078431
0.7411765 0.5529412 0.0078431
0.7686275 0.5529412 0.0078431
0.7921569 0.5529412 0.0078431
0.8156863 0.5529412 0.0078431
0.8431373 0.5529412 0.0078431
0.8666667 0.5529412 0.0078431
0.8941177 0.5529412 0.0078431
0.0941176 0.5764706 0.0078431
0.1176471 0.5764706 0.0078431
0.1411765 0.5764706 0.0078431
0.1686275 0.5764706 0.0078431
0.1921569 0.5764706 0.0078431
0.2196078 0.5764706 0.0078431
0.2431373 0.5764706 0.0078431
0.2666667 0.5764706 0.0078431
0.2941177 0.5764706 0.0078431
0.3176471 0.5764706 0.0078431
0.3450980 0.5764706 0.0078431
0.3686275 0.5764706 0.0078431
0.3921569 0.5764706 0.0078431
0.4196078 0.5764706 0.0078431
0.4431373 0.5764706 0.0078431
0.4705882 0.5764706 0.0078431
0.4941176 0.5764706 0.0078431
0.5176471 0.5764706 0.0078431
0.5411765 0.5764706 0.0078431
0.5647059 0.5764706 0.0078431
0.5921569 0.5764706 0.0078431
0.6156863 0.5764706 0.0078431
0.6431373 0.5764706 0.0078431
0.6666667 0.5764706 0.0078431
0.6901961 0.5764706 0.0078431
0.7176471 0.5764706 0.0078431
0.7411765 0.5764706 0.0078431
0.7686275 0.5764706 0.0078431
0.7921569 0.5764706 0.0078431
0.8156863 0.5764706 0.0078431
0.8431373 0.5764706 0.0078431
0.8666667 0.5764706 0.0078431
0.8941177 0.5764706 0.0078431
0.0941176 0.6039216 0.0078431
0.1176471 0.6039216 0.0078431
0.1411765 0.6039216 0.0078431
0.1686275 0.6039216 0.0078431
0.1921569 0.6039216 0.0078431
0.2196078 0.6039216 0.0078431
0.2431373 0.6039216 0.0078431
0.2666667 0.6039216 0.0078431
0.2941177 0.6039216 0.0078431
0.3176471 0.6039216 0.0078431
0.3450980 0.6039216 0.0078431
0.3686275 0.6039216 0.0078431
0.3921569 0.6039216 0.0078431
0.4196078 0.6039216 0.0078431
0.4431373 0.6039216 0.0078431
0.4705882 0.6039216 0.0078431
0.4941176 0.6039216 0.0078431
0.5176471 0.6039216 0.0078431
0.5411765 0.6039216 0.0078431
0.5647059 0.6039216 0.0078431
0.5921569 0.6039216 0.0078431
0.6156863 0.6039216 0.0078431
0.6431373 0.6039216 0.0078431
0.6666667 0.6039216 0.0078431
0.6901961 0.6039216 0.0078431
0.7176471 0.6039216 0.0078431
0.7411765 0.6039216 0.0078431
0.7686275 0.6039216 0.0078431
0.7921569 0.6039216 0.0078431
0.8156863 0.6039216 0.0078431
0.8431373 0.6039216 0.0078431
0.8666667 0.6039216 0.0078431
0.8941177 0.6039216 0.0078431
0.0941176 0.6274510 0.0078431
0.1176471 0.6274510 0.0078431
0.1411765 0.6274510 0.0078431
0.1686275 0.6274510 0.0078431
0.1921569 0.6274510 0.0078431
0.2196078 0.6274510 0.0078431
0.2431373 0.6274510 0.0078431
0.2666667 0.6274510 0.0078431
0.2941177 0.6274510 0.0078431
0.3176471 0.6274510 0.0078431
0.3450980 0.6274510 0.0078431
0.3686275 0.6274510 0.0078431
0.3921569 0.6274510 0.0078431
0.4196078 0.6274510 0.0078431
0.4431373 0.6274510 0.0078431
0.4705882 0.6274510 0.0078431
0.4941176 0.6274510 0.0078431
0.5176471 0.6274510 0.0078431
0.5411765 0.6274510 0.0078431
0.5647059 0.6274510 0.0078431
0.5921569 0.6274510 0.0078431
0.6156863 0.6274510 0.0078431
0.6431373 0.6274510 0.0078431
0.6666667 0.6274510 0.0078431
0.6901961 0.6274510 0.0078431
0.7176471 0.6274510 0.0078431
0.7411765 0.6274510 0.0078431
0.7686275 0.6274510 0.0078431
0.7921569 0.6274510 0.0078431
0.8156863 0.6274510 0.0078431
0.8431373 0.6274510 0.0078431
0.8666667 0.6274510 0.0078431
0.8941177 0.6274510 0.0078431
0.0941176 0.6509804 0.0078431
0.1176471 0.6509804 0.0078431
0.1411765 0.6509804 0.0078431
0.1686275 0.6509804 0.0078431
