rust/creative_luts/pastel_pink/lut.cube
TITLE "Pixel Craft Creative: pastel_pink"
LUT_3D_SIZE 33
DOMAIN_MIN 0.0 0.0 0.0
DOMAIN_MAX 1.0 1.0 1.0
0.2627451 0.0000000 0.0000000
0.3019608 0.0000000 0.0000000
0.3411765 0.0000000 0.0000000
0.3803922 0.0000000 0.0000000
0.4196078 0.0000000 0.0000000
0.4588235 0.0000000 0.0000000
0.5019608 0.0000000 0.0000000
0.5411765 0.0000000 0.0000000
0.5803922 0.0000000 0.0000000
0.6196079 0.0000000 0.0000000
0.6588235 0.0000000 0.0000000
0.6980392 0.0000000 0.0000000
0.7372549 0.0000000 0.0000000
0.7764706 0.0000000 0.0000000
0.8156863 0.0000000 0.0000000
0.8588235 0.0000000 0.0000000
0.8980392 0.0000000 0.0000000
0.9294118 0.0000000 0.0000000
0.9725490 0.0000000 0.0000000
1.0000000 0.0000000 0.0000000
1.0000000 0.0000000 0.0000000
1.0000000 0.0000000 0.0000000
1.0000000 0.0000000 0.0000000
1.0000000 0.0000000 0.0000000
1.0000000 0.0000000 0.0000000
1.0000000 0.0000000 0.0000000
1.0000000 0.0000000 0.0000000
1.0000000 0.0000000 0.0000000
1.0000000 0.0000000 0.0000000
1.0000000 0.0000000 0.0000000
1.0000000 0.0000000 0.0000000
1.0000000 0.0000000 0.0000000
1.0000000 0.0000000 0.0000000
0.2627451 0.0000000 0.0000000
0.3019608 0.0000000 0.0000000
0.3411765 0.0000000 0.0000000
0.3803922 0.0000000 0.0000000
0.4196078 0.0000000 0.0000000
0.4588235 0.0000000 0.0000000
0.5019608 0.0000000 0.0000000
0.5411765 0.0000000 0.0000000
0.5803922 0.0000000 0.0000000
0.6196079 0.0000000 0.0000000
0.6588235 0.0000000 0.0000000
0.6980392 0.0000000 0.0000000
0.7372549 0.0000000 0.0000000
0.7764706 0.0000000 0.0000000
0.8156863 0.0000000 0.0000000
0.8588235 0.0000000 0.0000000
0.8980392 0.0000000 0.0000000
0.9294118 0.0000000 0.0000000
0.9725490 0.0000000 0.0000000
1.0000000 0.0000000 0.0000000
1.0000000 0.0000000 0.0000000
1.0000000 0.0000000 0.0000000
1.0000000 0.0000000 0.0000000
1.0000000 0.0000000 0.0000000
1.0000000 0.0000000 0.0000000
1.0000000 0.0000000 0.0000000
1.0000000 0.0000000 0.0000000
1.0000000 0.0000000 0.0000000
1.0000000 0.0000000 0.0000000
1.0000000 0.0000000 0.0000000
1.0000000 0.0000000 0.0000000
1.0000000 0.0000000 0.0000000
1.0000000 0.0000000 0.0000000
0.2627451 0.0039216 0.0000000
0.3019608 0.0039216 0.0000000
0.3411765 0.0039216 0.0000000
0.3803922 0.0039216 0.0000000
0.4196078 0.0039216 0.0000000
0.4588235 0.0039216 0.0000000
0.5019608 0.0039216 0.0000000
0.5411765 0.0039216 0.0000000
0.5803922 0.0039216 0.0000000
0.6196079 0.0039216 0.0000000
0.6588235 0.0039216 0.0000000
0.6980392 0.0039216 0.0000000
0.7372549 0.0039216 0.0000000
0.7764706 0.0039216 0.0000000
0.8156863 0.0039216 0.0000000
0.8588235 0.0039216 0.0000000
0.8980392 0.0039216 0.0000000
0.9294118 0.0039216 0.0000000
0.9725490 0.0039216 0.0000000
1.0000000 0.0039216 0.0000000
1.0000000 0.0039216 0.0000000
1.0000000 0.0039216 0.0000000
1.0000000 0.0039216 0.0000000
1.0000000 0.0039216 0.0000000
1.0000000 0.0039216 0.0000000
1.0000000 0.0039216 0.0000000
1.0000000 0.0039216 0.0000000
1.0000000 0.0039216 0.0000000
1.0000000 0.0039216 0.0000000
1.0000000 0.0039216 0.0000000
1.0000000 0.0039216 0.0000000
1.0000000 0.0039216 0.0000000
1.0000000 0.0039216 0.0000000
0.2627451 0.0431373 0.0000000
0.3019608 0.0431373 0.0000000
0.3411765 0.0431373 0.0000000
0.3803922 0.0431373 0.0000000
0.4196078 0.0431373 0.0000000
0.4588235 0.0431373 0.0000000
0.5019608 0.0431373 0.0000000
0.5411765 0.0431373 0.0000000
0.5803922 0.0431373 0.0000000
0.6196079 0.0431373 0.0000000
0.6588235 0.0431373 0.0000000
0.6980392 0.0431373 0.0000000
0.7372549 0.0431373 0.0000000
0.7764706 0.0431373 0.0000000
0.8156863 0.0431373 0.0000000
0.8588235 0.0431373 0.0000000
0.8980392 0.0431373 0.0000000
0.9294118 0.0431373 0.0000000
0.9725490 0.0431373 0.0000000
1.0000000 0.0431373 0.0000000
1.0000000 0.0431373 0.0000000
1.0000000 0.0431373 0.0000000
1.0000000 0.0431373 0.0000000
1.0000000 0.0431373 0.0000000
1.0000000 0.0431373 0.0000000
1.0000000 0.0431373 0.0000000
1.0000000 0.0431373 0.0000000
1.0000000 0.0431373 0.0000000
1.0000000 0.0431373 0.0000000
1.0000000 0.0431373 0.0000000
1.0000000 0.0431373 0.0000000
1.0000000 0.0431373 0.0000000
1.0000000 0.0431373 0.0000000
0.2627451 0.0823529 0.0000000
0.3019608 0.0823529 0.0000000
0.3411765 0.0823529 0.0000000
0.3803922 0.0823529 0.0000000
0.4196078 0.0823529 0.0000000
0.4588235 0.0823529 0.0000000
0.5019608 0.0823529 0.0000000
0.5411765 0.0823529 0.0000000
0.5803922 0.0823529 0.0000000
0.6196079 0.0823529 0.0000000
0.6588235 0.0823529 0.0000000
0.6980392 0.0823529 0.0000000
0.7372549 0.0823529 0.0000000
0.7764706 0.0823529 0.0000000
0.8156863 0.0823529 0.0000000
0.8588235 0.0823529 0.0000000
0.8980392 0.0823529 0.0000000
0.9294118 0.0823529 0.0000000
0.9725490 0.0823529 0.0000000
1.0000000 0.0823529 0.0000000
1.0000000 0.0823529 0.0000000
1.0000000 0.0823529 0.0000000
1.0000000 0.0823529 0.0000000
1.0000000 0.0823529 0.0000000
1.0000000 0.0823529 0.0000000
1.0000000 0.0823529 0.0000000
1.0000000 0.0823529 0.0000000
1.0000000 0.0823529 0.0000000
1.0000000 0.0823529 0.0000000
1.0000000 0.0823529 0.0000000
1.0000000 0.0823529 0.0000000
1.0000000 0.0823529 0.0000000
1.0000000 0.0823529 0.0000000
0.2627451 0.1215686 0.0000000
0.3019608 0.1215686 0.0000000
0.3411765 0.1215686 0.0000000
0.3803922 0.1215686 0.0000000
0.4196078 0.1215686 0.0000000
0.4588235 0.1215686 0.0000000
0.5019608 0.1215686 0.0000000
0.5411765 0.1215686 0.0000000
0.5803922 0.1215686 0.0000000
0.6196079 0.1215686 0.0000000
0.6588235 0.1215686 0.0000000
0.6980392 0.1215686 0.0000000
0.7372549 0.1215686 0.0000000
0.7764706 0.1215686 0.0000000
0.8156863 0.1215686 0.0000000
0.8588235 0.1215686 0.0000000
0.8980392 0.1215686 0.0000000
0.9294118 0.1215686 0.0000000
0.9725490 0.1215686 0.0000000
1.0000000 0.1215686 0.0000000
1.0000000 0.1215686 0.0000000
1.0000000 0.1215686 0.0000000
1.0000000 0.1215686 0.0000000
1.0000000 0.1215686 0.0000000
1.0000000 0.1215686 0.0000000
1.0000000 0.1215686 0.0000000
1.0000000 0.1215686 0.0000000
1.0000000 0.1215686 0.0000000
1.0000000 0.1215686 0.0000000
1.0000000 0.1215686 0.0000000
1.0000000 0.1215686 0.0000000
1.0000000 0.1215686 0.0000000
1.0000000 0.1215686 0.0000000
0.2627451 0.1647059 0.0000000
0.3019608 0.1647059 0.0000000
0.3411765 0.1647059 0.0000000
0.3803922 0.1647059 0.0000000
0.4196078 0.1647059 0.0000000
0.4588235 0.1647059 0.0000000
0.5019608 0.1647059 0.0000000
0.5411765 0.1647059 0.0000000
0.5803922 0.1647059 0.0000000
0.6196079 0.1647059 0.0000000
0.6588235 0.1647059 0.0000000
0.6980392 0.1647059 0.0000000
0.7372549 0.1647059 0.0000000
0.7764706 0.1647059 0.0000000
0.8156863 0.1647059 0.0000000
0.8588235 0.1647059 0.0000000
0.8980392 0.1647059 0.0000000
0.9294118 0.1647059 0.0000000
0.9725490 0.1647059 0.0000000
1.0000000 0.1647059 0.0000000
1.0000000 0.1647059 0.0000000
1.0000000 0.1647059 0.0000000
1.0000000 0.1647059 0.0000000
1.0000000 0.1647059 0.0000000
1.0000000 0.1647059 0.0000000
1.0000000 0.1647059 0.0000000
1.0000000 0.1647059 0.0000000
1.0000000 0.1647059 0.0000000
1.0000000 0.1647059 0.0000000
1.0000000 0.1647059 0.0000000
1.0000000 0.1647059 0.0000000
1.0000000 0.1647059 0.0000000
1.0000000 0.1647059 0.0000000
0.2627451 0.2039216 0.0000000
0.3019608 0.2039216 0.0000000
0.3411765 0.2039216 0.0000000
0.3803922 0.2039216 0.0000000
0.4196078 0.2039216 0.0000000
0.4588235 0.2039216 0.0000000
0.5019608 0.2039216 0.0000000
0.5411765 0.2039216 0.0000000
0.5803922 0.2039216 0.0000000
0.6196079 0.2039216 0.0000000
0.6588235 0.2039216 0.0000000
0.6980392 0.2039216 0.0000000
0.7372549 0.2039216 0.0000000
0.7764706 0.2039216 0.0000000
0.8156863 0.2039216 0.0000000
0.8588235 0.2039216 0.0000000
0.8980392 0.2039216 0.0000000
0.9294118 0.2039216 0.0000000
0.9725490 0.2039216 0.0000000
1.0000000 0.2039216 0.0000000
1.0000000 0.2039216 0.0000000
1.0000000 0.2039216 0.0000000
1.0000000 0.2039216 0.0000000
1.0000000 0.2039216 0.0000000
1.0000000 0.2039216 0.0000000
1.0000000 0.2039216 0.0000000
1.0000000 0.2039216 0.0000000
1.0000000 0.2039216 0.0000000
1.0000000 0.2039216 0.0000000
1.0000000 0.2039216 0.0000000
1.0000000 0.2039216 0.0000000
1.0000000 0.2039216 0.0000000
1.0000000 0.2039216 0.0000000
0.2627451 0.2431373 0.0000000
0.3019608 0.2431373 0.0000000
0.3411765 0.2431373 0.0000000
0.3803922 0.2431373 0.0000000
0.4196078 0.2431373 0.0000000
0.4588235 0.2431373 0.0000000
0.5019608 0.2431373 0.0000000
0.5411765 0.2431373 0.0000000
0.5803922 0.2431373 0.0000000
0.6196079 0.2431373 0.0000000
0.6588235 0.2431373 0.0000000
0.6980392 0.2431373 0.0000000
0.7372549 0.2431373 0.0000000
0.7764706 0.2431373 0.0000000
0.8156863 0.2431373 0.0000000
0.8588235 0.2431373 0.0000000
0.8980392 0.2431373 0.0000000
0.9294118 0.2431373 0.0000000
0.9725490 0.2431373 0.0000000
1.0000000 0.2431373 0.0000000
1.0000000 0.2431373 0.0000000
1.0000000 0.2431373 0.0000000
1.0000000 0.2431373 0.0000000
1.0000000 0.2431373 0.0000000
1.0000000 0.2431373 0.0000000
1.0000000 0.2431373 0.0000000
1.0000000 0.2431373 0.0000000
1.0000000 0.2431373 0.0000000
1.0000000 0.2431373 0.0000000
1.0000000 0.2431373 0.0000000
1.0000000 0.2431373 0.0000000
1.0000000 0.2431373 0.0000000
1.0000000 0.2431373 0.0000000
0.2627451 0.2823530 0.0000000
0.3019608 0.2823530 0.0000000
0.3411765 0.2823530 0.0000000
0.3803922 0.2823530 0.0000000
0.4196078 0.2823530 0.0000000
0.4588235 0.2823530 0.0000000
0.5019608 0.2823530 0.0000000
0.5411765 0.2823530 0.0000000
0.5803922 0.2823530 0.0000000
0.6196079 0.2823530 0.0000000
0.6588235 0.2823530 0.0000000
0.6980392 0.2823530 0.0000000
0.7372549 0.2823530 0.0000000
0.7764706 0.2823530 0.0000000
0.8156863 0.2823530 0.0000000
0.8588235 0.2823530 0.0000000
0.8980392 0.2823530 0.0000000
0.9294118 0.2823530 0.0000000
0.9725490 0.2823530 0.0000000
1.0000000 0.2823530 0.0000000
1.0000000 0.2823530 0.0000000
1.0000000 0.2823530 0.0000000
1.0000000 0.2823530 0.0000000
1.0000000 0.2823530 0.0000000
1.0000000 0.2823530 0.0000000
1.0000000 0.2823530 0.0000000
1.0000000 0.2823530 0.0000000
1.0000000 0.2823530 0.0000000
1.0000000 0.2823530 0.0000000
1.0000000 0.2823530 0.0000000
1.0000000 0.2823530 0.0000000
1.0000000 0.2823530 0.0000000
1.0000000 0.2823530 0.0000000
0.2627451 0.3215686 0.0000000
0.3019608 0.3215686 0.0000000
0.3411765 0.3215686 0.0000000
0.3803922 0.3215686 0.0000000
0.4196078 0.3215686 0.0000000
0.4588235 0.3215686 0.0000000
0.5019608 0.3215686 0.0000000
0.5411765 0.3215686 0.0000000
0.5803922 0.3215686 0.0000000
0.6196079 0.3215686 0.0000000
0.6588235 0.3215686 0.0000000
0.6980392 0.3215686 0.0000000
0.7372549 0.3215686 0.0000000
0.7764706 0.3215686 0.0000000
0.8156863 0.3215686 0.0000000
0.8588235 0.3215686 0.0000000
0.8980392 0.3215686 0.0000000
0.9294118 0.3215686 0.0000000
0.9725490 0.3215686 0.0000000
1.0000000 0.3215686 0.0000000
1.0000000 0.3215686 0.0000000
1.0000000 0.3215686 0.0000000
1.0000000 0.3215686 0.0000000
1.0000000 0.3215686 0.0000000
1.0000000 0.3215686 0.0000000
1.0000000 0.3215686 0.0000000
1.0000000 0.3215686 0.0000000
1.0000000 0.3215686 0.0000000
1.0000000 0.3215686 0.0000000
1.0000000 0.3215686 0.0000000
1.0000000 0.3215686 0.0000000
1.0000000 0.3215686 0.0000000
1.0000000 0.3215686 0.0000000
0.2627451 0.3607843 0.0000000
0.3019608 0.3607843 0.0000000
0.3411765 0.3607843 0.0000000
0.3803922 0.3607843 0.0000000
0.4196078 0.3607843 0.0000000
0.4588235 0.3607843 0.0000000
0.5019608 0.3607843 0.0000000
0.5411765 0.3607843 0.0000000
0.5803922 0.3607843 0.0000000
0.6196079 0.3607843 0.0000000
0.6588235 0.3607843 0.0000000
0.6980392 0.3607843 0.0000000
0.7372549 0.3607843 0.0000000
0.7764706 0.3607843 0.0000000
0.8156863 0.3607843 0.0000000
0.8588235 0.3607843 0.0000000
0.8980392 0.3607843 0.0000000
0.9294118 0.3607843 0.0000000
0.9725490 0.3607843 0.0000000
1.0000000 0.3607843 0.0000000
1.0000000 0.3607843 0.0000000
1.0000000 0.3607843 0.0000000
1.0000000 0.3607843 0.0000000
1.0000000 0.3607843 0.0000000
1.0000000 0.3607843 0.0000000
1.0000000 0.3607843 0.0000000
1.0000000 0.3607843 0.0000000
1.0000000 0.3607843 0.0000000
1.0000000 0.3607843 0.0000000
1.0000000 0.3607843 0.0000000
1.0000000 0.3607843 0.0000000
1.0000000 0.3607843 0.0000000
1.0000000 0.3607843 0.0000000
0.2627451 0.4000000 0.0000000
0.3019608 0.4000000 0.0000000
0.3411765 0.4000000 0.0000000
0.3803922 0.4000000 0.0000000
0.4196078 0.4000000 0.0000000
0.4588235 0.4000000 0.0000000
0.5019608 0.4000000 0.0000000
0.5411765 0.4000000 0.0000000
0.5803922 0.4000000 0.0000000
0.6196079 0.4000000 0.0000000
0.6588235 0.4000000 0.0000000
0.6980392 0.4000000 0.0000000
0.7372549 0.4000000 0.0000000
0.7764706 0.4000000 0.0000000
0.8156863 0.4000000 0.0000000
0.8588235 0.4000000 0.0000000
0.8980392 0.4000000 0.0000000
0.9294118 0.4000000 0.0000000
0.9725490 0.4000000 0.0000000
1.0000000 0.4000000 0.0000000
1.0000000 0.4000000 0.0000000
1.0000000 0.4000000 0.0000000
1.0000000 0.4000000 0.0000000
1.0000000 0.4000000 0.0000000
1.0000000 0.4000000 0.0000000
1.0000000 0.4000000 0.0000000
1.0000000 0.4000000 0.0000000
1.0000000 0.4000000 0.0000000
1.0000000 0.4000000 0.0000000
1.0000000 0.4000000 0.0000000
1.0000000 0.4000000 0.0000000
1.0000000 0.4000000 0.0000000
1.0000000 0.4000000 0.0000000
0.2627451 0.4392157 0.0000000
0.3019608 0.4392157 0.0000000
0.3411765 0.4392157 0.0000000
0.3803922 0.4392157 0.0000000
0.4196078 0.4392157 0.0000000
0.4588235 0.4392157 0.0000000
0.5019608 0.4392157 0.0000000
0.5411765 0.4392157 0.0000000
0.5803922 0.4392157 0.0000000
0.6196079 0.4392157 0.0000000
0.6588235 0.4392157 0.0000000
0.6980392 0.4392157 0.0000000
0.7372549 0.4392157 0.0000000
0.7764706 0.4392157 0.0000000
0.8156863 0.4392157 0.0000000
0.8588235 0.4392157 0.0000000
0.8980392 0.4392157 0.0000000
0.9294118 0.4392157 0.0000000
0.9725490 0.4392157 0.0000000
1.0000000 0.4392157 0.0000000
1.0000000 0.4392157 0.0000000
1.0000000 0.4392157 0.0000000
1.0000000 0.4392157 0.0000000
1.0000000 0.4392157 0.0000000
1.0000000 0.4392157 0.0000000
1.0000000 0.4392157 0.0000000
1.0000000 0.4392157 0.0000000
1.0000000 0.4392157 0.0000000
1.0000000 0.4392157 0.0000000
1.0000000 0.4392157 0.0000000
1.0000000 0.4392157 0.0000000
1.0000000 0.4392157 0.0000000
1.0000000 0.4392157 0.0000000
0.2627451 0.4784314 0.0000000
0.3019608 0.4784314 0.0000000
0.3411765 0.4784314 0.0000000
0.3803922 0.4784314 0.0000000
0.4196078 0.4784314 0.0000000
0.4588235 0.4784314 0.0000000
0.5019608 0.4784314 0.0000000
0.5411765 0.4784314 0.0000000
0.5803922 0.4784314 0.0000000
0.6196079 0.4784314 0.0000000
0.6588235 0.4784314 0.0000000
0.6980392 0.4784314 0.0000000
0.7372549 0.4784314 0.0000000
0.7764706 0.4784314 0.0000000
0.8156863 0.4784314 0.0000000
0.8588235 0.4784314 0.0000000
0.8980392 0.4784314 0.0000000
0.9294118 0.4784314 0.0000000
0.9725490 0.4784314 0.0000000
1.0000000 0.4784314 0.0000000
1.0000000 0.4784314 0.0000000
1.0000000 0.4784314 0.0000000
1.0000000 0.4784314 0.0000000
1.0000000 0.4784314 0.0000000
1.0000000 0.4784314 0.0000000
1.0000000 0.4784314 0.0000000
1.0000000 0.4784314 0.0000000
1.0000000 0.4784314 0.0000000
1.0000000 0.4784314 0.0000000
1.0000000 0.4784314 0.0000000
1.0000000 0.4784314 0.0000000
1.0000000 0.4784314 0.0000000
1.0000000 0.4784314 0.0000000
0.2627451 0.5215687 0.0000000
0.3019608 0.5215687 0.0000000
0.3411765 0.5215687 0.0000000
0.3803922 0.5215687 0.0000000
0.4196078 0.5215687 0.0000000
0.4588235 0.5215687 0.0000000
0.5019608 0.5215687 0.0000000
0.5411765 0.5215687 0.0000000
0.5803922 0.5215687 0.0000000
0.6196079 0.5215687 0.0000000
0.6588235 0.5215687 0.0000000
0.6980392 0.5215687 0.0000000
0.7372549 0.5215687 0.0000000
0.7764706 0.5215687 0.0000000
0.8156863 0.5215687 0.0000000
0.8588235 0.5215687 0.0000000
0.8980392 0.5215687 0.0000000
0.9294118 0.5215687 0.0000000
0.9725490 0.5215687 0.0000000
1.0000000 0.5215687 0.0000000
1.0000000 0.5215687 0.0000000
1.0000000 0.5215687 0.0000000
1.0000000 0.5215687 0.0000000
1.0000000 0.5215687 0.0000000
1.0000000 0.5215687 0.0000000
1.0000000 0.5215687 0.0000000
1.0000000 0.5215687 0.0000000
1.0000000 0.5215687 0.0000000
1.0000000 0.5215687 0.0000000
1.0000000 0.5215687 0.0000000
1.0000000 0.5215687 0.0000000
1.0000000 0.5215687 0.0000000
1.0000000 0.5215687 0.0000000
0.2627451 0.5607843 0.0000000
0.3019608 0.5607843 0.0000000
0.3411765 0.5607843 0.0000000
0.3803922 0.5607843 0.0000000
0.4196078 0.5607843 0.0000000
0.4588235 0.5607843 0.0000000
0.5019608 0.5607843 0.0000000
0.5411765 0.5607843 0.0000000
0.5803922 0.5607843 0.0000000
0.6196079 0.5607843 0.0000000
0.6588235 0.5607843 0.0000000
0.6980392 0.5607843 0.0000000
0.7372549 0.5607843 0.0000000
0.7764706 0.5607843 0.0000000
0.8156863 0.5607843 0.0000000
0.8588235 0.5607843 0.0000000
0.8980392 0.5607843 0.0000000
0.9294118 0.5607843 0.0000000
0.9725490 0.5607843 0.0000000
1.0000000 0.5607843 0.0000000
1.0000000 0.5607843 0.0000000
1.0000000 0.5607843 0.0000000
1.0000000 0.5607843 0.0000000
1.0000000 0.5607843 0.0000000
1.0000000 0.5607843 0.0000000
1.0000000 0.5607843 0.0000000
1.0000000 0.5607843 0.0000000
1.0000000 0.5607843 0.0000000
1.0000000 0.5607843 0.0000000
1.0000000 0.5607843 0.0000000
1.0000000 0.5607843 0.0000000
1.0000000 0.5607843 0.0000000
1.0000000 0.5607843 0.0000000
0.2627451 0.5960785 0.0000000
0.3019608 0.5960785 0.0000000
0.3411765 0.5960785 0.0000000
0.3803922 0.5960785 0.0000000
0.4196078 0.5960785 0.0000000
0.4588235 0.5960785 0.0000000
0.5019608 0.5960785 0.0000000
0.5411765 0.5960785 0.0000000
0.5803922 0.5960785 0.0000000
0.6196079 0.5960785 0.0000000
0.6588235 0.5960785 0.0000000
0.6980392 0.5960785 0.0000000
0.7372549 0.5960785 0.0000000
0.7764706 0.5960785 0.0000000
0.8156863 0.5960785 0.0000000
0.8588235 0.5960785 0.0000000
0.8980392 0.5960785 0.0000000
0.9294118 0.5960785 0.0000000
0.9725490 0.5960785 0.0000000
1.0000000 0.5960785 0.0000000
1.0000000 0.5960785 0.0000000
1.0000000 0.5960785 0.0000000
1.0000000 0.5960785 0.0000000
1.0000000 0.5960785 0.0000000
1.0000000 0.5960785 0.0000000
1.0000000 0.5960785 0.0000000
1.0000000 0.5960785 0.0000000
1.0000000 0.5960785 0.0000000
1.0000000 0.5960785 0.0000000
1.0000000 0.5960785 0.0000000
1.0000000 0.5960785 0.0000000
1.0000000 0.5960785 0.0000000
1.0000000 0.5960785 0.0000000
0.2627451 0.6352941 0.0000000
0.3019608 0.6352941 0.0000000
0.3411765 0.6352941 0.0000000
0.3803922 0.6352941 0.0000000
0.4196078 0.6352941 0.0000000
0.4588235 0.6352941 0.0000000
0.5019608 0.6352941 0.0000000
0.5411765 0.6352941 0.0000000
0.5803922 0.6352941 0.0000000
0.6196079 0.6352941 0.0000000
0.6588235 0.6352941 0.0000000
0.6980392 0.6352941 0.0000000
0.7372549 0.6352941 0.0000000
0.7764706 0.6352941 0.0000000
0.8156863 0.6352941 0.0000000
0.8588235 0.6352941 0.0000000
0.8980392 0.6352941 0.0000000
0.9294118 0.6352941 0.0000000
0.9725490 0.6352941 0.0000000
1.0000000 0.6352941 0.0000000
1.0000000 0.6352941 0.0000000
1.0000000 0.6352941 0.0000000
1.0000000 0.6352941 0.0000000
1.0000000 0.6352941 0.0000000
1.0000000 0.6352941 0.0000000
1.0000000 0.6352941 0.0000000
1.0000000 0.6352941 0.0000000
1.0000000 0.6352941 0.0000000
1.0000000 0.6352941 0.0000000
1.0000000 0.6352941 0.0000000
1.0000000 0.6352941 0.0000000
1.0000000 0.6352941 0.0000000
1.0000000 0.6352941 0.0000000
0.2627451 0.6745098 0.0000000
0.3019608 0.6745098 0.0000000
0.3411765 0.6745098 0.0000000
0.3803922 0.6745098 0.0000000
0.4196078 0.6745098 0.0000000
0.4588235 0.6745098 0.0000000
0.5019608 0.6745098 0.0000000
0.5411765 0.6745098 0.0000000
0.5803922 0.6745098 0.0000000
0.6196079 0.6745098 0.0000000
0.6588235 0.6745098 0.0000000
0.6980392 0.6745098 0.0000000
0.7372549 0.6745098 0.0000000
0.7764706 0.6745098 0.0000000
0.8156863 0.6745098 0.0000000
0.8588235 0.6745098 0.0000000
0.8980392 0.6745098 0.0000000
0.9294118 0.6745098 0.0000000
0.9725490 0.6745098 0.0000000
1.0000000 0.6745098 0.0000000
1.0000000 0.6745098 0.0000000
1.0000000 0.6745098 0.0000000
1.0000000 0.6745098 0.0000000
1.0000000 0.6745098 0.0000000
1.0000000 0.6745098 0.0000000
1.0000000 0.6745098 0.0000000
1.0000000 0.6745098 0.0000000
1.0000000 0.6745098 0.0000000
1.0000000 0.6745098 0.0000000
1.0000000 0.6745098 0.0000000
1.0000000 0.6745098 0.0000000
1.0000000 0.6745098 0.0000000
1.0000000 0.6745098 0.0000000
0.2627451 0.7137255 0.0000000
0.3019608 0.7137255 0.0000000
0.3411765 0.7137255 0.0000000
0.3803922 0.7137255 0.0000000
0.4196078 0.7137255 0.0000000
0.4588235 0.7137255 0.0000000
0.5019608 0.7137255 0.0000000
0.5411765 0.7137255 0.0000000
0.5803922 0.7137255 0.0000000
0.6196079 0.7137255 0.0000000
0.6588235 0.7137255 0.0000000
0.6980392 0.7137255 0.0000000
0.7372549 0.7137255 0.0000000
0.7764706 0.7137255 0.0000000
0.8156863 0.7137255 0.0000000
0.8588235 0.7137255 0.0000000
0.8980392 0.7137255 0.0000000
0.9294118 0.7137255 0.0000000
0.9725490 0.7137255 0.0000000
1.0000000 0.7137255 0.0000000
1.0000000 0.7137255 0.0000000
1.0000000 0.7137255 0.0000000
1.0000000 0.7137255 0.0000000
1.0000000 0.7137255 0.0000000
1.0000000 0.7137255 0.0000000
1.0000000 0.7137255 0.0000000
1.0000000 0.7137255 0.0000000
1.0000000 0.7137255 0.0000000
1.0000000 0.7137255 0.0000000
1.0000000 0.7137255 0.0000000
1.0000000 0.7137255 0.0000000
1.0000000 0.7137255 0.0000000
1.0000000 0.7137255 0.0000000
0.2627451 0.7529412 0.0000000
0.3019608 0.7529412 0.0000000
0.3411765 0.7529412 0.0000000
0.3803922 0.7529412 0.0000000
0.4196078 0.7529412 0.0000000
0.4588235 0.7529412 0.0000000
0.5019608 0.7529412 0.0000000
0.5411765 0.7529412 0.0000000
0.5803922 0.7529412 0.0000000
0.6196079 0.7529412 0.0000000
0.6588235 0.7529412 0.0000000
0.6980392 0.7529412 0.0000000
0.7372549 0.7529412 0.0000000
0.7764706 0.7529412 0.0000000
0.8156863 0.7529412 0.0000000
0.8588235 0.7529412 0.0000000
0.8980392 0.7529412 0.0000000
0.9294118 0.7529412 0.0000000
0.9725490 0.7529412 0.0000000
1.0000000 0.7529412 0.0000000
1.0000000 0.7529412 0.0000000
1.0000000 0.7529412 0.0000000
1.0000000 0.7529412 0.0000000
1.0000000 0.7529412 0.0000000
1.0000000 0.7529412 0.0000000
1.0000000 0.7529412 0.0000000
1.0000000 0.7529412 0.0000000
1.0000000 0.7529412 0.0000000
1.0000000 0.7529412 0.0000000
1.0000000 0.7529412 0.0000000
1.0000000 0.7529412 0.0000000
1.0000000 0.7529412 0.0000000
1.0000000 0.7529412 0.0000000
0.2627451 0.7921569 0.0000000
0.3019608 0.7921569 0.0000000
0.3411765 0.7921569 0.0000000
0.3803922 0.7921569 0.0000000
0.4196078 0.7921569 0.0000000
0.4588235 0.7921569 0.0000000
0.5019608 0.7921569 0.0000000
0.5411765 0.7921569 0.0000000
0.5803922 0.7921569 0.0000000
0.6196079 0.7921569 0.0000000
0.6588235 0.7921569 0.0000000
0.6980392 0.7921569 0.0000000
0.7372549 0.7921569 0.0000000
0.7764706 0.7921569 0.0000000
0.8156863 0.7921569 0.0000000
0.8588235 0.7921569 0.0000000
0.8980392 0.7921569 0.0000000
0.9294118 0.7921569 0.0000000
0.9725490 0.7921569 0.0000000
1.0000000 0.7921569 0.0000000
1.0000000 0.7921569 0.0000000
1.0000000 0.7921569 0.0000000
1.0000000 0.7921569 0.0000000
1.0000000 0.7921569 0.0000000
1.0000000 0.7921569 0.0000000
1.0000000 0.7921569 0.0000000
1.0000000 0.7921569 0.0000000
1.0000000 0.7921569 0.0000000
1.0000000 0.7921569 0.0000000
1.0000000 0.7921569 0.0000000
1.0000000 0.7921569 0.0000000
1.0000000 0.7921569 0.0000000
1.0000000 0.7921569 0.0000000
0.2627451 0.8313726 0.0000000
0.3019608 0.8313726 0.0000000
0.3411765 0.8313726 0.0000000
0.3803922 0.8313726 0.0000000
0.4196078 0.8313726 0.0000000
0.4588235 0.8313726 0.0000000
0.5019608 0.8313726 0.0000000
0.5411765 0.8313726 0.0000000
0.5803922 0.8313726 0.0000000
0.6196079 0.8313726 0.0000000
0.6588235 0.8313726 0.0000000
0.6980392 0.8313726 0.0000000
0.7372549 0.8313726 0.0000000
0.7764706 0.8313726 0.0000000
0.8156863 0.8313726 0.0000000
0.8588235 0.8313726 0.0000000
0.8980392 0.8313726 0.0000000
0.9294118 0.8313726 0.0000000
0.9725490 0.8313726 0.0000000
1.0000000 0.8313726 0.0000000
1.0000000 0.8313726 0.0000000
1.0000000 0.8313726 0.0000000
1.0000000 0.8313726 0.0000000
1.0000000 0.8313726 0.0000000
1.0000000 0.8313726 0.0000000
1.0000000 0.8313726 0.0000000
1.0000000 0.8313726 0.0000000
1.0000000 0.8313726 0.0000000
1.0000000 0.8313726 0.0000000
1.0000000 0.8313726 0.0000000
1.0000000 0.8313726 0.0000000
1.0000000 0.8313726 0.0000000
1.0000000 0.8313726 0.0000000
0.2627451 0.8705882 0.0000000
0.3019608 0.8705882 0.0000000
0.3411765 0.8705882 0.0000000
0.3803922 0.8705882 0.0000000
