rust/creative_luts/pastel_pink/lut.cube
TITLE "Pixel Craft Creative: pastel_pink"
LUT_3D_SIZE 9
DOMAIN_MIN 0.0 0.0 0.0
DOMAIN_MAX 1.0 1.0 1.0
0.2627451 0.0000000 0.0000000
0.4196078 0.0000000 0.0000000
0.5803922 0.0000000 0.0000000
0.7372549 0.0000000 0.0000000
0.8980392 0.0000000 0.0000000
1.0000000 0.0000000 0.0000000
1.0000000 0.0000000 0.0000000
1.0000000 0.0000000 0.0000000
1.0000000 0.0000000 0.0000000
0.2627451 0.0823529 0.0000000
0.4196078 0.0823529 0.0000000
0.5803922 0.0823529 0.0000000
0.7372549 0.0823529 0.0000000
0.8980392 0.0823529 0.0000000
1.0000000 0.0823529 0.0000000
1.0000000 0.0823529 0.0000000
1.0000000 0.0823529 0.0000000
1.0000000 0.0823529 0.0000000
0.2627451 0.2431373 0.0000000
0.4196078 0.2431373 0.0000000
0.5803922 0.2431373 0.0000000
0.7372549 0.2431373 0.0000000
0.8980392 0.2431373 0.0000000
1.0000000 0.2431373 0.0000000
1.0000000 0.2431373 0.0000000
1.0000000 0.2431373 0.0000000
1.0000000 0.2431373 0.0000000
0.2627451 0.4000000 0.0000000
0.4196078 0.4000000 0.0000000
0.5803922 0.4000000 0.0000000
0.7372549 0.4000000 0.0000000
0.8980392 0.4000000 0.0000000
1.0000000 0.4000000 0.0000000
1.0000000 0.4000000 0.0000000
1.0000000 0.4000000 0.0000000
1.0000000 0.4000000 0.0000000
0.2627451 0.5607843 0.0000000
0.4196078 0.5607843 0.0000000
0.5803922 0.5607843 0.0000000
0.7372549 0.5607843 0.0000000
0.8980392 0.5607843 0.0000000
1.0000000 0.5607843 0.0000000
1.0000000 0.5607843 0.0000000
1.0000000 0.5607843 0.0000000
1.0000000 0.5607843 0.0000000
0.2627451 0.7137255 0.0000000
0.4196078 0.7137255 0.0000000
0.5803922 0.7137255 0.0000000
0.7372549 0.7137255 0.0000000
0.8980392 0.7137255 0.0000000
1.0000000 0.7137255 0.0000000
1.0000000 0.7137255 0.0000000
1.0000000 0.7137255 0.0000000
1.0000000 0.7137255 0.0000000
0.2627451 0.8705882 0.0000000
0.4196078 0.8705882 0.0000000
0.5803922 0.8705882 0.0000000
0.7372549 0.8705882 0.0000000
0.8980392 0.8705882 0.0000000
1.0000000 0.8705882 0.0000000
1.0000000 0.8705882 0.0000000
1.0000000 0.8705882 0.0000000
1.0000000 0.8705882 0.0000000
0.2627451 1.0000000 0.0000000
0.4196078 1.0000000 0.0000000
0.5803922 1.0000000 0.0000000
0.7372549 1.0000000 0.0000000
0.8980392 1.0000000 0.0000000
1.0000000 1.0000000 0.0000000
1.0000000 1.0000000 0.0000000
1.0000000 1.0000000 0.0000000
1.0000000 1.0000000 0.0000000
0.2627451 1.0000000 0.0000000
0.4196078 1.0000000 0.0000000
0.5803922 1.0000000 0.0000000
0.7372549 1.0000000 0.0000000
0.8980392 1.0000000 0.0000000
1.0000000 1.0000000 0.0000000
1.0000000 1.0000000 0.0000000
1.0000000 1.0000000 0.0000000
1.0000000 1.0000000 0.0000000
0.2627451 0.0000000 0.1215686
0.4196078 0.0000000 0.1215686
0.5803922 0.0000000 0.1215686
0.7372549 0.0000000 0.1215686
0.8980392 0.0000000 0.1215686
1.0000000 0.0000000 0.1215686
1.0000000 0.0000000 0.1215686
1.0000000 0.0000000 0.1215686
1.0000000 0.0000000 0.1215686
0.2627451 0.0823529 0.1215686
0.4196078 0.0823529 0.1215686
0.5803922 0.0823529 0.1215686
0.7372549 0.0823529 0.1215686
0.8980392 0.0823529 0.1215686
1.0000000 0.0823529 0.1215686
1.0000000 0.0823529 0.1215686
1.0000000 0.0823529 0.1215686
1.0000000 0.0823529 0.1215686
0.2627451 0.2431373 0.1215686
0.4196078 0.2431373 0.1215686
0.5803922 0.2431373 0.1215686
0.7372549 0.2431373 0.1215686
0.8980392 0.2431373 0.1215686
1.0000000 0.2431373 0.1215686
1.0000000 0.2431373 0.1215686
1.0000000 0.2431373 0.1215686
1.0000000 0.2431373 0.1215686
0.2627451 0.4000000 0.1215686
0.4196078 0.4000000 0.1215686
0.5803922 0.4000000 0.1215686
0.7372549 0.4000000 0.1215686
0.8980392 0.4000000 0.1215686
1.0000000 0.4000000 0.1215686
1.0000000 0.4000000 0.1215686
1.0000000 0.4000000 0.1215686
1.0000000 0.4000000 0.1215686
0.2627451 0.5607843 0.1215686
0.4196078 0.5607843 0.1215686
0.5803922 0.5607843 0.1215686
0.7372549 0.5607843 0.1215686
0.8980392 0.5607843 0.1215686
1.0000000 0.5607843 0.1215686
1.0000000 0.5607843 0.1215686
1.0000000 0.5607843 0.1215686
1.0000000 0.5607843 0.1215686
0.2627451 0.7137255 0.1215686
0.4196078 0.7137255 0.1215686
0.5803922 0.7137255 0.1215686
0.7372549 0.7137255 0.1215686
0.8980392 0.7137255 0.1215686
1.0000000 0.7137255 0.1215686
1.0000000 0.7137255 0.1215686
1.0000000 0.7137255 0.1215686
1.0000000 0.7137255 0.1215686
0.2627451 0.8705882 0.1215686
0.4196078 0.8705882 0.1215686
0.5803922 0.8705882 0.1215686
0.7372549 0.8705882 0.1215686
0.8980392 0.8705882 0.1215686
1.0000000 0.8705882 0.1215686
1.0000000 0.8705882 0.1215686
1.0000000 0.8705882 0.1215686
1.0000000 0.8705882 0.1215686
0.2627451 1.0000000 0.1215686
0.4196078 1.0000000 0.1215686
0.5803922 1.0000000 0.1215686
0.7372549 1.0000000 0.1215686
0.8980392 1.0000000 0.1215686
1.0000000 1.0000000 0.1215686
1.0000000 1.0000000 0.1215686
1.0000000 1.0000000 0.1215686
1.0000000 1.0000000 0.1215686
0.2627451 1.0000000 0.1215686
0.4196078 1.0000000 0.1215686
0.5803922 1.0000000 0.1215686
0.7372549 1.0000000 0.1215686
0.8980392 1.0000000 0.1215686
1.0000000 1.0000000 0.1215686
1.0000000 1.0000000 0.1215686
1.0000000 1.0000000 0.1215686
1.0000000 1.0000000 0.1215686
0.2627451 0.0000000 0.2823530
0.4196078 0.0000000 0.2823530
0.5803922 0.0000000 0.2823530
0.7372549 0.0000000 0.2823530
0.8980392 0.0000000 0.2823530
1.0000000 0.0000000 0.2823530
1.0000000 0.0000000 0.2823530
1.0000000 0.0000000 0.2823530
1.0000000 0.0000000 0.2823530
0.2627451 0.0823529 0.2823530
0.4196078 0.0823529 0.2823530
0.5803922 0.0823529 0.2823530
0.7372549 0.0823529 0.2823530
0.8980392 0.0823529 0.2823530
1.0000000 0.0823529 0.2823530
1.0000000 0.0823529 0.2823530
1.0000000 0.0823529 0.2823530
1.0000000 0.0823529 0.2823530
0.2627451 0.2431373 0.2823530
0.4196078 0.2431373 0.2823530
0.5803922 0.2431373 0.2823530
0.7372549 0.2431373 0.2823530
0.8980392 0.2431373 0.2823530
1.0000000 0.2431373 0.2823530
1.0000000 0.2431373 0.2823530
1.0000000 0.2431373 0.2823530
1.0000000 0.2431373 0.2823530
0.2627451 0.4000000 0.2823530
0.4196078 0.4000000 0.2823530
0.5803922 0.4000000 0.2823530
0.7372549 0.4000000 0.2823530
0.8980392 0.4000000 0.2823530
1.0000000 0.4000000 0.2823530
1.0000000 0.4000000 0.2823530
1.0000000 0.4000000 0.2823530
1.0000000 0.4000000 0.2823530
0.2627451 0.5607843 0.2823530
0.4196078 0.5607843 0.2823530
0.5803922 0.5607843 0.2823530
0.7372549 0.5607843 0.2823530
0.8980392 0.5607843 0.2823530
1.0000000 0.5607843 0.2823530
1.0000000 0.5607843 0.2823530
1.0000000 0.5607843 0.2823530
1.0000000 0.5607843 0.2823530
0.2627451 0.7137255 0.2823530
0.4196078 0.7137255 0.2823530
0.5803922 0.7137255 0.2823530
0.7372549 0.7137255 0.2823530
0.8980392 0.7137255 0.2823530
1.0000000 0.7137255 0.2823530
1.0000000 0.7137255 0.2823530
1.0000000 0.7137255 0.2823530
1.0000000 0.7137255 0.2823530
0.2627451 0.8705882 0.2823530
0.4196078 0.8705882 0.2823530
0.5803922 0.8705882 0.2823530
0.7372549 0.8705882 0.2823530
0.8980392 0.8705882 0.2823530
1.0000000 0.8705882 0.2823530
1.0000000 0.8705882 0.2823530
1.0000000 0.8705882 0.2823530
1.0000000 0.8705882 0.2823530
0.2627451 1.0000000 0.2823530
0.4196078 1.0000000 0.2823530
0.5803922 1.0000000 0.2823530
0.7372549 1.0000000 0.2823530
0.8980392 1.0000000 0.2823530
1.0000000 1.0000000 0.2823530
1.0000000 1.0000000 0.2823530
1.0000000 1.0000000 0.2823530
1.0000000 1.0000000 0.2823530
0.2627451 1.0000000 0.2823530
0.4196078 1.0000000 0.2823530
0.5803922 1.0000000 0.2823530
0.7372549 1.0000000 0.2823530
0.8980392 1.0000000 0.2823530
1.0000000 1.0000000 0.2823530
1.0000000 1.0000000 0.2823530
1.0000000 1.0000000 0.2823530
1.0000000 1.0000000 0.2823530
0.2627451 0.0000000 0.4392157
0.4196078 0.0000000 0.4392157
0.5803922 0.0000000 0.4392157
0.7372549 0.0000000 0.4392157
0.8980392 0.0000000 0.4392157
1.0000000 0.0000000 0.4392157
1.0000000 0.0000000 0.4392157
1.0000000 0.0000000 0.4392157
1.0000000 0.0000000 0.4392157
0.2627451 0.0823529 0.4392157
0.4196078 0.0823529 0.4392157
0.5803922 0.0823529 0.4392157
0.7372549 0.0823529 0.4392157
0.8980392 0.0823529 0.4392157
1.0000000 0.0823529 0.4392157
1.0000000 0.0823529 0.4392157
1.0000000 0.0823529 0.4392157
1.0000000 0.0823529 0.4392157
0.2627451 0.2431373 0.4392157
0.4196078 0.2431373 0.4392157
0.5803922 0.2431373 0.4392157
0.7372549 0.2431373 0.4392157
0.8980392 0.2431373 0.4392157
1.0000000 0.2431373 0.4392157
1.0000000 0.2431373 0.4392157
1.0000000 0.2431373 0.4392157
1.0000000 0.2431373 0.4392157
0.2627451 0.4000000 0.4392157
0.4196078 0.4000000 0.4392157
0.5803922 0.4000000 0.4392157
0.7372549 0.4000000 0.4392157
0.8980392 0.4000000 0.4392157
1.0000000 0.4000000 0.4392157
1.0000000 0.4000000 0.4392157
1.0000000 0.4000000 0.4392157
1.0000000 0.4000000 0.4392157
0.2627451 0.5607843 0.4392157
0.4196078 0.5607843 0.4392157
0.5803922 0.5607843 0.4392157
0.7372549 0.5607843 0.4392157
0.8980392 0.5607843 0.4392157
1.0000000 0.5607843 0.4392157
1.0000000 0.5607843 0.4392157
1.0000000 0.5607843 0.4392157
1.0000000 0.5607843 0.4392157
0.2627451 0.7137255 0.4392157
0.4196078 0.7137255 0.4392157
0.5803922 0.7137255 0.4392157
0.7372549 0.7137255 0.4392157
0.8980392 0.7137255 0.4392157
1.0000000 0.7137255 0.4392157
1.0000000 0.7137255 0.4392157
1.0000000 0.7137255 0.4392157
1.0000000 0.7137255 0.4392157
0.2627451 0.8705882 0.4392157
0.4196078 0.8705882 0.4392157
0.5803922 0.8705882 0.4392157
0.7372549 0.8705882 0.4392157
0.8980392 0.8705882 0.4392157
1.0000000 0.8705882 0.4392157
1.0000000 0.8705882 0.4392157
1.0000000 0.8705882 0.4392157
1.0000000 0.8705882 0.4392157
0.2627451 1.0000000 0.4392157
0.4196078 1.0000000 0.4392157
0.5803922 1.0000000 0.4392157
0.7372549 1.0000000 0.4392157
0.8980392 1.0000000 0.4392157
1.0000000 1.0000000 0.4392157
1.0000000 1.0000000 0.4392157
1.0000000 1.0000000 0.4392157
1.0000000 1.0000000 0.4392157
0.2627451 1.0000000 0.4392157
0.4196078 1.0000000 0.4392157
0.5803922 1.0000000 0.4392157
0.7372549 1.0000000 0.4392157
0.8980392 1.0000000 0.4392157
1.0000000 1.0000000 0.4392157
1.0000000 1.0000000 0.4392157
1.0000000 1.0000000 0.4392157
1.0000000 1.0000000 0.4392157
0.2627451 0.0000000 0.6000000
0.4196078 0.0000000 0.6000000
0.5803922 0.0000000 0.6000000
0.7372549 0.0000000 0.6000000
0.8980392 0.0000000 0.6000000
1.0000000 0.0000000 0.6000000
1.0000000 0.0000000 0.6000000
1.0000000 0.0000000 0.6000000
1.0000000 0.0000000 0.6000000
0.2627451 0.0823529 0.6000000
0.4196078 0.0823529 0.6000000
0.5803922 0.0823529 0.6000000
0.7372549 0.0823529 0.6000000
0.8980392 0.0823529 0.6000000
1.0000000 0.0823529 0.6000000
1.0000000 0.0823529 0.6000000
1.0000000 0.0823529 0.6000000
1.0000000 0.0823529 0.6000000
0.2627451 0.2431373 0.6000000
0.4196078 0.2431373 0.6000000
0.5803922 0.2431373 0.6000000
0.7372549 0.2431373 0.6000000
0.8980392 0.2431373 0.6000000
1.0000000 0.2431373 0.6000000
1.0000000 0.2431373 0.6000000
1.0000000 0.2431373 0.6000000
1.0000000 0.2431373 0.6000000
0.2627451 0.4000000 0.6000000
0.4196078 0.4000000 0.6000000
0.5803922 0.4000000 0.6000000
0.7372549 0.4000000 0.6000000
0.8980392 0.4000000 0.6000000
1.0000000 0.4000000 0.6000000
1.0000000 0.4000000 0.6000000
1.0000000 0.4000000 0.6000000
1.0000000 0.4000000 0.6000000
0.2627451 0.5607843 0.6000000
0.4196078 0.5607843 0.6000000
0.5803922 0.5607843 0.6000000
0.7372549 0.5607843 0.6000000
0.8980392 0.5607843 0.6000000
1.0000000 0.5607843 0.6000000
1.0000000 0.5607843 0.6000000
1.0000000 0.5607843 0.6000000
1.0000000 0.5607843 0.6000000
0.2627451 0.7137255 0.6000000
0.4196078 0.7137255 0.6000000
0.5803922 0.7137255 0.6000000
0.7372549 0.7137255 0.6000000
0.8980392 0.7137255 0.6000000
1.0000000 0.7137255 0.6000000
1.0000000 0.7137255 0.6000000
1.0000000 0.7137255 0.6000000
1.0000000 0.7137255 0.6000000
0.2627451 0.8705882 0.6000000
0.4196078 0.8705882 0.6000000
0.5803922 0.8705882 0.6000000
0.7372549 0.8705882 0.6000000
0.8980392 0.8705882 0.6000000
1.0000000 0.8705882 0.6000000
1.0000000 0.8705882 0.6000000
1.0000000 0.8705882 0.6000000
1.0000000 0.8705882 0.6000000
0.2627451 1.0000000 0.6000000
0.4196078 1.0000000 0.6000000
0.5803922 1.0000000 0.6000000
0.7372549 1.0000000 0.6000000
0.8980392 1.0000000 0.6000000
1.0000000 1.0000000 0.6000000
1.0000000 1.0000000 0.6000000
1.0000000 1.0000000 0.6000000
1.0000000 1.0000000 0.6000000
0.2627451 1.0000000 0.6000000
0.4196078 1.0000000 0.6000000
0.5803922 1.0000000 0.6000000
0.7372549 1.0000000 0.6000000
0.8980392 1.0000000 0.6000000
1.0000000 1.0000000 0.6000000
1.0000000 1.0000000 0.6000000
1.0000000 1.0000000 0.6000000
1.0000000 1.0000000 0.6000000
0.2627451 0.0000000 0.7529412
0.4196078 0.0000000 0.7529412
0.5803922 0.0000000 0.7529412
0.7372549 0.0000000 0.7529412
0.8980392 0.0000000 0.7529412
1.0000000 0.0000000 0.7529412
1.0000000 0.0000000 0.7529412
1.0000000 0.0000000 0.7529412
1.0000000 0.0000000 0.7529412
0.2627451 0.0823529 0.7529412
0.4196078 0.0823529 0.7529412
0.5803922 0.0823529 0.7529412
0.7372549 0.0823529 0.7529412
0.8980392 0.0823529 0.7529412
1.0000000 0.0823529 0.7529412
1.0000000 0.0823529 0.7529412
1.0000000 0.0823529 0.7529412
1.0000000 0.0823529 0.7529412
0.2627451 0.2431373 0.7529412
0.4196078 0.2431373 0.7529412
0.5803922 0.2431373 0.7529412
0.7372549 0.2431373 0.7529412
0.8980392 0.2431373 0.7529412
1.0000000 0.2431373 0.7529412
1.0000000 0.2431373 0.7529412
1.0000000 0.2431373 0.7529412
1.0000000 0.2431373 0.7529412
0.2627451 0.4000000 0.7529412
0.4196078 0.4000000 0.7529412
0.5803922 0.4000000 0.7529412
0.7372549 0.4000000 0.7529412
0.8980392 0.4000000 0.7529412
1.0000000 0.4000000 0.7529412
1.0000000 0.4000000 0.7529412
1.0000000 0.4000000 0.7529412
1.0000000 0.4000000 0.7529412
0.2627451 0.5607843 0.7529412
0.4196078 0.5607843 0.7529412
0.5803922 0.5607843 0.7529412
0.7372549 0.5607843 0.7529412
0.8980392 0.5607843 0.7529412
1.0000000 0.5607843 0.7529412
1.0000000 0.5607843 0.7529412
1.0000000 0.5607843 0.7529412
1.0000000 0.5607843 0.7529412
0.2627451 0.7137255 0.7529412
0.4196078 0.7137255 0.7529412
0.5803922 0.7137255 0.7529412
0.7372549 0.7137255 0.7529412
0.8980392 0.7137255 0.7529412
1.0000000 0.7137255 0.7529412
1.0000000 0.7137255 0.7529412
1.0000000 0.7137255 0.7529412
1.0000000 0.7137255 0.7529412
0.2627451 0.8705882 0.7529412
0.4196078 0.8705882 0.7529412
0.5803922 0.8705882 0.7529412
0.7372549 0.8705882 0.7529412
0.8980392 0.8705882 0.7529412
1.0000000 0.8705882 0.7529412
1.0000000 0.8705882 0.7529412
1.0000000 0.8705882 0.7529412
1.0000000 0.8705882 0.7529412
0.2627451 1.0000000 0.7529412
0.4196078 1.0000000 0.7529412
0.5803922 1.0000000 0.7529412
0.7372549 1.0000000 0.7529412
0.8980392 1.0000000 0.7529412
1.0000000 1.0000000 0.7529412
1.0000000 1.0000000 0.7529412
1.0000000 1.0000000 0.7529412
1.0000000 1.0000000 0.7529412
0.2627451 1.0000000 0.7529412
0.4196078 1.0000000 0.7529412
0.5803922 1.0000000 0.7529412
0.7372549 1.0000000 0.7529412
0.8980392 1.0000000 0.7529412
1.0000000 1.0000000 0.7529412
1.0000000 1.0000000 0.7529412
1.0000000 1.0000000 0.7529412
1.0000000 1.0000000 0.7529412
0.2627451 0.0000000 0.9098039
0.4196078 0.0000000 0.9098039
0.5803922 0.0000000 0.9098039
0.7372549 0.0000000 0.9098039
0.8980392 0.0000000 0.9098039
1.0000000 0.0000000 0.9098039
1.0000000 0.0000000 0.9098039
1.0000000 0.0000000 0.9098039
1.0000000 0.0000000 0.9098039
0.2627451 0.0823529 0.9098039
0.4196078 0.0823529 0.9098039
0.5803922 0.0823529 0.9098039
0.7372549 0.0823529 0.9098039
0.8980392 0.0823529 0.9098039
1.0000000 0.0823529 0.9098039
1.0000000 0.0823529 0.9098039
1.0000000 0.0823529 0.9098039
1.0000000 0.0823529 0.9098039
0.2627451 0.2431373 0.9098039
0.4196078 0.2431373 0.9098039
0.5803922 0.2431373 0.9098039
0.7372549 0.2431373 0.9098039
0.8980392 0.2431373 0.9098039
1.0000000 0.2431373 0.9098039
1.0000000 0.2431373 0.9098039
1.0000000 0.2431373 0.9098039
1.0000000 0.2431373 0.9098039
0.2627451 0.4000000 0.9098039
0.4196078 0.4000000 0.9098039
0.5803922 0.4000000 0.9098039
0.7372549 0.4000000 0.9098039
0.8980392 0.4000000 0.9098039
1.0000000 0.4000000 0.9098039
1.0000000 0.4000000 0.9098039
1.0000000 0.4000000 0.9098039
1.0000000 0.4000000 0.9098039
0.2627451 0.5607843 0.9098039
0.4196078 0.5607843 0.9098039
0.5803922 0.5607843 0.9098039
0.7372549 0.5607843 0.9098039
0.8980392 0.5607843 0.9098039
1.0000000 0.5607843 0.9098039
1.0000000 0.5607843 0.9098039
1.0000000 0.5607843 0.9098039
1.0000000 0.5607843 0.9098039
0.2627451 0.7137255 0.9098039
0.4196078 0.7137255 0.9098039
0.5803922 0.7137255 0.9098039
0.7372549 0.7137255 0.9098039
0.8980392 0.7137255 0.9098039
1.0000000 0.7137255 0.9098039
1.0000000 0.7137255 0.9098039
1.0000000 0.7137255 0.9098039
1.0000000 0.7137255 0.9098039
0.2627451 0.8705882 0.9098039
0.4196078 0.8705882 0.9098039
0.5803922 0.8705882 0.9098039
0.7372549 0.8705882 0.9098039
0.8980392 0.8705882 0.9098039
1.0000000 0.8705882 0.9098039
1.0000000 0.8705882 0.9098039
1.0000000 0.8705882 0.9098039
1.0000000 0.8705882 0.9098039
0.2627451 1.0000000 0.9098039
0.4196078 1.0000000 0.9098039
0.5803922 1.0000000 0.9098039
0.7372549 1.0000000 0.9098039
0.8980392 1.0000000 0.9098039
1.0000000 1.0000000 0.9098039
1.0000000 1.0000000 0.9098039
1.0000000 1.0000000 0.9098039
1.0000000 1.0000000 0.9098039
0.2627451 1.0000000 0.9098039
0.4196078 1.0000000 0.9098039
0.5803922 1.0000000 0.9098039
0.7372549 1.0000000 0.9098039
0.8980392 1.0000000 0.9098039
1.0000000 1.0000000 0.9098039
1.0000000 1.0000000 0.9098039
1.0000000 1.0000000 0.9098039
1.0000000 1.0000000 0.9098039
0.2627451 0.0000000 1.0000000
0.4196078 0.0000000 1.0000000
0.5803922 0.0000000 1.0000000
0.7372549 0.0000000 1.0000000
0.8980392 0.0000000 1.0000000
1.0000000 0.0000000 1.0000000
1.0000000 0.0000000 1.0000000
1.0000000 0.0000000 1.0000000
1.0000000 0.0000000 1.0000000
0.2627451 0.0823529 1.0000000
0.4196078 0.0823529 1.0000000
0.5803922 0.0823529 1.0000000
0.7372549 0.0823529 1.0000000
0.8980392 0.0823529 1.0000000
1.0000000 0.0823529 1.0000000
1.0000000 0.0823529 1.0000000
1.0000000 0.0823529 1.0000000
1.0000000 0.0823529 1.0000000
0.2627451 0.2431373 1.0000000
0.4196078 0.2431373 1.0000000
0.5803922 0.2431373 1.0000000
0.7372549 0.2431373 1.0000000
0.8980392 0.2431373 1.0000000
1.0000000 0.2431373 1.0000000
1.0000000 0.2431373 1.0000000
1.0000000 0.2431373 1.0000000
1.0000000 0.2431373 1.0000000
0.2627451 0.4000000 1.0000000
0.4196078 0.4000000 1.0000000
0.5803922 0.4000000 1.0000000
0.7372549 0.4000000 1.0000000
0.8980392 0.4000000 1.0000000
1.0000000 0.4000000 1.0000000
1.0000000 0.4000000 1.0000000
1.0000000 0.4000000 1.0000000
1.0000000 0.4000000 1.0000000
0.2627451 0.5607843 1.0000000
0.4196078 0.5607843 1.0000000
0.5803922 0.5607843 1.0000000
0.7372549 0.5607843 1.0000000
0.8980392 0.5607843 1.0000000
1.0000000 0.5607843 1.0000000
1.0000000 0.5607843 1.0000000
1.0000000 0.5607843 1.0000000
1.0000000 0.5607843 1.0000000
0.2627451 0.7137255 1.0000000
0.4196078 0.7137255 1.0000000
0.5803922 0.7137255 1.0000000
0.7372549 0.7137255 1.0000000
0.8980392 0.7137255 1.0000000
1.0000000 0.7137255 1.0000000
1.0000000 0.7137255 1.0000000
1.0000000 0.7137255 1.0000000
1.0000000 0.7137255 1.0000000
0.2627451 0.8705882 1.0000000
0.4196078 0.8705882 1.0000000
0.5803922 0.8705882 1.0000000
0.7372549 0.8705882 1.0000000
0.8980392 0.8705882 1.0000000
1.0000000 0.8705882 1.0000000
1.0000000 0.8705882 1.0000000
1.0000000 0.8705882 1.0000000
1.0000000 0.8705882 1.0000000
0.2627451 1.0000000 1.0000000
0.4196078 1.0000000 1.0000000
0.5803922 1.0000000 1.0000000
0.7372549 1.0000000 1.0000000
0.8980392 1.0000000 1.0000000
1.0000000 1.0000000 1.0000000
1.0000000 1.0000000 1.0000000
1.0000000 1.0000000 1.0000000
1.0000000 1.0000000 1.0000000
0.2627451 1.0000000 1.0000000
0.4196078 1.0000000 1.0000000
0.5803922 1.0000000 1.0000000
0.7372549 1.0000000 1.0000000
0.8980392 1.0000000 1.0000000
1.0000000 1.0000000 1.0000000
1.0000000 1.0000000 1.0000000
1.0000000 1.0000000 1.0000000
1.0000000 1.0000000 1.0000000
0.2627451 0.0000000 1.0000000
0.4196078 0.0000000 1.0000000
0.5803922 0.0000000 1.0000000
0.7372549 0.0000000 1.0000000
0.8980392 0.0000000 1.0000000
1.0000000 0.0000000 1.0000000
1.0000000 0.0000000 1.0000000
1.0000000 0.0000000 1.0000000
1.0000000 0.0000000 1.0000000
0.2627451 0.0823529 1.0000000
0.4196078 0.0823529 1.0000000
0.5803922 0.0823529 1.0000000
0.7372549 0.0823529 1.0000000
0.8980392 0.0823529 1.0000000
1.0000000 0.0823529 1.0000000
1.0000000 0.0823529 1.0000000
1.0000000 0.0823529 1.0000000
1.0000000 0.0823529 1.0000000
0.2627451 0.2431373 1.0000000
0.4196078 0.2431373 1.0000000
0.5803922 0.2431373 1.0000000
0.7372549 0.2431373 1.0000000
0.8980392 0.2431373 1.0000000
1.0000000 0.2431373 1.0000000
1.0000000 0.2431373 1.0000000
1.0000000 0.2431373 1.0000000
1.0000000 0.2431373 1.0000000
0.2627451 0.4000000 1.0000000
0.4196078 0.4000000 1.0000000
0.5803922 0.4000000 1.0000000
0.7372549 0.4000000 1.0000000
0.8980392 0.4000000 1.0000000
1.0000000 0.4000000 1.0000000
1.0000000 0.4000000 1.0000000
1.0000000 0.4000000 1.0000000
1.0000000 0.4000000 1.0000000
0.2627451 0.5607843 1.0000000
0.4196078 0.5607843 1.0000000
0.5803922 0.5607843 1.0000000
0.7372549 0.5607843 1.0000000
0.8980392 0.5607843 1.0000000
1.0000000 0.5607843 1.0000000
1.0000000 0.5607843 1.0000000
1.0000000 0.5607843 1.0000000
1.0000000 0.5607843 1.0000000
0.2627451 0.7137255 1.0000000
0.4196078 0.7137255 1.0000000
0.5803922 0.7137255 1.0000000
0.7372549 0.7137255 1.0000000
0.8980392 0.7137255 1.0000000
1.0000000 0.7137255 1.0000000
1.0000000 0.7137255 1.0000000
1.0000000 0.7137255 1.0000000
1.0000000 0.7137255 1.0000000
0.2627451 0.8705882 1.0000000
0.4196078 0.8705882 1.0000000
0.5803922 0.8705882 1.0000000
0.7372549 0.8705882 1.0000000
0.8980392 0.8705882 1.0000000
1.0000000 0.8705882 1.0000000
1.0000000 0.8705882 1.0000000
1.0000000 0.8705882 1.0000000
1.0000000 0.8705882 1.0000000
0.2627451 1.0000000 1.0000000
0.4196078 1.0000000 1.0000000
0.5803922 1.0000000 1.0000000
0.7372549 1.0000000 1.0000000
0.8980392 1.0000000 1.0000000
1.0000000 1.0000000 1.0000000
1.0000000 1.0000000 1.0000000
1.0000000 1.0000000 1.0000000
1.0000000 1.0000000 1.0000000
0.2627451 1.0000000 1.0000000
0.4196078 1.0000000 1.0000000
0.5803922 1.0000000 1.0000000
0.7372549 1.0000000 1.0000000
0.8980392 1.0000000 1.0000000
1.0000000 1.0000000 1.0000000
1.0000000 1.0000000 1.0000000
1.0000000 1.0000000 1.0000000
1.0000000 1.0000000 1.0000000
