rust/creative_luts/pastel_pink/lut.cube
TITLE "Pixel Craft Creative: pastel_pink"
LUT_3D_SIZE 5
DOMAIN_MIN 0.0 0.0 0.0
DOMAIN_MAX 1.0 1.0 1.0
0.2627451 0.0000000 0.0000000
0.5803922 0.0000000 0.0000000
0.8980392 0.0000000 0.0000000
1.0000000 0.0000000 0.0000000
1.0000000 0.0000000 0.0000000
0.2627451 0.2431373 0.0000000
0.5803922 0.2431373 0.0000000
0.8980392 0.2431373 0.0000000
1.0000000 0.2431373 0.0000000
1.0000000 0.2431373 0.0000000
0.2627451 0.5607843 0.0000000
0.5803922 0.5607843 0.0000000
0.8980392 0.5607843 0.0000000
1.0000000 0.5607843 0.0000000
1.0000000 0.5607843 0.0000000
0.2627451 0.8705882 0.0000000
0.5803922 0.8705882 0.0000000
0.8980392 0.8705882 0.0000000
1.0000000 0.8705882 0.0000000
1.0000000 0.8705882 0.0000000
0.2627451 1.0000000 0.0000000
0.5803922 1.0000000 0.0000000
0.8980392 1.0000000 0.0000000
1.0000000 1.0000000 0.0000000
1.0000000 1.0000000 0.0000000
0.2627451 0.0000000 0.2823530
0.5803922 0.0000000 0.2823530
0.8980392 0.0000000 0.2823530
1.0000000 0.0000000 0.2823530
1.0000000 0.0000000 0.2823530
0.2627451 0.2431373 0.2823530
0.5803922 0.2431373 0.2823530
0.8980392 0.2431373 0.2823530
1.0000000 0.2431373 0.2823530
1.0000000 0.2431373 0.2823530
0.2627451 0.5607843 0.2823530
0.5803922 0.5607843 0.2823530
0.8980392 0.5607843 0.2823530
1.0000000 0.5607843 0.2823530
1.0000000 0.5607843 0.2823530
0.2627451 0.8705882 0.2823530
0.5803922 0.8705882 0.2823530
0.8980392 0.8705882 0.2823530
1.0000000 0.8705882 0.2823530
1.0000000 0.8705882 0.2823530
0.2627451 1.0000000 0.2823530
0.5803922 1.0000000 0.2823530
0.8980392 1.0000000 0.2823530
1.0000000 1.0000000 0.2823530
1.0000000 1.0000000 0.2823530
0.2627451 0.0000000 0.6000000
0.5803922 0.0000000 0.6000000
0.8980392 0.0000000 0.6000000
1.0000000 0.0000000 0.6000000
1.0000000 0.0000000 0.6000000
0.2627451 0.2431373 0.6000000
0.5803922 0.2431373 0.6000000
0.8980392 0.2431373 0.6000000
1.0000000 0.2431373 0.6000000
1.0000000 0.2431373 0.6000000
0.2627451 0.5607843 0.6000000
0.5803922 0.5607843 0.6000000
0.8980392 0.5607843 0.6000000
1.0000000 0.5607843 0.6000000
1.0000000 0.5607843 0.6000000
0.2627451 0.8705882 0.6000000
0.5803922 0.8705882 0.6000000
0.8980392 0.8705882 0.6000000
1.0000000 0.8705882 0.6000000
1.0000000 0.8705882 0.6000000
0.2627451 1.0000000 0.6000000
0.5803922 1.0000000 0.6000000
0.8980392 1.0000000 0.6000000
1.0000000 1.0000000 0.6000000
1.0000000 1.0000000 0.6000000
0.2627451 0.0000000 0.9098039
0.5803922 0.0000000 0.9098039
0.8980392 0.0000000 0.9098039
1.0000000 0.0000000 0.9098039
1.0000000 0.0000000 0.9098039
0.2627451 0.2431373 0.9098039
0.5803922 0.2431373 0.9098039
0.8980392 0.2431373 0.9098039
1.0000000 0.2431373 0.9098039
1.0000000 0.2431373 0.9098039
0.2627451 0.5607843 0.9098039
0.5803922 0.5607843 0.9098039
0.8980392 0.5607843 0.9098039
1.0000000 0.5607843 0.9098039
1.0000000 0.5607843 0.9098039
0.2627451 0.8705882 0.9098039
0.5803922 0.8705882 0.9098039
0.8980392 0.8705882 0.9098039
1.0000000 0.8705882 0.9098039
1.0000000 0.8705882 0.9098039
0.2627451 1.0000000 0.9098039
0.5803922 1.0000000 0.9098039
0.8980392 1.0000000 0.9098039
1.0000000 1.0000000 0.9098039
1.0000000 1.0000000 0.9098039
0.2627451 0.0000000 1.0000000
0.5803922 0.0000000 1.0000000
0.8980392 0.0000000 1.0000000
1.0000000 0.0000000 1.0000000
1.0000000 0.0000000 1.0000000
0.2627451 0.2431373 1.0000000
0.5803922 0.2431373 1.0000000
0.8980392 0.2431373 1.0000000
1.0000000 0.2431373 1.0000000
1.0000000 0.2431373 1.0000000
0.2627451 0.5607843 1.0000000
0.5803922 0.5607843 1.0000000
0.8980392 0.5607843 1.0000000
1.0000000 0.5607843 1.0000000
1.0000000 0.5607843 1.0000000
0.2627451 0.8705882 1.0000000
0.5803922 0.8705882 1.0000000
0.8980392 0.8705882 1.0000000
1.0000000 0.8705882 1.0000000
1.0000000 0.8705882 1.0000000
0.2627451 1.0000000 1.0000000
0.5803922 1.0000000 1.0000000
0.8980392 1.0000000 1.0000000
1.0000000 1.0000000 1.0000000
1.0000000 1.0000000 1.0000000
