rust/creative_luts/oceanic/lut.cube
TITLE "Pixel Craft Creative: oceanic"
LUT_3D_SIZE 33
DOMAIN_MIN 0.0 0.0 0.0
DOMAIN_MAX 1.0 1.0 1.0
0.0000000 0.0666667 0.1333333
0.0235294 0.0666667 0.1333333
0.0470588 0.0666667 0.1333333
0.0745098 0.0666667 0.1333333
0.0980392 0.0666667 0.1333333
0.1254902 0.0666667 0.1333333
0.1490196 0.0666667 0.1333333
0.1725490 0.0666667 0.1333333
0.2000000 0.0666667 0.1333333
0.2235294 0.0666667 0.1333333
0.2509804 0.0666667 0.1333333
0.2745098 0.0666667 0.1333333
0.2980392 0.0666667 0.1333333
0.3254902 0.0666667 0.1333333
0.3490196 0.0666667 0.1333333
0.3764706 0.0666667 0.1333333
0.4000000 0.0666667 0.1333333
0.4235294 0.0666667 0.1333333
0.4470588 0.0666667 0.1333333
0.4705882 0.0666667 0.1333333
0.4980392 0.0666667 0.1333333
0.5215687 0.0666667 0.1333333
0.5490196 0.0666667 0.1333333
0.5725490 0.0666667 0.1333333
0.5960785 0.0666667 0.1333333
0.6235294 0.0666667 0.1333333
0.6470588 0.0666667 0.1333333
0.6745098 0.0666667 0.1333333
0.6980392 0.0666667 0.1333333
0.7215686 0.0666667 0.1333333
0.7490196 0.0666667 0.1333333
0.7725490 0.0666667 0.1333333
0.8000000 0.0666667 0.1333333
0.0000000 0.0941176 0.1333333
0.0235294 0.0941176 0.1333333
0.0470588 0.0941176 0.1333333
0.0745098 0.0941176 0.1333333
0.0980392 0.0941176 0.1333333
0.1254902 0.0941176 0.1333333
0.1490196 0.0941176 0.1333333
0.1725490 0.0941176 0.1333333
0.2000000 0.0941176 0.1333333
0.2235294 0.0941176 0.1333333
0.2509804 0.0941176 0.1333333
0.2745098 0.0941176 0.1333333
0.2980392 0.0941176 0.1333333
0.3254902 0.0941176 0.1333333
0.3490196 0.0941176 0.1333333
0.3764706 0.0941176 0.1333333
0.4000000 0.0941176 0.1333333
0.4235294 0.0941176 0.1333333
0.4470588 0.0941176 0.1333333
0.4705882 0.0941176 0.1333333
0.4980392 0.0941176 0.1333333
0.5215687 0.0941176 0.1333333
0.5490196 0.0941176 0.1333333
0.5725490 0.0941176 0.1333333
0.5960785 0.0941176 0.1333333
0.6235294 0.0941176 0.1333333
0.6470588 0.0941176 0.1333333
0.6745098 0.0941176 0.1333333
0.6980392 0.0941176 0.1333333
0.7215686 0.0941176 0.1333333
0.7490196 0.0941176 0.1333333
0.7725490 0.0941176 0.1333333
0.8000000 0.0941176 0.1333333
0.0000000 0.1176471 0.1333333
0.0235294 0.1176471 0.1333333
0.0470588 0.1176471 0.1333333
0.0745098 0.1176471 0.1333333
0.0980392 0.1176471 0.1333333
0.1254902 0.1176471 0.1333333
0.1490196 0.1176471 0.1333333
0.1725490 0.1176471 0.1333333
0.2000000 0.1176471 0.1333333
0.2235294 0.1176471 0.1333333
0.2509804 0.1176471 0.1333333
0.2745098 0.1176471 0.1333333
0.2980392 0.1176471 0.1333333
0.3254902 0.1176471 0.1333333
0.3490196 0.1176471 0.1333333
0.3764706 0.1176471 0.1333333
0.4000000 0.1176471 0.1333333
0.4235294 0.1176471 0.1333333
0.4470588 0.1176471 0.1333333
0.4705882 0.1176471 0.1333333
0.4980392 0.1176471 0.1333333
0.5215687 0.1176471 0.1333333
0.5490196 0.1176471 0.1333333
0.5725490 0.1176471 0.1333333
0.5960785 0.1176471 0.1333333
0.6235294 0.1176471 0.1333333
0.6470588 0.1176471 0.1333333
0.6745098 0.1176471 0.1333333
0.6980392 0.1176471 0.1333333
0.7215686 0.1176471 0.1333333
0.7490196 0.1176471 0.1333333
0.7725490 0.1176471 0.1333333
0.8000000 0.1176471 0.1333333
0.0000000 0.1450980 0.1333333
0.0235294 0.1450980 0.1333333
0.0470588 0.1450980 0.1333333
0.0745098 0.1450980 0.1333333
0.0980392 0.1450980 0.1333333
0.1254902 0.1450980 0.1333333
0.1490196 0.1450980 0.1333333
0.1725490 0.1450980 0.1333333
0.2000000 0.1450980 0.1333333
0.2235294 0.1450980 0.1333333
0.2509804 0.1450980 0.1333333
0.2745098 0.1450980 0.1333333
0.2980392 0.1450980 0.1333333
0.3254902 0.1450980 0.1333333
0.3490196 0.1450980 0.1333333
0.3764706 0.1450980 0.1333333
0.4000000 0.1450980 0.1333333
0.4235294 0.1450980 0.1333333
0.4470588 0.1450980 0.1333333
0.4705882 0.1450980 0.1333333
0.4980392 0.1450980 0.1333333
0.5215687 0.1450980 0.1333333
0.5490196 0.1450980 0.1333333
0.5725490 0.1450980 0.1333333
0.5960785 0.1450980 0.1333333
0.6235294 0.1450980 0.1333333
0.6470588 0.1450980 0.1333333
0.6745098 0.1450980 0.1333333
0.6980392 0.1450980 0.1333333
0.7215686 0.1450980 0.1333333
0.7490196 0.1450980 0.1333333
0.7725490 0.1450980 0.1333333
0.8000000 0.1450980 0.1333333
0.0000000 0.1686275 0.1333333
0.0235294 0.1686275 0.1333333
0.0470588 0.1686275 0.1333333
0.0745098 0.1686275 0.1333333
0.0980392 0.1686275 0.1333333
0.1254902 0.1686275 0.1333333
0.1490196 0.1686275 0.1333333
0.1725490 0.1686275 0.1333333
0.2000000 0.1686275 0.1333333
0.2235294 0.1686275 0.1333333
0.2509804 0.1686275 0.1333333
0.2745098 0.1686275 0.1333333
0.2980392 0.1686275 0.1333333
0.3254902 0.1686275 0.1333333
0.3490196 0.1686275 0.1333333
0.3764706 0.1686275 0.1333333
0.4000000 0.1686275 0.1333333
0.4235294 0.1686275 0.1333333
0.4470588 0.1686275 0.1333333
0.4705882 0.1686275 0.1333333
0.4980392 0.1686275 0.1333333
0.5215687 0.1686275 0.1333333
0.5490196 0.1686275 0.1333333
0.5725490 0.1686275 0.1333333
0.5960785 0.1686275 0.1333333
0.6235294 0.1686275 0.1333333
0.6470588 0.1686275 0.1333333
0.6745098 0.1686275 0.1333333
0.6980392 0.1686275 0.1333333
0.7215686 0.1686275 0.1333333
0.7490196 0.1686275 0.1333333
0.7725490 0.1686275 0.1333333
0.8000000 0.1686275 0.1333333
0.0000000 0.1921569 0.1333333
0.0235294 0.1921569 0.1333333
0.0470588 0.1921569 0.1333333
0.0745098 0.1921569 0.1333333
0.0980392 0.1921569 0.1333333
0.1254902 0.1921569 0.1333333
0.1490196 0.1921569 0.1333333
0.1725490 0.1921569 0.1333333
0.2000000 0.1921569 0.1333333
0.2235294 0.1921569 0.1333333
0.2509804 0.1921569 0.1333333
0.2745098 0.1921569 0.1333333
0.2980392 0.1921569 0.1333333
0.3254902 0.1921569 0.1333333
0.3490196 0.1921569 0.1333333
0.3764706 0.1921569 0.1333333
0.4000000 0.1921569 0.1333333
0.4235294 0.1921569 0.1333333
0.4470588 0.1921569 0.1333333
0.4705882 0.1921569 0.1333333
0.4980392 0.1921569 0.1333333
0.5215687 0.1921569 0.1333333
0.5490196 0.1921569 0.1333333
0.5725490 0.1921569 0.1333333
0.5960785 0.1921569 0.1333333
0.6235294 0.1921569 0.1333333
0.6470588 0.1921569 0.1333333
0.6745098 0.1921569 0.1333333
0.6980392 0.1921569 0.1333333
0.7215686 0.1921569 0.1333333
0.7490196 0.1921569 0.1333333
0.7725490 0.1921569 0.1333333
0.8000000 0.1921569 0.1333333
0.0000000 0.2196078 0.1333333
0.0235294 0.2196078 0.1333333
0.0470588 0.2196078 0.1333333
0.0745098 0.2196078 0.1333333
0.0980392 0.2196078 0.1333333
0.1254902 0.2196078 0.1333333
0.1490196 0.2196078 0.1333333
0.1725490 0.2196078 0.1333333
0.2000000 0.2196078 0.1333333
0.2235294 0.2196078 0.1333333
0.2509804 0.2196078 0.1333333
0.2745098 0.2196078 0.1333333
0.2980392 0.2196078 0.1333333
0.3254902 0.2196078 0.1333333
0.3490196 0.2196078 0.1333333
0.3764706 0.2196078 0.1333333
0.4000000 0.2196078 0.1333333
0.4235294 0.2196078 0.1333333
0.4470588 0.2196078 0.1333333
0.4705882 0.2196078 0.1333333
0.4980392 0.2196078 0.1333333
0.5215687 0.2196078 0.1333333
0.5490196 0.2196078 0.1333333
0.5725490 0.2196078 0.1333333
0.5960785 0.2196078 0.1333333
0.6235294 0.2196078 0.1333333
0.6470588 0.2196078 0.1333333
0.6745098 0.2196078 0.1333333
0.6980392 0.2196078 0.1333333
0.7215686 0.2196078 0.1333333
0.7490196 0.2196078 0.1333333
0.7725490 0.2196078 0.1333333
0.8000000 0.2196078 0.1333333
0.0000000 0.2431373 0.1333333
0.0235294 0.2431373 0.1333333
0.0470588 0.2431373 0.1333333
0.0745098 0.2431373 0.1333333
0.0980392 0.2431373 0.1333333
0.1254902 0.2431373 0.1333333
0.1490196 0.2431373 0.1333333
0.1725490 0.2431373 0.1333333
0.2000000 0.2431373 0.1333333
0.2235294 0.2431373 0.1333333
0.2509804 0.2431373 0.1333333
0.2745098 0.2431373 0.1333333
0.2980392 0.2431373 0.1333333
0.3254902 0.2431373 0.1333333
0.3490196 0.2431373 0.1333333
0.3764706 0.2431373 0.1333333
0.4000000 0.2431373 0.1333333
0.4235294 0.2431373 0.1333333
0.4470588 0.2431373 0.1333333
0.4705882 0.2431373 0.1333333
0.4980392 0.2431373 0.1333333
0.5215687 0.2431373 0.1333333
0.5490196 0.2431373 0.1333333
0.5725490 0.2431373 0.1333333
0.5960785 0.2431373 0.1333333
0.6235294 0.2431373 0.1333333
0.6470588 0.2431373 0.1333333
0.6745098 0.2431373 0.1333333
0.6980392 0.2431373 0.1333333
0.7215686 0.2431373 0.1333333
0.7490196 0.2431373 0.1333333
0.7725490 0.2431373 0.1333333
0.8000000 0.2431373 0.1333333
0.0000000 0.2705882 0.1333333
0.0235294 0.2705882 0.1333333
0.0470588 0.2705882 0.1333333
0.0745098 0.2705882 0.1333333
0.0980392 0.2705882 0.1333333
0.1254902 0.2705882 0.1333333
0.1490196 0.2705882 0.1333333
0.1725490 0.2705882 0.1333333
0.2000000 0.2705882 0.1333333
0.2235294 0.2705882 0.1333333
0.2509804 0.2705882 0.1333333
0.2745098 0.2705882 0.1333333
0.2980392 0.2705882 0.1333333
0.3254902 0.2705882 0.1333333
0.3490196 0.2705882 0.1333333
0.3764706 0.2705882 0.1333333
0.4000000 0.2705882 0.1333333
0.4235294 0.2705882 0.1333333
0.4470588 0.2705882 0.1333333
0.4705882 0.2705882 0.1333333
0.4980392 0.2705882 0.1333333
0.5215687 0.2705882 0.1333333
0.5490196 0.2705882 0.1333333
0.5725490 0.2705882 0.1333333
0.5960785 0.2705882 0.1333333
0.6235294 0.2705882 0.1333333
0.6470588 0.2705882 0.1333333
0.6745098 0.2705882 0.1333333
0.6980392 0.2705882 0.1333333
0.7215686 0.2705882 0.1333333
0.7490196 0.2705882 0.1333333
0.7725490 0.2705882 0.1333333
0.8000000 0.2705882 0.1333333
0.0000000 0.2941177 0.1333333
0.0235294 0.2941177 0.1333333
0.0470588 0.2941177 0.1333333
0.0745098 0.2941177 0.1333333
0.0980392 0.2941177 0.1333333
0.1254902 0.2941177 0.1333333
0.1490196 0.2941177 0.1333333
0.1725490 0.2941177 0.1333333
0.2000000 0.2941177 0.1333333
0.2235294 0.2941177 0.1333333
0.2509804 0.2941177 0.1333333
0.2745098 0.2941177 0.1333333
0.2980392 0.2941177 0.1333333
0.3254902 0.2941177 0.1333333
0.3490196 0.2941177 0.1333333
0.3764706 0.2941177 0.1333333
0.4000000 0.2941177 0.1333333
0.4235294 0.2941177 0.1333333
0.4470588 0.2941177 0.1333333
0.4705882 0.2941177 0.1333333
0.4980392 0.2941177 0.1333333
0.5215687 0.2941177 0.1333333
0.5490196 0.2941177 0.1333333
0.5725490 0.2941177 0.1333333
0.5960785 0.2941177 0.1333333
0.6235294 0.2941177 0.1333333
0.6470588 0.2941177 0.1333333
0.6745098 0.2941177 0.1333333
0.6980392 0.2941177 0.1333333
0.7215686 0.2941177 0.1333333
0.7490196 0.2941177 0.1333333
0.7725490 0.2941177 0.1333333
0.8000000 0.2941177 0.1333333
0.0000000 0.3176471 0.1333333
0.0235294 0.3176471 0.1333333
0.0470588 0.3176471 0.1333333
0.0745098 0.3176471 0.1333333
0.0980392 0.3176471 0.1333333
0.1254902 0.3176471 0.1333333
0.1490196 0.3176471 0.1333333
0.1725490 0.3176471 0.1333333
0.2000000 0.3176471 0.1333333
0.2235294 0.3176471 0.1333333
0.2509804 0.3176471 0.1333333
0.2745098 0.3176471 0.1333333
0.2980392 0.3176471 0.1333333
0.3254902 0.3176471 0.1333333
0.3490196 0.3176471 0.1333333
0.3764706 0.3176471 0.1333333
0.4000000 0.3176471 0.1333333
0.4235294 0.3176471 0.1333333
0.4470588 0.3176471 0.1333333
0.4705882 0.3176471 0.1333333
0.4980392 0.3176471 0.1333333
0.5215687 0.3176471 0.1333333
0.5490196 0.3176471 0.1333333
0.5725490 0.3176471 0.1333333
0.5960785 0.3176471 0.1333333
0.6235294 0.3176471 0.1333333
0.6470588 0.3176471 0.1333333
0.6745098 0.3176471 0.1333333
0.6980392 0.3176471 0.1333333
0.7215686 0.3176471 0.1333333
0.7490196 0.3176471 0.1333333
0.7725490 0.3176471 0.1333333
0.8000000 0.3176471 0.1333333
0.0000000 0.3450980 0.1333333
0.0235294 0.3450980 0.1333333
0.0470588 0.3450980 0.1333333
0.0745098 0.3450980 0.1333333
0.0980392 0.3450980 0.1333333
0.1254902 0.3450980 0.1333333
0.1490196 0.3450980 0.1333333
0.1725490 0.3450980 0.1333333
0.2000000 0.3450980 0.1333333
0.2235294 0.3450980 0.1333333
0.2509804 0.3450980 0.1333333
0.2745098 0.3450980 0.1333333
0.2980392 0.3450980 0.1333333
0.3254902 0.3450980 0.1333333
0.3490196 0.3450980 0.1333333
0.3764706 0.3450980 0.1333333
0.4000000 0.3450980 0.1333333
0.4235294 0.3450980 0.1333333
0.4470588 0.3450980 0.1333333
0.4705882 0.3450980 0.1333333
0.4980392 0.3450980 0.1333333
0.5215687 0.3450980 0.1333333
0.5490196 0.3450980 0.1333333
0.5725490 0.3450980 0.1333333
0.5960785 0.3450980 0.1333333
0.6235294 0.3450980 0.1333333
0.6470588 0.3450980 0.1333333
0.6745098 0.3450980 0.1333333
0.6980392 0.3450980 0.1333333
0.7215686 0.3450980 0.1333333
0.7490196 0.3450980 0.1333333
0.7725490 0.3450980 0.1333333
0.8000000 0.3450980 0.1333333
0.0000000 0.3686275 0.1333333
0.0235294 0.3686275 0.1333333
0.0470588 0.3686275 0.1333333
0.0745098 0.3686275 0.1333333
0.0980392 0.3686275 0.1333333
0.1254902 0.3686275 0.1333333
0.1490196 0.3686275 0.1333333
0.1725490 0.3686275 0.1333333
0.2000000 0.3686275 0.1333333
0.2235294 0.3686275 0.1333333
0.2509804 0.3686275 0.1333333
0.2745098 0.3686275 0.1333333
0.2980392 0.3686275 0.1333333
0.3254902 0.3686275 0.1333333
0.3490196 0.3686275 0.1333333
0.3764706 0.3686275 0.1333333
0.4000000 0.3686275 0.1333333
0.4235294 0.3686275 0.1333333
0.4470588 0.3686275 0.1333333
0.4705882 0.3686275 0.1333333
0.4980392 0.3686275 0.1333333
0.5215687 0.3686275 0.1333333
0.5490196 0.3686275 0.1333333
0.5725490 0.3686275 0.1333333
0.5960785 0.3686275 0.1333333
0.6235294 0.3686275 0.1333333
0.6470588 0.3686275 0.1333333
0.6745098 0.3686275 0.1333333
0.6980392 0.3686275 0.1333333
0.7215686 0.3686275 0.1333333
0.7490196 0.3686275 0.1333333
0.7725490 0.3686275 0.1333333
0.8000000 0.3686275 0.1333333
0.0000000 0.3960784 0.1333333
0.0235294 0.3960784 0.1333333
0.0470588 0.3960784 0.1333333
0.0745098 0.3960784 0.1333333
0.0980392 0.3960784 0.1333333
0.1254902 0.3960784 0.1333333
0.1490196 0.3960784 0.1333333
0.1725490 0.3960784 0.1333333
0.2000000 0.3960784 0.1333333
0.2235294 0.3960784 0.1333333
0.2509804 0.3960784 0.1333333
0.2745098 0.3960784 0.1333333
0.2980392 0.3960784 0.1333333
0.3254902 0.3960784 0.1333333
0.3490196 0.3960784 0.1333333
0.3764706 0.3960784 0.1333333
0.4000000 0.3960784 0.1333333
0.4235294 0.3960784 0.1333333
0.4470588 0.3960784 0.1333333
0.4705882 0.3960784 0.1333333
0.4980392 0.3960784 0.1333333
0.5215687 0.3960784 0.1333333
0.5490196 0.3960784 0.1333333
0.5725490 0.3960784 0.1333333
0.5960785 0.3960784 0.1333333
0.6235294 0.3960784 0.1333333
0.6470588 0.3960784 0.1333333
0.6745098 0.3960784 0.1333333
0.6980392 0.3960784 0.1333333
0.7215686 0.3960784 0.1333333
0.7490196 0.3960784 0.1333333
0.7725490 0.3960784 0.1333333
0.8000000 0.3960784 0.1333333
0.0000000 0.4196078 0.1333333
0.0235294 0.4196078 0.1333333
0.0470588 0.4196078 0.1333333
0.0745098 0.4196078 0.1333333
0.0980392 0.4196078 0.1333333
0.1254902 0.4196078 0.1333333
0.1490196 0.4196078 0.1333333
0.1725490 0.4196078 0.1333333
0.2000000 0.4196078 0.1333333
0.2235294 0.4196078 0.1333333
0.2509804 0.4196078 0.1333333
0.2745098 0.4196078 0.1333333
0.2980392 0.4196078 0.1333333
0.3254902 0.4196078 0.1333333
0.3490196 0.4196078 0.1333333
0.3764706 0.4196078 0.1333333
0.4000000 0.4196078 0.1333333
0.4235294 0.4196078 0.1333333
0.4470588 0.4196078 0.1333333
0.4705882 0.4196078 0.1333333
0.4980392 0.4196078 0.1333333
0.5215687 0.4196078 0.1333333
0.5490196 0.4196078 0.1333333
0.5725490 0.4196078 0.1333333
0.5960785 0.4196078 0.1333333
0.6235294 0.4196078 0.1333333
0.6470588 0.4196078 0.1333333
0.6745098 0.4196078 0.1333333
0.6980392 0.4196078 0.1333333
0.7215686 0.4196078 0.1333333
0.7490196 0.4196078 0.1333333
0.7725490 0.4196078 0.1333333
0.8000000 0.4196078 0.1333333
0.0000000 0.4431373 0.1333333
0.0235294 0.4431373 0.1333333
0.0470588 0.4431373 0.1333333
0.0745098 0.4431373 0.1333333
0.0980392 0.4431373 0.1333333
0.1254902 0.4431373 0.1333333
0.1490196 0.4431373 0.1333333
0.1725490 0.4431373 0.1333333
0.2000000 0.4431373 0.1333333
0.2235294 0.4431373 0.1333333
0.2509804 0.4431373 0.1333333
0.2745098 0.4431373 0.1333333
0.2980392 0.4431373 0.1333333
0.3254902 0.4431373 0.1333333
0.3490196 0.4431373 0.1333333
0.3764706 0.4431373 0.1333333
0.4000000 0.4431373 0.1333333
0.4235294 0.4431373 0.1333333
0.4470588 0.4431373 0.1333333
0.4705882 0.4431373 0.1333333
0.4980392 0.4431373 0.1333333
0.5215687 0.4431373 0.1333333
0.5490196 0.4431373 0.1333333
0.5725490 0.4431373 0.1333333
0.5960785 0.4431373 0.1333333
0.6235294 0.4431373 0.1333333
0.6470588 0.4431373 0.1333333
0.6745098 0.4431373 0.1333333
0.6980392 0.4431373 0.1333333
0.7215686 0.4431373 0.1333333
0.7490196 0.4431373 0.1333333
0.7725490 0.4431373 0.1333333
0.8000000 0.4431373 0.1333333
0.0000000 0.4705882 0.1333333
0.0235294 0.4705882 0.1333333
0.0470588 0.4705882 0.1333333
0.0745098 0.4705882 0.1333333
0.0980392 0.4705882 0.1333333
0.1254902 0.4705882 0.1333333
0.1490196 0.4705882 0.1333333
0.1725490 0.4705882 0.1333333
0.2000000 0.4705882 0.1333333
0.2235294 0.4705882 0.1333333
0.2509804 0.4705882 0.1333333
0.2745098 0.4705882 0.1333333
0.2980392 0.4705882 0.1333333
0.3254902 0.4705882 0.1333333
0.3490196 0.4705882 0.1333333
0.3764706 0.4705882 0.1333333
0.4000000 0.4705882 0.1333333
0.4235294 0.4705882 0.1333333
0.4470588 0.4705882 0.1333333
0.4705882 0.4705882 0.1333333
0.4980392 0.4705882 0.1333333
0.5215687 0.4705882 0.1333333
0.5490196 0.4705882 0.1333333
0.5725490 0.4705882 0.1333333
0.5960785 0.4705882 0.1333333
0.6235294 0.4705882 0.1333333
0.6470588 0.4705882 0.1333333
0.6745098 0.4705882 0.1333333
0.6980392 0.4705882 0.1333333
0.7215686 0.4705882 0.1333333
0.7490196 0.4705882 0.1333333
0.7725490 0.4705882 0.1333333
0.8000000 0.4705882 0.1333333
0.0000000 0.4901961 0.1333333
0.0235294 0.4901961 0.1333333
0.0470588 0.4901961 0.1333333
0.0745098 0.4901961 0.1333333
0.0980392 0.4901961 0.1333333
0.1254902 0.4901961 0.1333333
0.1490196 0.4901961 0.1333333
0.1725490 0.4901961 0.1333333
0.2000000 0.4901961 0.1333333
0.2235294 0.4901961 0.1333333
0.2509804 0.4901961 0.1333333
0.2745098 0.4901961 0.1333333
0.2980392 0.4901961 0.1333333
0.3254902 0.4901961 0.1333333
0.3490196 0.4901961 0.1333333
0.3764706 0.4901961 0.1333333
0.4000000 0.4901961 0.1333333
0.4235294 0.4901961 0.1333333
0.4470588 0.4901961 0.1333333
0.4705882 0.4901961 0.1333333
0.4980392 0.4901961 0.1333333
0.5215687 0.4901961 0.1333333
0.5490196 0.4901961 0.1333333
0.5725490 0.4901961 0.1333333
0.5960785 0.4901961 0.1333333
0.6235294 0.4901961 0.1333333
0.6470588 0.4901961 0.1333333
0.6745098 0.4901961 0.1333333
0.6980392 0.4901961 0.1333333
0.7215686 0.4901961 0.1333333
0.7490196 0.4901961 0.1333333
0.7725490 0.4901961 0.1333333
0.8000000 0.4901961 0.1333333
0.0000000 0.5176471 0.1333333
0.0235294 0.5176471 0.1333333
0.0470588 0.5176471 0.1333333
0.0745098 0.5176471 0.1333333
0.0980392 0.5176471 0.1333333
0.1254902 0.5176471 0.1333333
0.1490196 0.5176471 0.1333333
0.1725490 0.5176471 0.1333333
0.2000000 0.5176471 0.1333333
0.2235294 0.5176471 0.1333333
0.2509804 0.5176471 0.1333333
0.2745098 0.5176471 0.1333333
0.2980392 0.5176471 0.1333333
0.3254902 0.5176471 0.1333333
0.3490196 0.5176471 0.1333333
0.3764706 0.5176471 0.1333333
0.4000000 0.5176471 0.1333333
0.4235294 0.5176471 0.1333333
0.4470588 0.5176471 0.1333333
0.4705882 0.5176471 0.1333333
0.4980392 0.5176471 0.1333333
0.5215687 0.5176471 0.1333333
0.5490196 0.5176471 0.1333333
0.5725490 0.5176471 0.1333333
0.5960785 0.5176471 0.1333333
0.6235294 0.5176471 0.1333333
0.6470588 0.5176471 0.1333333
0.6745098 0.5176471 0.1333333
0.6980392 0.5176471 0.1333333
0.7215686 0.5176471 0.1333333
0.7490196 0.5176471 0.1333333
0.7725490 0.5176471 0.1333333
0.8000000 0.5176471 0.1333333
0.0000000 0.5411765 0.1333333
0.0235294 0.5411765 0.1333333
0.0470588 0.5411765 0.1333333
0.0745098 0.5411765 0.1333333
0.0980392 0.5411765 0.1333333
0.1254902 0.5411765 0.1333333
0.1490196 0.5411765 0.1333333
0.1725490 0.5411765 0.1333333
0.2000000 0.5411765 0.1333333
0.2235294 0.5411765 0.1333333
0.2509804 0.5411765 0.1333333
0.2745098 0.5411765 0.1333333
0.2980392 0.5411765 0.1333333
0.3254902 0.5411765 0.1333333
0.3490196 0.5411765 0.1333333
0.3764706 0.5411765 0.1333333
0.4000000 0.5411765 0.1333333
0.4235294 0.5411765 0.1333333
0.4470588 0.5411765 0.1333333
0.4705882 0.5411765 0.1333333
0.4980392 0.5411765 0.1333333
0.5215687 0.5411765 0.1333333
0.5490196 0.5411765 0.1333333
0.5725490 0.5411765 0.1333333
0.5960785 0.5411765 0.1333333
0.6235294 0.5411765 0.1333333
0.6470588 0.5411765 0.1333333
0.6745098 0.5411765 0.1333333
0.6980392 0.5411765 0.1333333
0.7215686 0.5411765 0.1333333
0.7490196 0.5411765 0.1333333
0.7725490 0.5411765 0.1333333
0.8000000 0.5411765 0.1333333
0.0000000 0.5686275 0.1333333
0.0235294 0.5686275 0.1333333
0.0470588 0.5686275 0.1333333
0.0745098 0.5686275 0.1333333
0.0980392 0.5686275 0.1333333
0.1254902 0.5686275 0.1333333
0.1490196 0.5686275 0.1333333
0.1725490 0.5686275 0.1333333
0.2000000 0.5686275 0.1333333
0.2235294 0.5686275 0.1333333
0.2509804 0.5686275 0.1333333
0.2745098 0.5686275 0.1333333
0.2980392 0.5686275 0.1333333
0.3254902 0.5686275 0.1333333
0.3490196 0.5686275 0.1333333
0.3764706 0.5686275 0.1333333
0.4000000 0.5686275 0.1333333
0.4235294 0.5686275 0.1333333
0.4470588 0.5686275 0.1333333
0.4705882 0.5686275 0.1333333
0.4980392 0.5686275 0.1333333
0.5215687 0.5686275 0.1333333
0.5490196 0.5686275 0.1333333
0.5725490 0.5686275 0.1333333
0.5960785 0.5686275 0.1333333
0.6235294 0.5686275 0.1333333
0.6470588 0.5686275 0.1333333
0.6745098 0.5686275 0.1333333
0.6980392 0.5686275 0.1333333
0.7215686 0.5686275 0.1333333
0.7490196 0.5686275 0.1333333
0.7725490 0.5686275 0.1333333
0.8000000 0.5686275 0.1333333
0.0000000 0.5921569 0.1333333
0.0235294 0.5921569 0.1333333
0.0470588 0.5921569 0.1333333
0.0745098 0.5921569 0.1333333
0.0980392 0.5921569 0.1333333
0.1254902 0.5921569 0.1333333
0.1490196 0.5921569 0.1333333
0.1725490 0.5921569 0.1333333
0.2000000 0.5921569 0.1333333
0.2235294 0.5921569 0.1333333
0.2509804 0.5921569 0.1333333
0.2745098 0.5921569 0.1333333
0.2980392 0.5921569 0.1333333
0.3254902 0.5921569 0.1333333
0.3490196 0.5921569 0.1333333
0.3764706 0.5921569 0.1333333
0.4000000 0.5921569 0.1333333
0.4235294 0.5921569 0.1333333
0.4470588 0.5921569 0.1333333
0.4705882 0.5921569 0.1333333
0.4980392 0.5921569 0.1333333
0.5215687 0.5921569 0.1333333
0.5490196 0.5921569 0.1333333
0.5725490 0.5921569 0.1333333
0.5960785 0.5921569 0.1333333
0.6235294 0.5921569 0.1333333
0.6470588 0.5921569 0.1333333
0.6745098 0.5921569 0.1333333
0.6980392 0.5921569 0.1333333
0.7215686 0.5921569 0.1333333
0.7490196 0.5921569 0.1333333
0.7725490 0.5921569 0.1333333
0.8000000 0.5921569 0.1333333
0.0000000 0.6156863 0.1333333
0.0235294 0.6156863 0.1333333
0.0470588 0.6156863 0.1333333
0.0745098 0.6156863 0.1333333
0.0980392 0.6156863 0.1333333
0.1254902 0.6156863 0.1333333
0.1490196 0.6156863 0.1333333
0.1725490 0.6156863 0.1333333
0.2000000 0.6156863 0.1333333
0.2235294 0.6156863 0.1333333
0.2509804 0.6156863 0.1333333
0.2745098 0.6156863 0.1333333
0.2980392 0.6156863 0.1333333
0.3254902 0.6156863 0.1333333
0.3490196 0.6156863 0.1333333
0.3764706 0.6156863 0.1333333
0.4000000 0.6156863 0.1333333
0.4235294 0.6156863 0.1333333
0.4470588 0.6156863 0.1333333
0.4705882 0.6156863 0.1333333
0.4980392 0.6156863 0.1333333
0.5215687 0.6156863 0.1333333
0.5490196 0.6156863 0.1333333
0.5725490 0.6156863 0.1333333
0.5960785 0.6156863 0.1333333
0.6235294 0.6156863 0.1333333
0.6470588 0.6156863 0.1333333
0.6745098 0.6156863 0.1333333
0.6980392 0.6156863 0.1333333
0.7215686 0.6156863 0.1333333
0.7490196 0.6156863 0.1333333
0.7725490 0.6156863 0.1333333
0.8000000 0.6156863 0.1333333
0.0000000 0.6431373 0.1333333
0.0235294 0.6431373 0.1333333
0.0470588 0.6431373 0.1333333
0.0745098 0.6431373 0.1333333
0.0980392 0.6431373 0.1333333
0.1254902 0.6431373 0.1333333
0.1490196 0.6431373 0.1333333
0.1725490 0.6431373 0.1333333
0.2000000 0.6431373 0.1333333
0.2235294 0.6431373 0.1333333
0.2509804 0.6431373 0.1333333
0.2745098 0.6431373 0.1333333
0.2980392 0.6431373 0.1333333
0.3254902 0.6431373 0.1333333
0.3490196 0.6431373 0.1333333
0.3764706 0.6431373 0.1333333
0.4000000 0.6431373 0.1333333
0.4235294 0.6431373 0.1333333
0.4470588 0.6431373 0.1333333
0.4705882 0.6431373 0.1333333
0.4980392 0.6431373 0.1333333
0.5215687 0.6431373 0.1333333
0.5490196 0.6431373 0.1333333
0.5725490 0.6431373 0.1333333
0.5960785 0.6431373 0.1333333
0.6235294 0.6431373 0.1333333
0.6470588 0.6431373 0.1333333
0.6745098 0.6431373 0.1333333
0.6980392 0.6431373 0.1333333
0.7215686 0.6431373 0.1333333
0.7490196 0.6431373 0.1333333
0.7725490 0.6431373 0.1333333
0.8000000 0.6431373 0.1333333
0.0000000 0.6666667 0.1333333
0.0235294 0.6666667 0.1333333
0.0470588 0.6666667 0.1333333
0.0745098 0.6666667 0.1333333
