rust/creative_luts/oceanic/lut.cube
TITLE "Pixel Craft Creative: oceanic"
LUT_3D_SIZE 5
DOMAIN_MIN 0.0 0.0 0.0
DOMAIN_MAX 1.0 1.0 1.0
0.0000000 0.0666667 0.1333333
0.2000000 0.0666667 0.1333333
0.4000000 0.0666667 0.1333333
0.5960785 0.0666667 0.1333333
0.8000000 0.0666667 0.1333333
0.0000000 0.2705882 0.1333333
0.2000000 0.2705882 0.1333333
0.4000000 0.2705882 0.1333333
0.5960785 0.2705882 0.1333333
0.8000000 0.2705882 0.1333333
0.0000000 0.4705882 0.1333333
0.2000000 0.4705882 0.1333333
0.4000000 0.4705882 0.1333333
0.5960785 0.4705882 0.1333333
0.8000000 0.4705882 0.1333333
0.0000000 0.6666667 0.1333333
0.2000000 0.6666667 0.1333333
0.4000000 0.6666667 0.1333333
0.5960785 0.6666667 0.1333333
0.8000000 0.6666667 0.1333333
0.0000000 0.8666667 0.1333333
0.2000000 0.8666667 0.1333333
0.4000000 0.8666667 0.1333333
0.5960785 0.8666667 0.1333333
0.8000000 0.8666667 0.1333333
0.0000000 0.0666667 0.3333333
0.2000000 0.0666667 0.3333333
0.4000000 0.0666667 0.3333333
0.5960785 0.0666667 0.3333333
0.8000000 0.0666667 0.3333333
0.0000000 0.2705882 0.3333333
0.2000000 0.2705882 0.3333333
0.4000000 0.2705882 0.3333333
0.5960785 0.2705882 0.3333333
0.8000000 0.2705882 0.3333333
0.0000000 0.4705882 0.3333333
0.2000000 0.4705882 0.3333333
0.4000000 0.4705882 0.3333333
0.5960785 0.4705882 0.3333333
0.8000000 0.4705882 0.3333333
0.0000000 0.6666667 0.3333333
0.2000000 0.6666667 0.3333333
0.4000000 0.6666667 0.3333333
0.5960785 0.6666667 0.3333333
0.8000000 0.6666667 0.3333333
0.0000000 0.8666667 0.3333333
0.2000000 0.8666667 0.3333333
0.4000000 0.8666667 0.3333333
0.5960785 0.8666667 0.3333333
0.8000000 0.8666667 0.3333333
0.0000000 0.0666667 0.5372549
0.2000000 0.0666667 0.5372549
0.4000000 0.0666667 0.5372549
0.5960785 0.0666667 0.5372549
0.8000000 0.0666667 0.5372549
0.0000000 0.2705882 0.5372549
0.2000000 0.2705882 0.5372549
0.4000000 0.2705882 0.5372549
0.5960785 0.2705882 0.5372549
0.8000000 0.2705882 0.5372549
0.0000000 0.4705882 0.5372549
0.2000000 0.4705882 0.5372549
0.4000000 0.4705882 0.5372549
0.5960785 0.4705882 0.5372549
0.8000000 0.4705882 0.5372549
0.0000000 0.6666667 0.5372549
0.2000000 0.6666667 0.5372549
0.4000000 0.6666667 0.5372549
0.5960785 0.6666667 0.5372549
0.8000000 0.6666667 0.5372549
0.0000000 0.8666667 0.5372549
0.2000000 0.8666667 0.5372549
0.4000000 0.8666667 0.5372549
0.5960785 0.8666667 0.5372549
0.8000000 0.8666667 0.5372549
0.0000000 0.0666667 0.7333333
0.2000000 0.0666667 0.7333333
0.4000000 0.0666667 0.7333333
0.5960785 0.0666667 0.7333333
0.8000000 0.0666667 0.7333333
0.0000000 0.2705882 0.7333333
0.2000000 0.2705882 0.7333333
0.4000000 0.2705882 0.7333333
0.5960785 0.2705882 0.7333333
0.8000000 0.2705882 0.7333333
0.0000000 0.4705882 0.7333333
0.2000000 0.4705882 0.7333333
0.4000000 0.4705882 0.7333333
0.5960785 0.4705882 0.7333333
0.8000000 0.4705882 0.7333333
0.0000000 0.6666667 0.7333333
0.2000000 0.6666667 0.7333333
0.4000000 0.6666667 0.7333333
0.5960785 0.6666667 0.7333333
0.8000000 0.6666667 0.7333333
0.0000000 0.8666667 0.7333333
0.2000000 0.8666667 0.7333333
0.4000000 0.8666667 0.7333333
0.5960785 0.8666667 0.7333333
0.8000000 0.8666667 0.7333333
0.0000000 0.0666667 0.9333333
0.2000000 0.0666667 0.9333333
0.4000000 0.0666667 0.9333333
0.5960785 0.0666667 0.9333333
0.8000000 0.0666667 0.9333333
0.0000000 0.2705882 0.9333333
0.2000000 0.2705882 0.9333333
0.4000000 0.2705882 0.9333333
0.5960785 0.2705882 0.9333333
0.8000000 0.2705882 0.9333333
0.0000000 0.4705882 0.9333333
0.2000000 0.4705882 0.9333333
0.4000000 0.4705882 0.9333333
0.5960785 0.4705882 0.9333333
0.8000000 0.4705882 0.9333333
0.0000000 0.6666667 0.9333333
0.2000000 0.6666667 0.9333333
0.4000000 0.6666667 0.9333333
0.5960785 0.6666667 0.9333333
0.8000000 0.6666667 0.9333333
0.0000000 0.8666667 0.9333333
0.2000000 0.8666667 0.9333333
0.4000000 0.8666667 0.9333333
0.5960785 0.8666667 0.9333333
0.8000000 0.8666667 0.9333333
