rust/creative_luts/oceanic/lut.cube
TITLE "Pixel Craft Creative: oceanic"
LUT_3D_SIZE 9
DOMAIN_MIN 0.0 0.0 0.0
DOMAIN_MAX 1.0 1.0 1.0
0.0000000 0.0666667 0.1333333
0.0980392 0.0666667 0.1333333
0.2000000 0.0666667 0.1333333
0.2980392 0.0666667 0.1333333
0.4000000 0.0666667 0.1333333
0.4980392 0.0666667 0.1333333
0.5960785 0.0666667 0.1333333
0.6980392 0.0666667 0.1333333
0.8000000 0.0666667 0.1333333
0.0000000 0.1686275 0.1333333
0.0980392 0.1686275 0.1333333
0.2000000 0.1686275 0.1333333
0.2980392 0.1686275 0.1333333
0.4000000 0.1686275 0.1333333
0.4980392 0.1686275 0.1333333
0.5960785 0.1686275 0.1333333
0.6980392 0.1686275 0.1333333
0.8000000 0.1686275 0.1333333
0.0000000 0.2705882 0.1333333
0.0980392 0.2705882 0.1333333
0.2000000 0.2705882 0.1333333
0.2980392 0.2705882 0.1333333
0.4000000 0.2705882 0.1333333
0.4980392 0.2705882 0.1333333
0.5960785 0.2705882 0.1333333
0.6980392 0.2705882 0.1333333
0.8000000 0.2705882 0.1333333
0.0000000 0.3686275 0.1333333
0.0980392 0.3686275 0.1333333
0.2000000 0.3686275 0.1333333
0.2980392 0.3686275 0.1333333
0.4000000 0.3686275 0.1333333
0.4980392 0.3686275 0.1333333
0.5960785 0.3686275 0.1333333
0.6980392 0.3686275 0.1333333
0.8000000 0.3686275 0.1333333
0.0000000 0.4705882 0.1333333
0.0980392 0.4705882 0.1333333
0.2000000 0.4705882 0.1333333
0.2980392 0.4705882 0.1333333
0.4000000 0.4705882 0.1333333
0.4980392 0.4705882 0.1333333
0.5960785 0.4705882 0.1333333
0.6980392 0.4705882 0.1333333
0.8000000 0.4705882 0.1333333
0.0000000 0.5686275 0.1333333
0.0980392 0.5686275 0.1333333
0.2000000 0.5686275 0.1333333
0.2980392 0.5686275 0.1333333
0.4000000 0.5686275 0.1333333
0.4980392 0.5686275 0.1333333
0.5960785 0.5686275 0.1333333
0.6980392 0.5686275 0.1333333
0.8000000 0.5686275 0.1333333
0.0000000 0.6666667 0.1333333
0.0980392 0.6666667 0.1333333
0.2000000 0.6666667 0.1333333
0.2980392 0.6666667 0.1333333
0.4000000 0.6666667 0.1333333
0.4980392 0.6666667 0.1333333
0.5960785 0.6666667 0.1333333
0.6980392 0.6666667 0.1333333
0.8000000 0.6666667 0.1333333
0.0000000 0.7686275 0.1333333
0.0980392 0.7686275 0.1333333
0.2000000 0.7686275 0.1333333
0.2980392 0.7686275 0.1333333
0.4000000 0.7686275 0.1333333
0.4980392 0.7686275 0.1333333
0.5960785 0.7686275 0.1333333
0.6980392 0.7686275 0.1333333
0.8000000 0.7686275 0.1333333
0.0000000 0.8666667 0.1333333
0.0980392 0.8666667 0.1333333
0.2000000 0.8666667 0.1333333
0.2980392 0.8666667 0.1333333
0.4000000 0.8666667 0.1333333
0.4980392 0.8666667 0.1333333
0.5960785 0.8666667 0.1333333
0.6980392 0.8666667 0.1333333
0.8000000 0.8666667 0.1333333
0.0000000 0.0666667 0.2352941
0.0980392 0.0666667 0.2352941
0.2000000 0.0666667 0.2352941
0.2980392 0.0666667 0.2352941
0.4000000 0.0666667 0.2352941
0.4980392 0.0666667 0.2352941
0.5960785 0.0666667 0.2352941
0.6980392 0.0666667 0.2352941
0.8000000 0.0666667 0.2352941
0.0000000 0.1686275 0.2352941
0.0980392 0.1686275 0.2352941
0.2000000 0.1686275 0.2352941
0.2980392 0.1686275 0.2352941
0.4000000 0.1686275 0.2352941
0.4980392 0.1686275 0.2352941
0.5960785 0.1686275 0.2352941
0.6980392 0.1686275 0.2352941
0.8000000 0.1686275 0.2352941
0.0000000 0.2705882 0.2352941
0.0980392 0.2705882 0.2352941
0.2000000 0.2705882 0.2352941
0.2980392 0.2705882 0.2352941
0.4000000 0.2705882 0.2352941
0.4980392 0.2705882 0.2352941
0.5960785 0.2705882 0.2352941
0.6980392 0.2705882 0.2352941
0.8000000 0.2705882 0.2352941
0.0000000 0.3686275 0.2352941
0.0980392 0.3686275 0.2352941
0.2000000 0.3686275 0.2352941
0.2980392 0.3686275 0.2352941
0.4000000 0.3686275 0.2352941
0.4980392 0.3686275 0.2352941
0.5960785 0.3686275 0.2352941
0.6980392 0.3686275 0.2352941
0.8000000 0.3686275 0.2352941
0.0000000 0.4705882 0.2352941
0.0980392 0.4705882 0.2352941
0.2000000 0.4705882 0.2352941
0.2980392 0.4705882 0.2352941
0.4000000 0.4705882 0.2352941
0.4980392 0.4705882 0.2352941
0.5960785 0.4705882 0.2352941
0.6980392 0.4705882 0.2352941
0.8000000 0.4705882 0.2352941
0.0000000 0.5686275 0.2352941
0.0980392 0.5686275 0.2352941
0.2000000 0.5686275 0.2352941
0.2980392 0.5686275 0.2352941
0.4000000 0.5686275 0.2352941
0.4980392 0.5686275 0.2352941
0.5960785 0.5686275 0.2352941
0.6980392 0.5686275 0.2352941
0.8000000 0.5686275 0.2352941
0.0000000 0.6666667 0.2352941
0.0980392 0.6666667 0.2352941
0.2000000 0.6666667 0.2352941
0.2980392 0.6666667 0.2352941
0.4000000 0.6666667 0.2352941
0.4980392 0.6666667 0.2352941
0.5960785 0.6666667 0.2352941
0.6980392 0.6666667 0.2352941
0.8000000 0.6666667 0.2352941
0.0000000 0.7686275 0.2352941
0.0980392 0.7686275 0.2352941
0.2000000 0.7686275 0.2352941
0.2980392 0.7686275 0.2352941
0.4000000 0.7686275 0.2352941
0.4980392 0.7686275 0.2352941
0.5960785 0.7686275 0.2352941
0.6980392 0.7686275 0.2352941
0.8000000 0.7686275 0.2352941
0.0000000 0.8666667 0.2352941
0.0980392 0.8666667 0.2352941
0.2000000 0.8666667 0.2352941
0.2980392 0.8666667 0.2352941
0.4000000 0.8666667 0.2352941
0.4980392 0.8666667 0.2352941
0.5960785 0.8666667 0.2352941
0.6980392 0.8666667 0.2352941
0.8000000 0.8666667 0.2352941
0.0000000 0.0666667 0.3333333
0.0980392 0.0666667 0.3333333
0.2000000 0.0666667 0.3333333
0.2980392 0.0666667 0.3333333
0.4000000 0.0666667 0.3333333
0.4980392 0.0666667 0.3333333
0.5960785 0.0666667 0.3333333
0.6980392 0.0666667 0.3333333
0.8000000 0.0666667 0.3333333
0.0000000 0.1686275 0.3333333
0.0980392 0.1686275 0.3333333
0.2000000 0.1686275 0.3333333
0.2980392 0.1686275 0.3333333
0.4000000 0.1686275 0.3333333
0.4980392 0.1686275 0.3333333
0.5960785 0.1686275 0.3333333
0.6980392 0.1686275 0.3333333
0.8000000 0.1686275 0.3333333
0.0000000 0.2705882 0.3333333
0.0980392 0.2705882 0.3333333
0.2000000 0.2705882 0.3333333
0.2980392 0.2705882 0.3333333
0.4000000 0.2705882 0.3333333
0.4980392 0.2705882 0.3333333
0.5960785 0.2705882 0.3333333
0.6980392 0.2705882 0.3333333
0.8000000 0.2705882 0.3333333
0.0000000 0.3686275 0.3333333
0.0980392 0.3686275 0.3333333
0.2000000 0.3686275 0.3333333
0.2980392 0.3686275 0.3333333
0.4000000 0.3686275 0.3333333
0.4980392 0.3686275 0.3333333
0.5960785 0.3686275 0.3333333
0.6980392 0.3686275 0.3333333
0.8000000 0.3686275 0.3333333
0.0000000 0.4705882 0.3333333
0.0980392 0.4705882 0.3333333
0.2000000 0.4705882 0.3333333
0.2980392 0.4705882 0.3333333
0.4000000 0.4705882 0.3333333
0.4980392 0.4705882 0.3333333
0.5960785 0.4705882 0.3333333
0.6980392 0.4705882 0.3333333
0.8000000 0.4705882 0.3333333
0.0000000 0.5686275 0.3333333
0.0980392 0.5686275 0.3333333
0.2000000 0.5686275 0.3333333
0.2980392 0.5686275 0.3333333
0.4000000 0.5686275 0.3333333
0.4980392 0.5686275 0.3333333
0.5960785 0.5686275 0.3333333
0.6980392 0.5686275 0.3333333
0.8000000 0.5686275 0.3333333
0.0000000 0.6666667 0.3333333
0.0980392 0.6666667 0.3333333
0.2000000 0.6666667 0.3333333
0.2980392 0.6666667 0.3333333
0.4000000 0.6666667 0.3333333
0.4980392 0.6666667 0.3333333
0.5960785 0.6666667 0.3333333
0.6980392 0.6666667 0.3333333
0.8000000 0.6666667 0.3333333
0.0000000 0.7686275 0.3333333
0.0980392 0.7686275 0.3333333
0.2000000 0.7686275 0.3333333
0.2980392 0.7686275 0.3333333
0.4000000 0.7686275 0.3333333
0.4980392 0.7686275 0.3333333
0.5960785 0.7686275 0.3333333
0.6980392 0.7686275 0.3333333
0.8000000 0.7686275 0.3333333
0.0000000 0.8666667 0.3333333
0.0980392 0.8666667 0.3333333
0.2000000 0.8666667 0.3333333
0.2980392 0.8666667 0.3333333
0.4000000 0.8666667 0.3333333
0.4980392 0.8666667 0.3333333
0.5960785 0.8666667 0.3333333
0.6980392 0.8666667 0.3333333
0.8000000 0.8666667 0.3333333
0.0000000 0.0666667 0.4352941
0.0980392 0.0666667 0.4352941
0.2000000 0.0666667 0.4352941
0.2980392 0.0666667 0.4352941
0.4000000 0.0666667 0.4352941
0.4980392 0.0666667 0.4352941
0.5960785 0.0666667 0.4352941
0.6980392 0.0666667 0.4352941
0.8000000 0.0666667 0.4352941
0.0000000 0.1686275 0.4352941
0.0980392 0.1686275 0.4352941
0.2000000 0.1686275 0.4352941
0.2980392 0.1686275 0.4352941
0.4000000 0.1686275 0.4352941
0.4980392 0.1686275 0.4352941
0.5960785 0.1686275 0.4352941
0.6980392 0.1686275 0.4352941
0.8000000 0.1686275 0.4352941
0.0000000 0.2705882 0.4352941
0.0980392 0.2705882 0.4352941
0.2000000 0.2705882 0.4352941
0.2980392 0.2705882 0.4352941
0.4000000 0.2705882 0.4352941
0.4980392 0.2705882 0.4352941
0.5960785 0.2705882 0.4352941
0.6980392 0.2705882 0.4352941
0.8000000 0.2705882 0.4352941
0.0000000 0.3686275 0.4352941
0.0980392 0.3686275 0.4352941
0.2000000 0.3686275 0.4352941
0.2980392 0.3686275 0.4352941
0.4000000 0.3686275 0.4352941
0.4980392 0.3686275 0.4352941
0.5960785 0.3686275 0.4352941
0.6980392 0.3686275 0.4352941
0.8000000 0.3686275 0.4352941
0.0000000 0.4705882 0.4352941
0.0980392 0.4705882 0.4352941
0.2000000 0.4705882 0.4352941
0.2980392 0.4705882 0.4352941
0.4000000 0.4705882 0.4352941
0.4980392 0.4705882 0.4352941
0.5960785 0.4705882 0.4352941
0.6980392 0.4705882 0.4352941
0.8000000 0.4705882 0.4352941
0.0000000 0.5686275 0.4352941
0.0980392 0.5686275 0.4352941
0.2000000 0.5686275 0.4352941
0.2980392 0.5686275 0.4352941
0.4000000 0.5686275 0.4352941
0.4980392 0.5686275 0.4352941
0.5960785 0.5686275 0.4352941
0.6980392 0.5686275 0.4352941
0.8000000 0.5686275 0.4352941
0.0000000 0.6666667 0.4352941
0.0980392 0.6666667 0.4352941
0.2000000 0.6666667 0.4352941
0.2980392 0.6666667 0.4352941
0.4000000 0.6666667 0.4352941
0.4980392 0.6666667 0.4352941
0.5960785 0.6666667 0.4352941
0.6980392 0.6666667 0.4352941
0.8000000 0.6666667 0.4352941
0.0000000 0.7686275 0.4352941
0.0980392 0.7686275 0.4352941
0.2000000 0.7686275 0.4352941
0.2980392 0.7686275 0.4352941
0.4000000 0.7686275 0.4352941
0.4980392 0.7686275 0.4352941
0.5960785 0.7686275 0.4352941
0.6980392 0.7686275 0.4352941
0.8000000 0.7686275 0.4352941
0.0000000 0.8666667 0.4352941
0.0980392 0.8666667 0.4352941
0.2000000 0.8666667 0.4352941
0.2980392 0.8666667 0.4352941
0.4000000 0.8666667 0.4352941
0.4980392 0.8666667 0.4352941
0.5960785 0.8666667 0.4352941
0.6980392 0.8666667 0.4352941
0.8000000 0.8666667 0.4352941
0.0000000 0.0666667 0.5372549
0.0980392 0.0666667 0.5372549
0.2000000 0.0666667 0.5372549
0.2980392 0.0666667 0.5372549
0.4000000 0.0666667 0.5372549
0.4980392 0.0666667 0.5372549
0.5960785 0.0666667 0.5372549
0.6980392 0.0666667 0.5372549
0.8000000 0.0666667 0.5372549
0.0000000 0.1686275 0.5372549
0.0980392 0.1686275 0.5372549
0.2000000 0.1686275 0.5372549
0.2980392 0.1686275 0.5372549
0.4000000 0.1686275 0.5372549
0.4980392 0.1686275 0.5372549
0.5960785 0.1686275 0.5372549
0.6980392 0.1686275 0.5372549
0.8000000 0.1686275 0.5372549
0.0000000 0.2705882 0.5372549
0.0980392 0.2705882 0.5372549
0.2000000 0.2705882 0.5372549
0.2980392 0.2705882 0.5372549
0.4000000 0.2705882 0.5372549
0.4980392 0.2705882 0.5372549
0.5960785 0.2705882 0.5372549
0.6980392 0.2705882 0.5372549
0.8000000 0.2705882 0.5372549
0.0000000 0.3686275 0.5372549
0.0980392 0.3686275 0.5372549
0.2000000 0.3686275 0.5372549
0.2980392 0.3686275 0.5372549
0.4000000 0.3686275 0.5372549
0.4980392 0.3686275 0.5372549
0.5960785 0.3686275 0.5372549
0.6980392 0.3686275 0.5372549
0.8000000 0.3686275 0.5372549
0.0000000 0.4705882 0.5372549
0.0980392 0.4705882 0.5372549
0.2000000 0.4705882 0.5372549
0.2980392 0.4705882 0.5372549
0.4000000 0.4705882 0.5372549
0.4980392 0.4705882 0.5372549
0.5960785 0.4705882 0.5372549
0.6980392 0.4705882 0.5372549
0.8000000 0.4705882 0.5372549
0.0000000 0.5686275 0.5372549
0.0980392 0.5686275 0.5372549
0.2000000 0.5686275 0.5372549
0.2980392 0.5686275 0.5372549
0.4000000 0.5686275 0.5372549
0.4980392 0.5686275 0.5372549
0.5960785 0.5686275 0.5372549
0.6980392 0.5686275 0.5372549
0.8000000 0.5686275 0.5372549
0.0000000 0.6666667 0.5372549
0.0980392 0.6666667 0.5372549
0.2000000 0.6666667 0.5372549
0.2980392 0.6666667 0.5372549
0.4000000 0.6666667 0.5372549
0.4980392 0.6666667 0.5372549
0.5960785 0.6666667 0.5372549
0.6980392 0.6666667 0.5372549
0.8000000 0.6666667 0.5372549
0.0000000 0.7686275 0.5372549
0.0980392 0.7686275 0.5372549
0.2000000 0.7686275 0.5372549
0.2980392 0.7686275 0.5372549
0.4000000 0.7686275 0.5372549
0.4980392 0.7686275 0.5372549
0.5960785 0.7686275 0.5372549
0.6980392 0.7686275 0.5372549
0.8000000 0.7686275 0.5372549
0.0000000 0.8666667 0.5372549
0.0980392 0.8666667 0.5372549
0.2000000 0.8666667 0.5372549
0.2980392 0.8666667 0.5372549
0.4000000 0.8666667 0.5372549
0.4980392 0.8666667 0.5372549
0.5960785 0.8666667 0.5372549
0.6980392 0.8666667 0.5372549
0.8000000 0.8666667 0.5372549
0.0000000 0.0666667 0.6313726
0.0980392 0.0666667 0.6313726
0.2000000 0.0666667 0.6313726
0.2980392 0.0666667 0.6313726
0.4000000 0.0666667 0.6313726
0.4980392 0.0666667 0.6313726
0.5960785 0.0666667 0.6313726
0.6980392 0.0666667 0.6313726
0.8000000 0.0666667 0.6313726
0.0000000 0.1686275 0.6313726
0.0980392 0.1686275 0.6313726
0.2000000 0.1686275 0.6313726
0.2980392 0.1686275 0.6313726
0.4000000 0.1686275 0.6313726
0.4980392 0.1686275 0.6313726
0.5960785 0.1686275 0.6313726
0.6980392 0.1686275 0.6313726
0.8000000 0.1686275 0.6313726
0.0000000 0.2705882 0.6313726
0.0980392 0.2705882 0.6313726
0.2000000 0.2705882 0.6313726
0.2980392 0.2705882 0.6313726
0.4000000 0.2705882 0.6313726
0.4980392 0.2705882 0.6313726
0.5960785 0.2705882 0.6313726
0.6980392 0.2705882 0.6313726
0.8000000 0.2705882 0.6313726
0.0000000 0.3686275 0.6313726
0.0980392 0.3686275 0.6313726
0.2000000 0.3686275 0.6313726
0.2980392 0.3686275 0.6313726
0.4000000 0.3686275 0.6313726
0.4980392 0.3686275 0.6313726
0.5960785 0.3686275 0.6313726
0.6980392 0.3686275 0.6313726
0.8000000 0.3686275 0.6313726
0.0000000 0.4705882 0.6313726
0.0980392 0.4705882 0.6313726
0.2000000 0.4705882 0.6313726
0.2980392 0.4705882 0.6313726
0.4000000 0.4705882 0.6313726
0.4980392 0.4705882 0.6313726
0.5960785 0.4705882 0.6313726
0.6980392 0.4705882 0.6313726
0.8000000 0.4705882 0.6313726
0.0000000 0.5686275 0.6313726
0.0980392 0.5686275 0.6313726
0.2000000 0.5686275 0.6313726
0.2980392 0.5686275 0.6313726
0.4000000 0.5686275 0.6313726
0.4980392 0.5686275 0.6313726
0.5960785 0.5686275 0.6313726
0.6980392 0.5686275 0.6313726
0.8000000 0.5686275 0.6313726
0.0000000 0.6666667 0.6313726
0.0980392 0.6666667 0.6313726
0.2000000 0.6666667 0.6313726
0.2980392 0.6666667 0.6313726
0.4000000 0.6666667 0.6313726
0.4980392 0.6666667 0.6313726
0.5960785 0.6666667 0.6313726
0.6980392 0.6666667 0.6313726
0.8000000 0.6666667 0.6313726
0.0000000 0.7686275 0.6313726
0.0980392 0.7686275 0.6313726
0.2000000 0.7686275 0.6313726
0.2980392 0.7686275 0.6313726
0.4000000 0.7686275 0.6313726
0.4980392 0.7686275 0.6313726
0.5960785 0.7686275 0.6313726
0.6980392 0.7686275 0.6313726
0.8000000 0.7686275 0.6313726
0.0000000 0.8666667 0.6313726
0.0980392 0.8666667 0.6313726
0.2000000 0.8666667 0.6313726
0.2980392 0.8666667 0.6313726
0.4000000 0.8666667 0.6313726
0.4980392 0.8666667 0.6313726
0.5960785 0.8666667 0.6313726
0.6980392 0.8666667 0.6313726
0.8000000 0.8666667 0.6313726
0.0000000 0.0666667 0.7333333
0.0980392 0.0666667 0.7333333
0.2000000 0.0666667 0.7333333
0.2980392 0.0666667 0.7333333
0.4000000 0.0666667 0.7333333
0.4980392 0.0666667 0.7333333
0.5960785 0.0666667 0.7333333
0.6980392 0.0666667 0.7333333
0.8000000 0.0666667 0.7333333
0.0000000 0.1686275 0.7333333
0.0980392 0.1686275 0.7333333
0.2000000 0.1686275 0.7333333
0.2980392 0.1686275 0.7333333
0.4000000 0.1686275 0.7333333
0.4980392 0.1686275 0.7333333
0.5960785 0.1686275 0.7333333
0.6980392 0.1686275 0.7333333
0.8000000 0.1686275 0.7333333
0.0000000 0.2705882 0.7333333
0.0980392 0.2705882 0.7333333
0.2000000 0.2705882 0.7333333
0.2980392 0.2705882 0.7333333
0.4000000 0.2705882 0.7333333
0.4980392 0.2705882 0.7333333
0.5960785 0.2705882 0.7333333
0.6980392 0.2705882 0.7333333
0.8000000 0.2705882 0.7333333
0.0000000 0.3686275 0.7333333
0.0980392 0.3686275 0.7333333
0.2000000 0.3686275 0.7333333
0.2980392 0.3686275 0.7333333
0.4000000 0.3686275 0.7333333
0.4980392 0.3686275 0.7333333
0.5960785 0.3686275 0.7333333
0.6980392 0.3686275 0.7333333
0.8000000 0.3686275 0.7333333
0.0000000 0.4705882 0.7333333
0.0980392 0.4705882 0.7333333
0.2000000 0.4705882 0.7333333
0.2980392 0.4705882 0.7333333
0.4000000 0.4705882 0.7333333
0.4980392 0.4705882 0.7333333
0.5960785 0.4705882 0.7333333
0.6980392 0.4705882 0.7333333
0.8000000 0.4705882 0.7333333
0.0000000 0.5686275 0.7333333
0.0980392 0.5686275 0.7333333
0.2000000 0.5686275 0.7333333
0.2980392 0.5686275 0.7333333
0.4000000 0.5686275 0.7333333
0.4980392 0.5686275 0.7333333
0.5960785 0.5686275 0.7333333
0.6980392 0.5686275 0.7333333
0.8000000 0.5686275 0.7333333
0.0000000 0.6666667 0.7333333
0.0980392 0.6666667 0.7333333
0.2000000 0.6666667 0.7333333
0.2980392 0.6666667 0.7333333
0.4000000 0.6666667 0.7333333
0.4980392 0.6666667 0.7333333
0.5960785 0.6666667 0.7333333
0.6980392 0.6666667 0.7333333
0.8000000 0.6666667 0.7333333
0.0000000 0.7686275 0.7333333
0.0980392 0.7686275 0.7333333
0.2000000 0.7686275 0.7333333
0.2980392 0.7686275 0.7333333
0.4000000 0.7686275 0.7333333
0.4980392 0.7686275 0.7333333
0.5960785 0.7686275 0.7333333
0.6980392 0.7686275 0.7333333
0.8000000 0.7686275 0.7333333
0.0000000 0.8666667 0.7333333
0.0980392 0.8666667 0.7333333
0.2000000 0.8666667 0.7333333
0.2980392 0.8666667 0.7333333
0.4000000 0.8666667 0.7333333
0.4980392 0.8666667 0.7333333
0.5960785 0.8666667 0.7333333
0.6980392 0.8666667 0.7333333
0.8000000 0.8666667 0.7333333
0.0000000 0.0666667 0.8352941
0.0980392 0.0666667 0.8352941
0.2000000 0.0666667 0.8352941
0.2980392 0.0666667 0.8352941
0.4000000 0.0666667 0.8352941
0.4980392 0.0666667 0.8352941
0.5960785 0.0666667 0.8352941
0.6980392 0.0666667 0.8352941
0.8000000 0.0666667 0.8352941
0.0000000 0.1686275 0.8352941
0.0980392 0.1686275 0.8352941
0.2000000 0.1686275 0.8352941
0.2980392 0.1686275 0.8352941
0.4000000 0.1686275 0.8352941
0.4980392 0.1686275 0.8352941
0.5960785 0.1686275 0.8352941
0.6980392 0.1686275 0.8352941
0.8000000 0.1686275 0.8352941
0.0000000 0.2705882 0.8352941
0.0980392 0.2705882 0.8352941
0.2000000 0.2705882 0.8352941
0.2980392 0.2705882 0.8352941
0.4000000 0.2705882 0.8352941
0.4980392 0.2705882 0.8352941
0.5960785 0.2705882 0.8352941
0.6980392 0.2705882 0.8352941
0.8000000 0.2705882 0.8352941
0.0000000 0.3686275 0.8352941
0.0980392 0.3686275 0.8352941
0.2000000 0.3686275 0.8352941
0.2980392 0.3686275 0.8352941
0.4000000 0.3686275 0.8352941
0.4980392 0.3686275 0.8352941
0.5960785 0.3686275 0.8352941
0.6980392 0.3686275 0.8352941
0.8000000 0.3686275 0.8352941
0.0000000 0.4705882 0.8352941
0.0980392 0.4705882 0.8352941
0.2000000 0.4705882 0.8352941
0.2980392 0.4705882 0.8352941
0.4000000 0.4705882 0.8352941
0.4980392 0.4705882 0.8352941
0.5960785 0.4705882 0.8352941
0.6980392 0.4705882 0.8352941
0.8000000 0.4705882 0.8352941
0.0000000 0.5686275 0.8352941
0.0980392 0.5686275 0.8352941
0.2000000 0.5686275 0.8352941
0.2980392 0.5686275 0.8352941
0.4000000 0.5686275 0.8352941
0.4980392 0.5686275 0.8352941
0.5960785 0.5686275 0.8352941
0.6980392 0.5686275 0.8352941
0.8000000 0.5686275 0.8352941
0.0000000 0.6666667 0.8352941
0.0980392 0.6666667 0.8352941
0.2000000 0.6666667 0.8352941
0.2980392 0.6666667 0.8352941
0.4000000 0.6666667 0.8352941
0.4980392 0.6666667 0.8352941
0.5960785 0.6666667 0.8352941
0.6980392 0.6666667 0.8352941
0.8000000 0.6666667 0.8352941
0.0000000 0.7686275 0.8352941
0.0980392 0.7686275 0.8352941
0.2000000 0.7686275 0.8352941
0.2980392 0.7686275 0.8352941
0.4000000 0.7686275 0.8352941
0.4980392 0.7686275 0.8352941
0.5960785 0.7686275 0.8352941
0.6980392 0.7686275 0.8352941
0.8000000 0.7686275 0.8352941
0.0000000 0.8666667 0.8352941
0.0980392 0.8666667 0.8352941
0.2000000 0.8666667 0.8352941
0.2980392 0.8666667 0.8352941
0.4000000 0.8666667 0.8352941
0.4980392 0.8666667 0.8352941
0.5960785 0.8666667 0.8352941
0.6980392 0.8666667 0.8352941
0.8000000 0.8666667 0.8352941
0.0000000 0.0666667 0.9333333
0.0980392 0.0666667 0.9333333
0.2000000 0.0666667 0.9333333
0.2980392 0.0666667 0.9333333
0.4000000 0.0666667 0.9333333
0.4980392 0.0666667 0.9333333
0.5960785 0.0666667 0.9333333
0.6980392 0.0666667 0.9333333
0.8000000 0.0666667 0.9333333
0.0000000 0.1686275 0.9333333
0.0980392 0.1686275 0.9333333
0.2000000 0.1686275 0.9333333
0.2980392 0.1686275 0.9333333
0.4000000 0.1686275 0.9333333
0.4980392 0.1686275 0.9333333
0.5960785 0.1686275 0.9333333
0.6980392 0.1686275 0.9333333
0.8000000 0.1686275 0.9333333
0.0000000 0.2705882 0.9333333
0.0980392 0.2705882 0.9333333
0.2000000 0.2705882 0.9333333
0.2980392 0.2705882 0.9333333
0.4000000 0.2705882 0.9333333
0.4980392 0.2705882 0.9333333
0.5960785 0.2705882 0.9333333
0.6980392 0.2705882 0.9333333
0.8000000 0.2705882 0.9333333
0.0000000 0.3686275 0.9333333
0.0980392 0.3686275 0.9333333
0.2000000 0.3686275 0.9333333
0.2980392 0.3686275 0.9333333
0.4000000 0.3686275 0.9333333
0.4980392 0.3686275 0.9333333
0.5960785 0.3686275 0.9333333
0.6980392 0.3686275 0.9333333
0.8000000 0.3686275 0.9333333
0.0000000 0.4705882 0.9333333
0.0980392 0.4705882 0.9333333
0.2000000 0.4705882 0.9333333
0.2980392 0.4705882 0.9333333
0.4000000 0.4705882 0.9333333
0.4980392 0.4705882 0.9333333
0.5960785 0.4705882 0.9333333
0.6980392 0.4705882 0.9333333
0.8000000 0.4705882 0.9333333
0.0000000 0.5686275 0.9333333
0.0980392 0.5686275 0.9333333
0.2000000 0.5686275 0.9333333
0.2980392 0.5686275 0.9333333
0.4000000 0.5686275 0.9333333
0.4980392 0.5686275 0.9333333
0.5960785 0.5686275 0.9333333
0.6980392 0.5686275 0.9333333
0.8000000 0.5686275 0.9333333
0.0000000 0.6666667 0.9333333
0.0980392 0.6666667 0.9333333
0.2000000 0.6666667 0.9333333
0.2980392 0.6666667 0.9333333
0.4000000 0.6666667 0.9333333
0.4980392 0.6666667 0.9333333
0.5960785 0.6666667 0.9333333
0.6980392 0.6666667 0.9333333
0.8000000 0.6666667 0.9333333
0.0000000 0.7686275 0.9333333
0.0980392 0.7686275 0.9333333
0.2000000 0.7686275 0.9333333
0.2980392 0.7686275 0.9333333
0.4000000 0.7686275 0.9333333
0.4980392 0.7686275 0.9333333
0.5960785 0.7686275 0.9333333
0.6980392 0.7686275 0.9333333
0.8000000 0.7686275 0.9333333
0.0000000 0.8666667 0.9333333
0.0980392 0.8666667 0.9333333
0.2000000 0.8666667 0.9333333
0.2980392 0.8666667 0.9333333
0.4000000 0.8666667 0.9333333
0.4980392 0.8666667 0.9333333
0.5960785 0.8666667 0.9333333
0.6980392 0.8666667 0.9333333
0.8000000 0.8666667 0.9333333
