rust/film_profiles/provia_inspired/lut.cube
TITLE "Provia Inspired"
LUT_3D_SIZE 5
DOMAIN_MIN 0.0 0.0 0.0
DOMAIN_MAX 1.0 1.0 1.0

0.000000 0.000000 0.000000
0.249670 0.000000 0.000000
0.525915 0.000000 0.000000
0.802160 0.000000 0.000000
1.000000 0.000000 0.000000
0.000000 0.248281 0.000000
0.235781 0.244286 0.000000
0.512026 0.239866 0.000000
0.788271 0.235446 0.000000
1.000000 0.231273 0.000000
0.000000 0.522131 0.000000
0.220461 0.518136 0.000000
0.496707 0.513717 0.000000
0.772952 0.509297 0.000000
1.000000 0.505123 0.000000
0.000000 0.795982 0.000000
0.205142 0.791987 0.000000
0.481387 0.787567 0.000000
0.757632 0.783147 0.000000
1.000000 0.778974 0.000000
0.000000 1.000000 0.000000
0.192454 1.000000 0.000000
0.468699 1.000000 0.000000
0.744944 1.000000 0.000000
1.000000 1.000000 0.000000
0.000000 0.000000 0.263588
0.248253 0.000000 0.259593
0.524498 0.000000 0.255173
0.800743 0.000000 0.250753
1.000000 0.000000 0.246580
0.000000 0.246864 0.249699
0.234364 0.242869 0.245704
0.510609 0.238449 0.241284
0.786854 0.234029 0.236864
1.000000 0.229856 0.232691
0.000000 0.520714 0.234379
0.219044 0.516719 0.230384
0.495289 0.512299 0.225964
0.771534 0.507879 0.221544
1.000000 0.503706 0.217371
0.000000 0.794564 0.219059
0.203725 0.790570 0.215065
0.479970 0.786150 0.210645
0.756215 0.781730 0.206225
1.000000 0.777556 0.202051
0.000000 1.000000 0.206372
0.191037 1.000000 0.202377
0.467282 1.000000 0.197957
0.743527 1.000000 0.193537
1.000000 1.000000 0.189364
0.000000 0.000000 0.554031
0.246691 0.000000 0.550036
0.522936 0.000000 0.545616
0.799181 0.000000 0.541196
1.000000 0.000000 0.537023
0.000000 0.245302 0.540142
0.232802 0.241307 0.536147
0.509047 0.236887 0.531727
0.785292 0.232467 0.527307
1.000000 0.228294 0.523134
0.000000 0.519152 0.524822
0.217483 0.515158 0.520828
0.493728 0.510738 0.516408
0.769973 0.506318 0.511988
1.000000 0.502144 0.507814
0.000000 0.793003 0.509503
0.202163 0.789008 0.505508
0.478408 0.784588 0.501088
0.754653 0.780168 0.496668
1.000000 0.775995 0.492495
0.000000 1.000000 0.496815
0.189475 1.000000 0.492820
0.465720 1.000000 0.488400
0.741965 1.000000 0.483980
1.000000 1.000000 0.479807
0.000000 0.000000 0.844474
0.245130 0.000000 0.840480
0.521375 0.000000 0.836060
0.797620 0.000000 0.831640
1.000000 0.000000 0.827466
0.000000 0.243740 0.830585
0.231240 0.239745 0.826590
0.507485 0.235325 0.822170
0.783730 0.230905 0.817750
1.000000 0.226732 0.813577
0.000000 0.517591 0.815266
0.215921 0.513596 0.811271
0.492166 0.509176 0.806851
0.768411 0.504756 0.802431
1.000000 0.500583 0.798258
0.000000 0.791441 0.799946
0.200601 0.787446 0.795951
0.476846 0.783026 0.791531
0.753091 0.778606 0.787111
1.000000 0.774433 0.782938
0.000000 1.000000 0.787258
0.187914 1.000000 0.783264
0.464159 1.000000 0.778844
0.740404 1.000000 0.774424
1.000000 1.000000 0.770250
0.000000 0.000000 1.000000
0.243894 0.000000 1.000000
0.520139 0.000000 1.000000
0.796384 0.000000 1.000000
1.000000 0.000000 1.000000
0.000000 0.242505 1.000000
0.230005 0.238510 1.000000
0.506250 0.234090 1.000000
0.782495 0.229670 1.000000
1.000000 0.225497 1.000000
0.000000 0.516355 1.000000
0.214685 0.512360 1.000000
0.490931 0.507941 1.000000
0.767176 0.503521 1.000000
1.000000 0.499347 1.000000
0.000000 0.790206 1.000000
0.199366 0.786211 1.000000
0.475611 0.781791 1.000000
0.751856 0.777371 1.000000
1.000000 0.773198 1.000000
0.000000 1.000000 1.000000
0.186678 1.000000 1.000000
0.462923 1.000000 1.000000
0.739168 1.000000 1.000000
1.000000 1.000000 1.000000
