rust/film_profiles/e100_inspired/lut.cube
TITLE "E100 Inspired"
LUT_3D_SIZE 3
DOMAIN_MIN 0.0 0.0 0.0
DOMAIN_MAX 1.0 1.0 1.0

0.000000 0.000000 0.000000
0.534513 0.000000 0.000000
1.000000 0.000000 0.000000
0.000000 0.508544 0.000000
0.513057 0.502033 0.000000
1.000000 0.495788 0.000000
0.000000 1.000000 0.000000
0.491601 1.000000 0.000000
1.000000 1.000000 0.000000
0.000000 0.000000 0.521796
0.532372 0.000000 0.515285
1.000000 0.000000 0.509040
0.000000 0.506403 0.500340
0.510916 0.499892 0.493829
1.000000 0.493647 0.487584
0.000000 1.000000 0.478884
0.489460 1.000000 0.472373
1.000000 1.000000 0.466128
0.000000 0.000000 1.000000
0.530181 0.000000 1.000000
1.000000 0.000000 1.000000
0.000000 0.504212 1.000000
0.508725 0.497701 1.000000
1.000000 0.491456 1.000000
0.000000 1.000000 1.000000
0.487269 1.000000 1.000000
1.000000 1.000000 1.000000
