rust/film_profiles/velvia_inspired/lut.cube
TITLE "Velvia Inspired"
LUT_3D_SIZE 33
DOMAIN_MIN 0.0 0.0 0.0
DOMAIN_MAX 1.0 1.0 1.0
0.0000000 0.0000000 0.0000000
0.0000000 0.0000000 0.0000000
0.0000000 0.0000000 0.0000000
0.0319800 0.0000000 0.0000000
0.0726609 0.0000000 0.0000000
0.1164728 0.0000000 0.0000000
0.1621373 0.0000000 0.0000000
0.2089269 0.0000000 0.0000000
0.2563559 0.0000000 0.0000000
0.3040777 0.0000000 0.0000000
0.3518409 0.0000000 0.0000000
0.3994638 0.0000000 0.0000000
0.4468226 0.0000000 0.0000000
0.4938418 0.0000000 0.0000000
0.5404897 0.0000000 0.0000000
0.5867757 0.0000000 0.0000000
0.6327502 0.0000000 0.0000000
0.6785079 0.0000000 0.0000000
0.7241929 0.0000000 0.0000000
0.7700137 0.0000000 0.0000000
0.8162705 0.0000000 0.0000000
0.8634119 0.0000000 0.0000000
0.9121926 0.0000000 0.0000000
0.9642826 0.0000000 0.0000000
1.0000000 0.0000000 0.0000000
1.0000000 0.0000000 0.0000000
1.0000000 0.0000000 0.0000000
1.0000000 0.0000000 0.0000000
1.0000000 0.0000000 0.0000000
1.0000000 0.0000000 0.0000000
1.0000000 0.0000000 0.0000000
1.0000000 0.0000000 0.0000000
1.0000000 0.0000000 0.0000000
0.0000000 0.0000000 0.0000000
0.0000000 0.0000000 0.0000000
0.0000000 0.0000000 0.0000000
0.0254951 0.0000000 0.0000000
0.0654606 0.0000000 0.0000000
0.1089032 0.0000000 0.0000000
0.1543654 0.0000000 0.0000000
0.2010565 0.0000000 0.0000000
0.2484582 0.0000000 0.0000000
0.2962037 0.0000000 0.0000000
0.3440268 0.0000000 0.0000000
0.3917350 0.0000000 0.0000000
0.4391952 0.0000000 0.0000000
0.4863242 0.0000000 0.0000000
0.5330833 0.0000000 0.0000000
0.5794755 0.0000000 0.0000000
0.6255558 0.0000000 0.0000000
0.6714121 0.0000000 0.0000000
0.7171693 0.0000000 0.0000000
0.7630258 0.0000000 0.0000000
0.8092658 0.0000000 0.0000000
0.8563125 0.0000000 0.0000000
0.9048585 0.0000000 0.0000000
0.9563476 0.0000000 0.0000000
1.0000000 0.0000000 0.0000000
1.0000000 0.0000000 0.0000000
1.0000000 0.0000000 0.0000000
1.0000000 0.0000000 0.0000000
1.0000000 0.0000000 0.0000000
1.0000000 0.0000000 0.0000000
1.0000000 0.0000000 0.0000000
1.0000000 0.0000000 0.0000000
1.0000000 0.0000000 0.0000000
0.0000000 0.0000000 0.0000000
0.0000000 0.0000000 0.0000000
0.0000000 0.0000000 0.0000000
0.0195069 0.0000000 0.0000000
0.0582467 0.0000000 0.0000000
0.1011465 0.0000000 0.0000000
0.1463240 0.0000000 0.0000000
0.1928435 0.0000000 0.0000000
0.2401510 0.0000000 0.0000000
0.2878581 0.0000000 0.0000000
0.3356832 0.0000000 0.0000000
0.3834226 0.0000000 0.0000000
0.4309334 0.0000000 0.0000000
0.4781242 0.0000000 0.0000000
0.5249488 0.0000000 0.0000000
0.5714031 0.0000000 0.0000000
0.6175238 0.0000000 0.0000000
0.6633904 0.0000000 0.0000000
0.7091302 0.0000000 0.0000000
0.7549290 0.0000000 0.0000000
0.8010530 0.0000000 0.0000000
0.8478938 0.0000000 0.0000000
0.8960789 0.0000000 0.0000000
0.9468341 0.0000000 0.0000000
1.0000000 0.0000000 0.0000000
1.0000000 0.0000000 0.0000000
1.0000000 0.0000000 0.0000000
1.0000000 0.0000000 0.0000000
1.0000000 0.0000000 0.0000000
1.0000000 0.0000000 0.0000000
1.0000000 0.0000000 0.0000000
1.0000000 0.0000000 0.0000000
1.0000000 0.0000000 0.0000000
0.0000000 0.0260871 0.0000000
0.0000000 0.0241578 0.0000000
0.0000000 0.0226567 0.0000000
0.0150831 0.0216107 0.0000000
0.0519597 0.0178544 0.0000000
0.0939358 0.0161781 0.0000000
0.1384431 0.0144800 0.0000000
0.1846541 0.0126019 0.0000000
0.2318556 0.0106469 0.0000000
0.2795158 0.0087353 0.0000000
0.3273369 0.0068738 0.0000000
0.3751032 0.0050715 0.0000000
0.4226618 0.0033433 0.0000000
0.4699130 0.0017166 0.0000000
0.5168030 0.0002695 0.0000000
0.5633205 0.0000000 0.0000000
0.6094947 0.0000000 0.0000000
0.6553981 0.0000000 0.0000000
0.7011485 0.0000000 0.0000000
0.7469205 0.0000000 0.0000000
0.7929637 0.0000000 0.0000000
0.8396433 0.0000000 0.0000000
0.8875311 0.0000000 0.0000000
0.9376912 0.0000000 0.0000000
0.9936755 0.0000000 0.0000000
1.0000000 0.0000000 0.0000000
1.0000000 0.0000000 0.0000000
1.0000000 0.0000000 0.0000000
1.0000000 0.0000000 0.0000000
1.0000000 0.0000000 0.0000000
1.0000000 0.0000000 0.0000000
1.0000000 0.0000000 0.0000000
1.0000000 0.0000000 0.0000000
0.0000000 0.0611760 0.0000000
0.0000000 0.0589809 0.0000000
0.0000000 0.0571393 0.0000000
0.0082372 0.0557058 0.0000000
0.0472352 0.0545092 0.0000000
0.0873535 0.0495791 0.0000000
0.1314005 0.0475553 0.0000000
0.1770091 0.0456891 0.0000000
0.2237404 0.0437243 0.0000000
0.2711889 0.0415885 0.0000000
0.3189888 0.0393158 0.0000000
0.3667774 0.0370481 0.0000000
0.4143807 0.0347980 0.0000000
0.4616908 0.0325664 0.0000000
0.5086457 0.0303542 0.0000000
0.5552272 0.0281625 0.0000000
0.6014575 0.0259924 0.0000000
0.6474010 0.0238453 0.0000000
0.6931673 0.0217225 0.0000000
0.7389199 0.0196257 0.0000000
0.7848936 0.0175570 0.0000000
0.8314287 0.0155187 0.0000000
0.8790495 0.0135134 0.0000000
0.9286913 0.0115447 0.0000000
0.9829092 0.0096167 0.0000000
1.0000000 0.0077353 0.0000000
1.0000000 0.0059081 0.0000000
1.0000000 0.0041488 0.0000000
1.0000000 0.0024750 0.0000000
1.0000000 0.0009292 0.0000000
1.0000000 0.0000000 0.0000000
1.0000000 0.0000000 0.0000000
1.0000000 0.0000000 0.0000000
0.0000000 0.0990604 0.0000000
0.0000000 0.0967443 0.0000000
0.0000000 0.0946215 0.0000000
0.0041724 0.0928499 0.0000000
0.0387641 0.0915777 0.0000000
0.0826989 0.0902361 0.0000000
0.1245104 0.0843147 0.0000000
0.1699858 0.0820098 0.0000000
0.2163551 0.0799986 0.0000000
0.2633971 0.0779947 0.0000000
0.3108498 0.0758805 0.0000000
0.3584790 0.0736157 0.0000000
0.4060906 0.0712023 0.0000000
0.4534574 0.0687603 0.0000000
0.5004770 0.0663289 0.0000000
0.5471231 0.0639084 0.0000000
0.5934113 0.0614993 0.0000000
0.6393984 0.0591019 0.0000000
0.6851854 0.0567165 0.0000000
0.7309259 0.0543437 0.0000000
0.7768402 0.0519839 0.0000000
0.8232463 0.0496375 0.0000000
0.8706269 0.0473051 0.0000000
0.9198132 0.0449872 0.0000000
0.9728056 0.0426844 0.0000000
1.0000000 0.0403975 0.0000000
1.0000000 0.0381268 0.0000000
1.0000000 0.0358747 0.0000000
1.0000000 0.0336408 0.0000000
1.0000000 0.0314256 0.0000000
1.0000000 0.0292299 0.0000000
1.0000000 0.0270549 0.0000000
1.0000000 0.0264458 0.0000000
0.0000000 0.1386416 0.0000000
0.0000000 0.1362805 0.0000000
0.0000000 0.1339325 0.0000000
0.0011504 0.1320086 0.0000000
0.0327419 0.1302520 0.0000000
0.0733673 0.1291405 0.0000000
0.1201119 0.1276796 0.0000000
0.1628180 0.1208637 0.0000000
0.2092811 0.1183213 0.0000000
0.2561503 0.1161603 0.0000000
0.3033386 0.1140981 0.0000000
0.3506878 0.1119933 0.0000000
0.3980423 0.1097808 0.0000000
0.4452751 0.1074354 0.0000000
0.4922968 0.1049518 0.0000000
0.5390081 0.1023999 0.0000000
0.5853559 0.0998552 0.0000000
0.6313896 0.0973176 0.0000000
0.6772020 0.0947877 0.0000000
0.7229369 0.0922655 0.0000000
0.7688013 0.0897513 0.0000000
0.8150927 0.0872453 0.0000000
0.8622573 0.0847477 0.0000000
0.9110399 0.0822587 0.0000000
0.9630756 0.0797788 0.0000000
1.0000000 0.0773080 0.0000000
1.0000000 0.0748467 0.0000000
1.0000000 0.0723955 0.0000000
1.0000000 0.0699545 0.0000000
1.0000000 0.0675237 0.0000000
1.0000000 0.0651032 0.0000000
1.0000000 0.0626936 0.0000000
1.0000000 0.0619808 0.0000000
0.0000000 0.1793100 0.0000000
0.0000000 0.1769368 0.0000000
0.0000000 0.1744303 0.0000000
0.0000000 0.1723482 0.0000000
0.0284192 0.1704838 0.0000000
0.0660474 0.1688703 0.0000000
0.1102549 0.1677945 0.0000000
0.1587939 0.1662426 0.0000000
0.2018791 0.1586019 0.0000000
0.2490011 0.1558618 0.0000000
0.2961633 0.1535550 0.0000000
0.3433664 0.1514179 0.0000000
0.3905302 0.1493003 0.0000000
0.4375639 0.1471219 0.0000000
0.4843935 0.1448423 0.0000000
0.5309743 0.1424444 0.0000000
0.5772972 0.1399234 0.0000000
0.6233739 0.1373064 0.0000000
0.6692161 0.1346861 0.0000000
0.7149517 0.1320708 0.0000000
0.7607750 0.1294607 0.0000000
0.8069652 0.1268561 0.0000000
0.8539354 0.1242569 0.0000000
0.9023583 0.1216632 0.0000000
0.9536082 0.1190755 0.0000000
1.0000000 0.1164937 0.0000000
1.0000000 0.1139180 0.0000000
1.0000000 0.1113483 0.0000000
1.0000000 0.1087845 0.0000000
1.0000000 0.1062270 0.0000000
1.0000000 0.1036760 0.0000000
1.0000000 0.1011317 0.0000000
1.0000000 0.1003405 0.0000000
0.0000000 0.2206602 0.0000000
0.0000000 0.2182963 0.0000000
0.0000000 0.2156858 0.0000000
0.0000000 0.2134612 0.0000000
0.0244041 0.2115087 0.0000000
0.0606670 0.2096404 0.0000000
0.1019690 0.2082522 0.0000000
0.1486162 0.2071508 0.0000000
0.1983093 0.2055327 0.0000000
0.2414101 0.1971242 0.0000000
0.2889362 0.1942222 0.0000000
0.3362260 0.1917807 0.0000000
0.3833400 0.1895608 0.0000000
0.4302591 0.1874131 0.0000000
0.4769462 0.1852489 0.0000000
0.5233740 0.1830177 0.0000000
0.5695407 0.1806926 0.0000000
0.6154754 0.1782612 0.0000000
0.6612474 0.1757192 0.0000000
0.7069690 0.1730727 0.0000000
0.7527596 0.1704020 0.0000000
0.7988608 0.1677348 0.0000000
0.8456563 0.1650712 0.0000000
0.8937575 0.1624113 0.0000000
0.9443430 0.1597553 0.0000000
1.0000000 0.1571031 0.0000000
1.0000000 0.1544549 0.0000000
1.0000000 0.1518105 0.0000000
1.0000000 0.1491684 0.0000000
1.0000000 0.1465302 0.0000000
1.0000000 0.1438963 0.0000000
1.0000000 0.1412668 0.0000000
1.0000000 0.1404094 0.0000000
0.0000000 0.2624009 0.0000000
0.0000000 0.2600614 0.0000000
0.0000000 0.2573894 0.0000000
0.0000000 0.2550438 0.0000000
0.0204480 0.2529952 0.0000000
0.0561608 0.2510978 0.0000000
0.0955809 0.2492898 0.0000000
0.1395988 0.2480844 0.0000000
0.1879508 0.2469316 0.0000000
0.2383487 0.2452684 0.0000000
0.2811979 0.2361411 0.0000000
0.3289287 0.2331086 0.0000000
0.3762151 0.2305471 0.0000000
0.4231613 0.2282438 0.0000000
0.4697965 0.2260550 0.0000000
0.5161300 0.2238890 0.0000000
0.5621771 0.2216891 0.0000000
0.6079757 0.2194213 0.0000000
0.6535950 0.2170667 0.0000000
0.6991463 0.2146157 0.0000000
0.7447939 0.2120647 0.0000000
0.7907771 0.2094139 0.0000000
0.8374159 0.2067113 0.0000000
0.8852284 0.2040109 0.0000000
0.9352412 0.2013128 0.0000000
0.9906576 0.1986172 0.0000000
1.0000000 0.1959242 0.0000000
1.0000000 0.1932339 0.0000000
1.0000000 0.1905426 0.0000000
1.0000000 0.1878536 0.0000000
1.0000000 0.1851671 0.0000000
1.0000000 0.1824834 0.0000000
1.0000000 0.1815683 0.0000000
0.0000000 0.3043148 0.0000000
0.0000000 0.3020105 0.0000000
0.0000000 0.2993101 0.0000000
0.0000000 0.2968649 0.0000000
0.0165146 0.2947252 0.0000000
0.0517665 0.2927754 0.0000000
0.0905112 0.2908933 0.0000000
0.1323846 0.2892529 0.0000000
0.1783786 0.2881424 0.0000000
0.2279097 0.2869300 0.0000000
0.2786814 0.2852386 0.0000000
0.3210795 0.2754363 0.0000000
0.3688593 0.2723001 0.0000000
0.4160421 0.2696344 0.0000000
0.4627647 0.2672513 0.0000000
0.5090968 0.2650160 0.0000000
0.5550881 0.2628371 0.0000000
0.6007943 0.2606542 0.0000000
0.6462923 0.2584290 0.0000000
0.6916936 0.2561374 0.0000000
0.7371568 0.2537653 0.0000000
0.7829080 0.2513055 0.0000000
0.8292757 0.2487545 0.0000000
0.8767683 0.2461122 0.0000000
0.9262763 0.2433977 0.0000000
0.9801263 0.2406782 0.0000000
1.0000000 0.2379601 0.0000000
1.0000000 0.2352435 0.0000000
1.0000000 0.2325245 0.0000000
1.0000000 0.2298056 0.0000000
1.0000000 0.2270881 0.0000000
1.0000000 0.2243721 0.0000000
1.0000000 0.2234053 0.0000000
0.0000000 0.3462376 0.0000000
0.0000000 0.3439765 0.0000000
0.0000000 0.3412733 0.0000000
0.0000000 0.3387478 0.0000000
0.0126135 0.3365273 0.0000000
0.0473952 0.3345178 0.0000000
0.0858094 0.3326208 0.0000000
0.1265615 0.3307443 0.0000000
0.1704921 0.3293278 0.0000000
0.2179201 0.3282604 0.0000000
0.2682229 0.3269913 0.0000000
0.3191311 0.3252822 0.0000000
0.3609305 0.3148439 0.0000000
0.4086401 0.3116266 0.0000000
0.4556462 0.3088723 0.0000000
0.5021117 0.3064160 0.0000000
0.5481411 0.3041325 0.0000000
0.5938213 0.3019332 0.0000000
0.6392462 0.2997567 0.0000000
0.6845346 0.2975614 0.0000000
0.7298438 0.2953198 0.0000000
0.7753916 0.2930145 0.0000000
0.8214872 0.2906345 0.0000000
0.8685985 0.2881739 0.0000000
0.9175276 0.2856301 0.0000000
0.9701593 0.2830023 0.0000000
1.0000000 0.2802950 0.0000000
1.0000000 0.2775672 0.0000000
1.0000000 0.2748363 0.0000000
1.0000000 0.2721030 0.0000000
1.0000000 0.2693703 0.0000000
1.0000000 0.2666381 0.0000000
1.0000000 0.2656248 0.0000000
0.0000000 0.3880474 0.0000000
0.0000000 0.3858350 0.0000000
0.0000000 0.3831418 0.0000000
0.0000000 0.3805592 0.0000000
0.0087799 0.3782690 0.0000000
0.0430131 0.3762005 0.0000000
0.0811758 0.3742728 0.0000000
0.1215742 0.3724011 0.0000000
0.1639756 0.3706200 0.0000000
0.2094909 0.3693695 0.0000000
0.2579369 0.3683144 0.0000000
0.3086917 0.3669968 0.0000000
0.3595632 0.3652765 0.0000000
0.4006568 0.3542368 0.0000000
0.4482092 0.3509575 0.0000000
0.4949909 0.3481292 0.0000000
0.5411871 0.3456069 0.0000000
0.5869344 0.3432764 0.0000000
0.6323547 0.3410524 0.0000000
0.6775817 0.3388743 0.0000000
0.7227784 0.3366987 0.0000000
0.7681591 0.3344960 0.0000000
0.8140191 0.3322457 0.0000000
0.8607941 0.3299347 0.0000000
0.9092057 0.3275541 0.0000000
0.9608096 0.3250993 0.0000000
1.0000000 0.3225678 0.0000000
1.0000000 0.3199590 0.0000000
1.0000000 0.3172627 0.0000000
1.0000000 0.3145312 0.0000000
1.0000000 0.3117976 0.0000000
1.0000000 0.3090622 0.0000000
1.0000000 0.3080066 0.0000000
0.0000000 0.4296561 0.0000000
0.0000000 0.4274959 0.0000000
0.0000000 0.4248174 0.0000000
0.0000000 0.4222014 0.0000000
0.0050769 0.4198525 0.0000000
0.0386126 0.4177291 0.0000000
0.0765515 0.4157640 0.0000000
0.1167308 0.4138865 0.0000000
0.1585223 0.4120230 0.0000000
0.2023870 0.4104178 0.0000000
0.2490743 0.4092750 0.0000000
0.2982117 0.4082139 0.0000000
0.3491710 0.4068560 0.0000000
0.3998771 0.4051300 0.0000000
0.4401913 0.3935195 0.0000000
0.4875275 0.3901934 0.0000000
0.5340610 0.3873038 0.0000000
0.5799982 0.3847236 0.0000000
0.6255047 0.3823482 0.0000000
0.6707395 0.3800976 0.0000000
0.7158781 0.3779122 0.0000000
0.7611374 0.3757484 0.0000000
0.8068040 0.3735748 0.0000000
0.8532893 0.3713692 0.0000000
0.9012513 0.3691165 0.0000000
0.9520133 0.3668058 0.0000000
1.0000000 0.3644305 0.0000000
1.0000000 0.3619864 0.0000000
1.0000000 0.3593642 0.0000000
1.0000000 0.3566661 0.0000000
1.0000000 0.3539656 0.0000000
1.0000000 0.3512628 0.0000000
1.0000000 0.3501792 0.0000000
0.0000000 0.4710053 0.0000000
0.0000000 0.4688991 0.0000000
0.0000000 0.4662386 0.0000000
0.0000000 0.4636076 0.0000000
0.0016360 0.4612095 0.0000000
0.0341993 0.4590366 0.0000000
0.0719091 0.4570322 0.0000000
0.1119317 0.4551367 0.0000000
0.1534938 0.4532885 0.0000000
0.1963559 0.4514544 0.0000000
0.2414779 0.4500481 0.0000000
0.2890068 0.4489731 0.0000000
0.3385779 0.4478953 0.0000000
0.3895522 0.4465053 0.0000000
0.4400000 0.4447776 0.0000000
0.4794897 0.4326214 0.0000000
0.5265769 0.4292613 0.0000000
0.5728620 0.4263217 0.0000000
0.6185718 0.4236908 0.0000000
0.6639031 0.4212738 0.0000000
0.7090528 0.4189958 0.0000000
0.7542473 0.4167991 0.0000000
0.7997707 0.4146408 0.0000000
0.8460168 0.4124883 0.0000000
0.8935928 0.4103185 0.0000000
0.9436519 0.4081144 0.0000000
1.0000000 0.4058637 0.0000000
1.0000000 0.4035582 0.0000000
1.0000000 0.4009281 0.0000000
1.0000000 0.3982655 0.0000000
1.0000000 0.3956004 0.0000000
1.0000000 0.3929330 0.0000000
1.0000000 0.3918240 0.0000000
0.0000000 0.5120633 0.0000000
0.0000000 0.5100116 0.0000000
0.0000000 0.5073702 0.0000000
0.0000000 0.5047384 0.0000000
0.0000000 0.5022991 0.0000000
0.0297853 0.5000821 0.0000000
0.0672384 0.4980389 0.0000000
0.1071344 0.4961189 0.0000000
0.1485478 0.4942695 0.0000000
0.1910952 0.4924365 0.0000000
0.2349386 0.4907150 0.0000000
0.2810019 0.4894542 0.0000000
0.3291065 0.4884195 0.0000000
0.3789090 0.4873191 0.0000000
0.4297559 0.4859043 0.0000000
0.4798845 0.4841777 0.0000000
0.5185294 0.4714962 0.0000000
0.5653594 0.4681117 0.0000000
0.6114194 0.4651310 0.0000000
0.6569580 0.4624561 0.0000000
0.7022054 0.4600009 0.0000000
0.7474042 0.4576955 0.0000000
0.7928437 0.4554849 0.0000000
0.8389061 0.4533267 0.0000000
0.8861602 0.4511888 0.0000000
0.9356288 0.4490467 0.0000000
0.9904603 0.4468823 0.0000000
1.0000000 0.4446825 0.0000000
1.0000000 0.4424376 0.0000000
1.0000000 0.4393114 0.0000000
1.0000000 0.4366820 0.0000000
1.0000000 0.4340503 0.0000000
1.0000000 0.4329169 0.0000000
0.0000000 0.5528225 0.0000000
0.0000000 0.5508245 0.0000000
0.0000000 0.5482025 0.0000000
0.0000000 0.5455804 0.0000000
0.0000000 0.5431055 0.0000000
0.0253873 0.5408487 0.0000000
0.0625389 0.5387681 0.0000000
0.1023168 0.5368199 0.0000000
0.1436309 0.5349591 0.0000000
0.1860183 0.5331392 0.0000000
0.2292667 0.5313118 0.0000000
0.2740259 0.5297641 0.0000000
0.3207659 0.5286070 0.0000000
0.3692328 0.5275936 0.0000000
0.4191110 0.5264673 0.0000000
0.4697284 0.5250337 0.0000000
0.5195056 0.5233098 0.0000000
0.5573071 0.5101173 0.0000000
0.6038963 0.5067158 0.0000000
0.6497795 0.5037013 0.0000000
0.6952298 0.5009878 0.0000000
0.7405170 0.4984973 0.0000000
0.7859424 0.4961649 0.0000000
0.8318840 0.4939382 0.0000000
0.8788813 0.4917761 0.0000000
0.9278577 0.4896468 0.0000000
0.9812278 0.4875251 0.0000000
1.0000000 0.4853928 0.0000000
1.0000000 0.4832353 0.0000000
1.0000000 0.4798157 0.0000000
1.0000000 0.4772203 0.0000000
1.0000000 0.4746228 0.0000000
1.0000000 0.4734656 0.0000000
0.0000000 0.5932999 0.0000000
0.0000000 0.5913537 0.0000000
0.0000000 0.5887489 0.0000000
0.0000000 0.5861431 0.0000000
0.0000000 0.5836372 0.0000000
0.0210253 0.5813438 0.0000000
0.0578152 0.5792268 0.0000000
0.0974687 0.5772481 0.0000000
0.1387110 0.5753688 0.0000000
0.1809993 0.5735483 0.0000000
0.2240696 0.5717449 0.0000000
0.2679134 0.5699690 0.0000000
0.3134182 0.5685860 0.0000000
0.3606192 0.5675015 0.0000000
0.4092803 0.5664958 0.0000000
0.4591182 0.5653419 0.0000000
0.5094394 0.5638942 0.0000000
0.5588599 0.5621741 0.0000000
0.5958394 0.5484779 0.0000000
0.6422295 0.5450644 0.0000000
0.6880105 0.5420211 0.0000000
0.7334871 0.5392731 0.0000000
0.7789804 0.5367496 0.0000000
0.8248724 0.5343903 0.0000000
0.8716831 0.5321457 0.0000000
0.9202575 0.5299762 0.0000000
0.9725642 0.5278500 0.0000000
1.0000000 0.5257428 0.0000000
1.0000000 0.5236351 0.0000000
1.0000000 0.5198144 0.0000000
1.0000000 0.5172503 0.0000000
1.0000000 0.5146841 0.0000000
1.0000000 0.5135025 0.0000000
0.0000000 0.6335360 0.0000000
0.0000000 0.6316386 0.0000000
0.0000000 0.6290479 0.0000000
0.0000000 0.6264564 0.0000000
0.0000000 0.6239272 0.0000000
0.0167233 0.6215985 0.0000000
0.0530747 0.6194454 0.0000000
0.0925873 0.6174342 0.0000000
0.1337703 0.6155309 0.0000000
0.1759991 0.6137001 0.0000000
0.2189599 0.6119051 0.0000000
0.2624938 0.6101083 0.0000000
0.3069206 0.6084494 0.0000000
0.3529573 0.6071907 0.0000000
0.4004457 0.6061556 0.0000000
0.4491722 0.6051480 0.0000000
0.4988897 0.6039650 0.0000000
0.5488806 0.6025069 0.0000000
0.5979646 0.6007900 0.0000000
0.6341629 0.5865900 0.0000000
0.6804224 0.5831668 0.0000000
0.7262077 0.5800981 0.0000000
0.7718654 0.5773183 0.0000000
0.8177896 0.5747632 0.0000000
0.8644890 0.5723766 0.0000000
0.9127490 0.5701120 0.0000000
0.9642345 0.5679316 0.0000000
1.0000000 0.5658039 0.0000000
1.0000000 0.5637049 0.0000000
1.0000000 0.5593653 0.0000000
1.0000000 0.5568278 0.0000000
1.0000000 0.5542887 0.0000000
1.0000000 0.5530822 0.0000000
0.0000000 0.6735974 0.0000000
0.0000000 0.6717448 0.0000000
0.0000000 0.6691630 0.0000000
0.0000000 0.6665809 0.0000000
0.0000000 0.6640338 0.0000000
0.0125114 0.6616696 0.0000000
0.0483268 0.6594791 0.0000000
0.0876739 0.6574329 0.0000000
0.1287994 0.6555007 0.0000000
0.1709929 0.6536514 0.0000000
0.2138914 0.6518522 0.0000000
0.2573016 0.6500705 0.0000000
0.3011444 0.6482802 0.0000000
0.3461256 0.6467792 0.0000000
0.3925202 0.6456127 0.0000000
0.4401602 0.6446095 0.0000000
0.4888581 0.6435920 0.0000000
0.5384072 0.6423792 0.0000000
0.5880640 0.6409124 0.0000000
0.6368591 0.6391973 0.0000000
0.6723354 0.6244843 0.0000000
0.7185637 0.6210518 0.0000000
0.7644985 0.6179584 0.0000000
0.8105480 0.6151478 0.0000000
0.8572193 0.6125610 0.0000000
0.9052534 0.6101461 0.0000000
0.9560961 0.6078594 0.0000000
1.0000000 0.6056641 0.0000000
1.0000000 0.6035304 0.0000000
1.0000000 0.5985457 0.0000000
1.0000000 0.5960293 0.0000000
1.0000000 0.5935118 0.0000000
1.0000000 0.5922779 0.0000000
0.0000000 0.7135799 0.0000000
0.0000000 0.7117667 0.0000000
0.0000000 0.7091869 0.0000000
0.0000000 0.7066072 0.0000000
0.0000000 0.7040440 0.0000000
0.0084315 0.7016413 0.0000000
0.0435819 0.6994107 0.0000000
0.0827321 0.6973259 0.0000000
0.1237940 0.6953595 0.0000000
0.1659657 0.6934837 0.0000000
0.2088342 0.6916699 0.0000000
0.2521726 0.6898888 0.0000000
0.2958595 0.6881097 0.0000000
0.3400092 0.6863797 0.0000000
0.3854004 0.6850113 0.0000000
0.4320136 0.6839119 0.0000000
0.4797027 0.6829260 0.0000000
0.5283113 0.6818929 0.0000000
0.5776743 0.6806487 0.0000000
0.6270233 0.6791740 0.0000000
0.6756044 0.6774583 0.0000000
0.7104394 0.6622118 0.0000000
0.7567729 0.6587675 0.0000000
0.8030546 0.6556485 0.0000000
0.8497908 0.6528060 0.0000000
0.8976907 0.6501862 0.0000000
0.9480375 0.6477411 0.0000000
1.0000000 0.6454289 0.0000000
1.0000000 0.6432148 0.0000000
1.0000000 0.6390187 0.0000000
1.0000000 0.6349500 0.0000000
1.0000000 0.6324473 0.0000000
1.0000000 0.6311840 0.0000000
0.0000000 0.7536153 0.0000000
0.0000000 0.7518345 0.0000000
0.0000000 0.7492470 0.0000000
0.0000000 0.7466604 0.0000000
0.0000000 0.7440795 0.0000000
0.0045520 0.7416326 0.0000000
0.0388516 0.7393565 0.0000000
0.0777672 0.7372273 0.0000000
0.1187540 0.7352202 0.0000000
0.1609089 0.7333102 0.0000000
0.2037687 0.7314713 0.0000000
0.2470733 0.7296773 0.0000000
0.2906765 0.7279007 0.0000000
0.3345042 0.7261142 0.0000000
0.3789844 0.7244958 0.0000000
0.4246457 0.7232286 0.0000000
0.4713709 0.7221761 0.0000000
0.5190387 0.7211958 0.0000000
0.5675274 0.7201409 0.0000000
0.6167091 0.7188652 0.0000000
0.6658143 0.7173800 0.0000000
0.7142887 0.7156596 0.0000000
0.7485862 0.6998453 0.0000000
0.7952111 0.6963843 0.0000000
0.8421151 0.6932358 0.0000000
0.8899782 0.6903585 0.0000000
0.9399606 0.6877026 0.0000000
0.9959425 0.6852233 0.0000000
1.0000000 0.6828813 0.0000000
1.0000000 0.6806433 0.0000000
1.0000000 0.6737068 0.0000000
1.0000000 0.6712108 0.0000000
1.0000000 0.6699137 0.0000000
0.0000000 0.7938831 0.0000000
0.0000000 0.7921262 0.0000000
0.0000000 0.7895178 0.0000000
0.0000000 0.7869110 0.0000000
0.0000000 0.7843062 0.0000000
0.0010377 0.7818058 0.0000000
0.0341481 0.7794753 0.0000000
0.0727857 0.7772932 0.0000000
0.1136809 0.7752364 0.0000000
0.1558182 0.7732823 0.0000000
0.1986825 0.7714072 0.0000000
0.2419800 0.7695870 0.0000000
0.2855408 0.7677974 0.0000000
0.3292718 0.7660131 0.0000000
0.3731802 0.7642301 0.0000000
0.4179667 0.7627412 0.0000000
0.4637895 0.7615492 0.0000000
0.5105499 0.7605262 0.0000000
0.5581557 0.7595410 0.0000000
0.6065238 0.7584589 0.0000000
0.6555580 0.7571500 0.0000000
0.7045183 0.7556494 0.0000000
0.7530326 0.7539188 0.0000000
0.7869260 0.7374840 0.0000000
0.8340997 0.7339982 0.0000000
0.8820307 0.7308138 0.0000000
0.9317735 0.7278958 0.0000000
0.9861618 0.7251985 0.0000000
1.0000000 0.7226798 0.0000000
1.0000000 0.7203022 0.0000000
1.0000000 0.7124412 0.0000000
1.0000000 0.7099417 0.0000000
1.0000000 0.7086061 0.0000000
0.0000000 0.8346339 0.0000000
0.0000000 0.8328891 0.0000000
0.0000000 0.8302407 0.0000000
0.0000000 0.8275958 0.0000000
0.0000000 0.8249540 0.0000000
0.0000000 0.8223858 0.0000000
0.0294850 0.8199872 0.0000000
0.0677945 0.8177390 0.0000000
0.1085777 0.8156198 0.0000000
0.1506925 0.8136087 0.0000000
0.1935678 0.8116835 0.0000000
0.2368767 0.8098224 0.0000000
0.2804257 0.8080028 0.0000000
0.3241034 0.8062016 0.0000000
0.3678556 0.8043953 0.0000000
0.4118933 0.8026655 0.0000000
0.4568793 0.8012760 0.0000000
0.5027829 0.8001363 0.0000000
0.5495309 0.7991274 0.0000000
0.5970634 0.7981272 0.0000000
0.6453401 0.7970107 0.0000000
0.6942955 0.7956657 0.0000000
0.7432468 0.7941425 0.0000000
0.7919976 0.7923937 0.0000000
0.8256642 0.7752609 0.0000000
0.8737595 0.7717384 0.0000000
0.9233860 0.7685078 0.0000000
0.9767958 0.7655403 0.0000000
1.0000000 0.7627931 0.0000000
1.0000000 0.7602266 0.0000000
1.0000000 0.7513271 0.0000000
1.0000000 0.7488117 0.0000000
1.0000000 0.7474309 0.0000000
0.0000000 0.8762369 0.0000000
0.0000000 0.8744860 0.0000000
0.0000000 0.8717696 0.0000000
0.0000000 0.8690586 0.0000000
0.0000000 0.8663530 0.0000000
