rust/film_profiles/velvia_inspired/lut.cube
TITLE "Velvia Inspired"
LUT_3D_SIZE 9
DOMAIN_MIN 0.0 0.0 0.0
DOMAIN_MAX 1.0 1.0 1.0
0.0000000 0.0000000 0.0000000
0.0726609 0.0000000 0.0000000
0.2563559 0.0000000 0.0000000
0.4468226 0.0000000 0.0000000
0.6327502 0.0000000 0.0000000
0.8162705 0.0000000 0.0000000
1.0000000 0.0000000 0.0000000
1.0000000 0.0000000 0.0000000
1.0000000 0.0000000 0.0000000
0.0000000 0.0611760 0.0000000
0.0472352 0.0545092 0.0000000
0.2237404 0.0437243 0.0000000
0.4143807 0.0347980 0.0000000
0.6014575 0.0259924 0.0000000
0.7848936 0.0175570 0.0000000
0.9829092 0.0096167 0.0000000
1.0000000 0.0024750 0.0000000
1.0000000 0.0000000 0.0000000
0.0000000 0.2206602 0.0000000
0.0244041 0.2115087 0.0000000
0.1983093 0.2055327 0.0000000
0.3833400 0.1895608 0.0000000
0.5695407 0.1806926 0.0000000
0.7527596 0.1704020 0.0000000
0.9443430 0.1597553 0.0000000
1.0000000 0.1491684 0.0000000
1.0000000 0.1404094 0.0000000
0.0000000 0.3880474 0.0000000
0.0087799 0.3782690 0.0000000
0.1639756 0.3706200 0.0000000
0.3595632 0.3652765 0.0000000
0.5411871 0.3456069 0.0000000
0.7227784 0.3366987 0.0000000
0.9092057 0.3275541 0.0000000
1.0000000 0.3172627 0.0000000
1.0000000 0.3080066 0.0000000
0.0000000 0.5528225 0.0000000
0.0000000 0.5431055 0.0000000
0.1436309 0.5349591 0.0000000
0.3207659 0.5286070 0.0000000
0.5195056 0.5233098 0.0000000
0.6952298 0.5009878 0.0000000
0.8788813 0.4917761 0.0000000
1.0000000 0.4832353 0.0000000
1.0000000 0.4734656 0.0000000
0.0000000 0.7135799 0.0000000
0.0000000 0.7040440 0.0000000
0.1237940 0.6953595 0.0000000
0.2958595 0.6881097 0.0000000
0.4797027 0.6829260 0.0000000
0.6756044 0.6774583 0.0000000
0.8497908 0.6528060 0.0000000
1.0000000 0.6432148 0.0000000
1.0000000 0.6311840 0.0000000
0.0000000 0.8762369 0.0000000
0.0000000 0.8663530 0.0000000
0.1034487 0.8566732 0.0000000
0.2753128 0.8488006 0.0000000
0.4505658 0.8416469 0.0000000
0.6357936 0.8371833 0.0000000
0.8314077 0.8313015 0.0000000
1.0000000 0.8034560 0.0000000
1.0000000 0.7866002 0.0000000
0.0000000 1.0000000 0.0000000
0.0000000 1.0000000 0.0000000
0.0827712 1.0000000 0.0000000
0.2546716 1.0000000 0.0000000
0.4291448 1.0000000 0.0000000
0.6040276 1.0000000 0.0000000
0.7904907 1.0000000 0.0000000
1.0000000 1.0000000 0.0000000
1.0000000 0.9547752 0.0000000
0.0000000 1.0000000 0.0000000
0.0000000 1.0000000 0.0000000
0.0624195 1.0000000 0.0000000
0.2334435 1.0000000 0.0000000
0.4087378 1.0000000 0.0000000
0.5814700 1.0000000 0.0000000
0.7591414 1.0000000 0.0000000
0.9565625 1.0000000 0.0000000
1.0000000 1.0000000 0.0000000
0.0000000 0.0000000 0.0925303
0.0669021 0.0000000 0.0797454
0.2512064 0.0000000 0.0722265
0.4417363 0.0000000 0.0617739
0.6278305 0.0000000 0.0515425
0.8112955 0.0000000 0.0415683
1.0000000 0.0000000 0.0318979
1.0000000 0.0000000 0.0228673
1.0000000 0.0000000 0.0159496
0.0000000 0.0548136 0.0575045
0.0402354 0.0472132 0.0521136
0.2189805 0.0218913 0.0262479
0.4096091 0.0005246 0.0036495
0.5966633 0.0000000 0.0000000
0.7799290 0.0000000 0.0000000
0.9764696 0.0000000 0.0000000
1.0000000 0.0000000 0.0000000
1.0000000 0.0000000 0.0000000
0.0000000 0.2150223 0.0229357
0.0000000 0.2033907 0.0000000
0.1915911 0.1979416 0.0043293
0.3776280 0.1776743 0.0000000
0.5647689 0.1537416 0.0000000
0.7481796 0.1229318 0.0000000
0.9390650 0.1054141 0.0000000
1.0000000 0.1020759 0.0000000
1.0000000 0.1005234 0.0000000
0.0000000 0.3816527 0.0000000
0.0000000 0.3708948 0.0000000
0.1483546 0.3630086 0.0000000
0.3528659 0.3570245 0.0000000
0.5363144 0.3297540 0.0000000
0.7179753 0.3169665 0.0000000
0.9042902 0.3040760 0.0000000
1.0000000 0.2989140 0.0000000
1.0000000 0.2957043 0.0000000
0.0000000 0.5462518 0.0000000
0.0000000 0.5363213 0.0000000
0.1172117 0.5278757 0.0000000
0.3088514 0.5216547 0.0000000
0.5131044 0.5147695 0.0000000
0.6909550 0.4932447 0.0000000
0.8744130 0.4852758 0.0000000
1.0000000 0.4767474 0.0000000
1.0000000 0.4669955 0.0000000
0.0000000 0.7070019 0.0000000
0.0000000 0.6975598 0.0000000
0.1173407 0.6888347 0.0000000
0.2914745 0.6816416 0.0000000
0.4754163 0.6764804 0.0000000
0.6695037 0.6690678 0.0000000
0.8454926 0.6464490 0.0000000
1.0000000 0.6369312 0.0000000
1.0000000 0.6250020 0.0000000
0.0000000 0.8693381 0.0000000
0.0000000 0.8596402 0.0000000
0.0993560 0.8499897 0.0000000
0.2709849 0.8421623 0.0000000
0.4462956 0.8350588 0.0000000
0.6317030 0.8306375 0.0000000
0.8253274 0.8228789 0.0000000
1.0000000 0.7970871 0.0000000
1.0000000 0.7803733 0.0000000
0.0000000 1.0000000 0.0000000
0.0000000 1.0000000 0.0000000
0.0787906 1.0000000 0.0000000
0.2503912 1.0000000 0.0000000
0.4249273 1.0000000 0.0000000
0.5999364 1.0000000 0.0000000
0.7864622 1.0000000 0.0000000
0.9994171 0.9927950 0.0000000
1.0000000 0.9474117 0.0000000
0.0000000 1.0000000 0.0000000
0.0000000 1.0000000 0.0000000
0.0583079 1.0000000 0.0000000
0.2289437 1.0000000 0.0000000
0.4043099 1.0000000 0.0000000
0.5770819 1.0000000 0.0000000
0.7545429 1.0000000 0.0000000
0.9509925 1.0000000 0.0000000
1.0000000 1.0000000 0.0000000
0.0000000 0.0000000 0.2821451
0.0660650 0.0000000 0.2703494
0.2434087 0.0000000 0.2541447
0.4363363 0.0000000 0.2486866
0.6228270 0.0000000 0.2375068
0.8062275 0.0000000 0.2257904
1.0000000 0.0000000 0.2141123
1.0000000 0.0000000 0.2028061
1.0000000 0.0000000 0.1936901
0.0000000 0.0570132 0.2431288
0.0279019 0.0339029 0.2372829
0.2122372 0.0223984 0.2229433
0.4054379 0.0174785 0.2125939
0.5925819 0.0000000 0.1843810
0.7758093 0.0000000 0.1528817
0.9713038 0.0000000 0.1213720
1.0000000 0.0000000 0.1105869
1.0000000 0.0000000 0.1089590
0.0000000 0.2061983 0.2044249
0.0000000 0.1960740 0.1960592
0.1818663 0.1887524 0.1921625
0.3720950 0.1583621 0.1615437
0.5602329 0.1284474 0.1313965
0.7437040 0.0991970 0.1019078
0.9338756 0.0708698 0.0733326
1.0000000 0.0476603 0.0499382
1.0000000 0.0390853 0.0414170
0.0000000 0.3775190 0.1713989
0.0000000 0.3668007 0.1468514
0.1266215 0.3530782 0.1233016
0.3457885 0.3505117 0.1338624
0.5292736 0.3288039 0.1228149
0.7121090 0.3039594 0.0949010
0.8990991 0.2718381 0.0625567
1.0000000 0.2402917 0.0340171
1.0000000 0.2298770 0.0256805
0.0000000 0.5418046 0.1235241
0.0000000 0.5315456 0.0852610
0.0765242 0.5189735 0.0609623
0.2993253 0.5121894 0.0874944
0.5061518 0.5083240 0.0756040
0.6849799 0.4811660 0.0655515
0.8673299 0.4680036 0.0570816
1.0000000 0.4477893 0.0359572
1.0000000 0.4357899 0.0255801
0.0000000 0.7019322 0.0781326
0.0000000 0.6924071 0.0635114
0.0302966 0.6805651 0.0067761
0.2479952 0.6727785 0.0224047
0.4615428 0.6677160 0.0502912
0.6626484 0.6622347 0.0227544
0.8400431 0.6295214 0.0092133
1.0000000 0.6173998 0.0098463
1.0000000 0.6052452 0.0037170
0.0000000 0.8633676 0.0370212
0.0000000 0.8537126 0.0292604
0.0000000 0.8420010 0.0000000
0.1944583 0.8333467 0.0000000
0.4185718 0.8266835 0.0005254
0.6179252 0.8225555 0.0076946
0.8182737 0.8151698 0.0000000
1.0000000 0.7775686 0.0000000
1.0000000 0.7579095 0.0000000
0.0000000 1.0000000 0.0026972
0.0000000 1.0000000 0.0000000
0.0000000 1.0000000 0.0000000
0.1568606 1.0000000 0.0000000
0.3692109 1.0000000 0.0000000
0.5790715 0.9984126 0.0000000
0.7722256 0.9932651 0.0000000
0.9892839 0.9817262 0.0000000
1.0000000 0.9316314 0.0000000
0.0000000 1.0000000 0.0000000
0.0000000 1.0000000 0.0000000
0.0000000 1.0000000 0.0000000
0.1543606 1.0000000 0.0000000
0.3513502 1.0000000 0.0000000
0.5457398 1.0000000 0.0000000
0.7377262 1.0000000 0.0000000
0.9373921 1.0000000 0.0000000
1.0000000 1.0000000 0.0000000
0.0000000 0.0000000 0.4756919
0.0609460 0.0000000 0.4660857
0.2461645 0.0000000 0.4508945
0.4275306 0.0000000 0.4342629
0.6166590 0.0000000 0.4300039
0.8011511 0.0000000 0.4211354
1.0000000 0.0000000 0.4094988
1.0000000 0.0000000 0.3981241
1.0000000 0.0000000 0.3888188
0.0000000 0.0532828 0.4378085
0.0168461 0.0218520 0.4325246
0.2013507 0.0084008 0.4203453
0.3971334 0.0018144 0.4041747
0.5879557 0.0072395 0.3988773
0.7718368 0.0000000 0.3823757
0.9664900 0.0000000 0.3556373
1.0000000 0.0000000 0.3328079
1.0000000 0.0000000 0.3227961
0.0000000 0.2131369 0.3994786
0.0000000 0.1724271 0.3900267
0.1662025 0.1722965 0.3857101
0.3642160 0.1579732 0.3711039
0.5561615 0.1527757 0.3617736
0.7396482 0.1189847 0.3331940
0.9292810 0.0857900 0.3008703
1.0000000 0.0589840 0.2723945
1.0000000 0.0499279 0.2621155
0.0000000 0.3662382 0.3597506
0.0000000 0.3562816 0.3506853
0.1263620 0.3455131 0.3434394
0.3344561 0.3397950 0.3411835
0.5235866 0.3087110 0.3098882
0.7076328 0.2776219 0.2785908
0.8942965 0.2465900 0.2473544
1.0000000 0.2162502 0.2168253
1.0000000 0.2058471 0.2065349
0.0000000 0.5366952 0.3311794
0.0000000 0.5271999 0.3147217
0.0892103 0.5158883 0.2941684
0.2756606 0.5015856 0.2686540
0.4992170 0.5019612 0.2826717
0.6774444 0.4796137 0.2699827
0.8609059 0.4549341 0.2399543
1.0000000 0.4232194 0.2043713
1.0000000 0.4094410 0.1902795
0.0000000 0.6982551 0.2850736
0.0000000 0.6888725 0.2732273
0.0257332 0.6763638 0.2127873
0.2217035 0.6635957 0.2010951
0.4515267 0.6578600 0.2313920
0.6558656 0.6560232 0.2203666
0.8337268 0.6290503 0.2087377
1.0000000 0.6156157 0.1985877
1.0000000 0.6028600 0.1847939
0.0000000 0.8592072 0.2352993
0.0000000 0.8496452 0.2256410
0.0000000 0.8370007 0.1312925
0.1684379 0.8246084 0.1350103
0.4001521 0.8171670 0.1562460
0.6109269 0.8130636 0.1906260
0.8113661 0.8088647 0.1590953
1.0000000 0.7757130 0.1411884
1.0000000 0.7592967 0.1374659
0.0000000 1.0000000 0.1867882
0.0000000 1.0000000 0.1774836
0.0000000 1.0000000 0.0670008
0.1165284 1.0000000 0.0720522
0.3460535 0.9937856 0.0866426
0.5683889 0.9857801 0.1262163
0.7653357 0.9818628 0.1383998
0.9803838 0.9739097 0.0999119
1.0000000 0.9245291 0.0765693
0.0000000 1.0000000 0.1541454
0.0000000 1.0000000 0.1442858
0.0000000 1.0000000 0.0567541
0.0796649 1.0000000 0.0320560
0.3045940 1.0000000 0.0416317
0.5301431 1.0000000 0.0740455
0.7311586 1.0000000 0.1024954
0.9266672 1.0000000 0.0833405
1.0000000 1.0000000 0.0488548
0.0000000 0.0000000 0.6638764
0.0550029 0.0000000 0.6558413
0.2415178 0.0000000 0.6413351
0.4330833 0.0000000 0.6276193
0.6077646 0.0000000 0.6102577
0.7937961 0.0000000 0.6066211
0.9972852 0.0000000 0.5998004
1.0000000 0.0000000 0.5897080
1.0000000 0.0000000 0.5806549
0.0000000 0.0487802 0.6281043
0.0066794 0.0106121 0.6231087
0.1963576 0.0072645 0.6132020
0.3862848 0.0000000 0.5985397
0.5790127 0.0000000 0.5820010
0.7657824 0.0000000 0.5758614
0.9614455 0.0000000 0.5690194
1.0000000 0.0000000 0.5538362
1.0000000 0.0000000 0.5444076
0.0000000 0.2112368 0.5890560
0.0000000 0.1511456 0.5816721
0.1522303 0.1575193 0.5777488
0.3531754 0.1395402 0.5656198
0.5470033 0.1297228 0.5498983
0.7349439 0.1388968 0.5456859
0.9248766 0.1175321 0.5297053
1.0000000 0.0894357 0.5066876
1.0000000 0.0797267 0.4967082
0.0000000 0.3765295 0.5544523
0.0000000 0.3442051 0.5449417
0.0819029 0.3201566 0.5343184
0.3175783 0.3222046 0.5322066
0.5148220 0.3072506 0.5177085
0.7036182 0.3029819 0.5096472
0.8899611 0.2676929 0.4816557
1.0000000 0.2322412 0.4499815
1.0000000 0.2214884 0.4395231
0.0000000 0.5245017 0.5137090
0.0000000 0.5150409 0.5044972
0.0763384 0.5045379 0.4971742
0.2752171 0.4940225 0.4901063
0.4867093 0.4901007 0.4895640
0.6715923 0.4595950 0.4588319
0.8562380 0.4289313 0.4279432
1.0000000 0.3981237 0.3969133
1.0000000 0.3840252 0.3828607
0.0000000 0.6913757 0.4885958
0.0000000 0.6822435 0.4793620
0.0608314 0.6727049 0.4632169
0.2365543 0.6614723 0.4428092
0.4271953 0.6466162 0.4166713
0.6490793 0.6498091 0.4334686
0.8253581 0.6269290 0.4198216
1.0000000 0.6026054 0.3896640
1.0000000 0.5852470 0.3700134
0.0000000 0.8551701 0.4481954
0.0000000 0.8457803 0.4387898
0.0092839 0.8340082 0.3980599
0.1633101 0.8208091 0.3613664
0.3733065 0.8073570 0.3490974
0.6005461 0.8024616 0.3805585
0.8044762 0.8025736 0.3715103
1.0000000 0.7749555 0.3593407
1.0000000 0.7608292 0.3500610
0.0000000 1.0000000 0.3995652
0.0000000 1.0000000 0.3901445
0.0000000 1.0000000 0.3186426
0.0951851 0.9991204 0.2776677
0.3191586 0.9819626 0.2812993
0.5499901 0.9733933 0.3038918
0.7579309 0.9697060 0.3401881
0.9718751 0.9663253 0.3093248
1.0000000 0.9215713 0.2854535
0.0000000 1.0000000 0.3641268
0.0000000 1.0000000 0.3538509
0.0000000 1.0000000 0.2788950
0.0503659 1.0000000 0.2204446
0.2763183 1.0000000 0.2304635
0.5069322 1.0000000 0.2465034
0.7216724 1.0000000 0.2877766
0.9187340 1.0000000 0.2881064
1.0000000 1.0000000 0.2490073
0.0000000 0.0000000 0.8511621
0.0487209 0.0000000 0.8436331
0.2358398 0.0000000 0.8299937
0.4296550 0.0000000 0.8147534
0.6155251 0.0000000 0.8020791
0.7847388 0.0000000 0.7830201
0.9860917 0.0000000 0.7796335
1.0000000 0.0000000 0.7720321
1.0000000 0.0000000 0.7632385
0.0000000 0.0440997 0.8155795
0.0000000 0.0008852 0.8105834
0.1918178 0.0046550 0.8019791
0.3751887 0.0000000 0.7870806
0.5711302 0.0000000 0.7739598
0.7568150 0.0000000 0.7557772
0.9527587 0.0000000 0.7485788
1.0000000 0.0000000 0.7429272
1.0000000 0.0000000 0.7343484
0.0000000 0.2074006 0.7756705
0.0000000 0.1344724 0.7691779
0.1383709 0.1428555 0.7651143
0.3486385 0.1384449 0.7554799
0.5360153 0.0998868 0.7400552
0.7251568 0.1020591 0.7240690
0.9178869 0.1130056 0.7187636
1.0000000 0.1099586 0.7125417
1.0000000 0.1007897 0.7034653
0.0000000 0.3762989 0.7385286
0.0000000 0.3343804 0.7300040
0.0663047 0.2987740 0.7224641
0.3031437 0.3070230 0.7201640
0.5039830 0.2881213 0.7079394
0.6935642 0.2779125 0.6925081
0.8848343 0.2884926 0.6893089
1.0000000 0.2661968 0.6737458
1.0000000 0.2550034 0.6636981
0.0000000 0.5374870 0.7063359
0.0000000 0.5210786 0.6972047
0.0252963 0.4854954 0.6859609
0.2261924 0.4678948 0.6754589
0.4693167 0.4720534 0.6754564
0.6619645 0.4571135 0.6610221
0.8520628 0.4539919 0.6541733
1.0000000 0.4191294 0.6268211
1.0000000 0.4033183 0.6126133
0.0000000 0.6788449 0.6640166
0.0000000 0.6698353 0.6552472
0.0301843 0.6595731 0.6472652
0.2213295 0.6493240 0.6403862
0.4265866 0.6390712 0.6335104
0.6354895 0.6368837 0.6346155
0.8190973 0.6071332 0.6046285
1.0000000 0.5772596 0.5745175
1.0000000 0.5594957 0.5567171
0.0000000 0.8461559 0.6411899
0.0000000 0.8370087 0.6324723
0.0238053 0.8272447 0.6176406
0.2052611 0.8176897 0.6085423
0.3891519 0.8061147 0.5884893
0.5759103 0.7902189 0.5621352
0.7976024 0.7962961 0.5813568
0.9880289 0.7722214 0.5669985
1.0000000 0.7555132 0.5475748
0.0000000 1.0000000 0.6057044
0.0000000 1.0000000 0.5968998
0.0000000 1.0000000 0.5695494
0.1422772 0.9955732 0.5449046
0.3143823 0.9778395 0.5086575
0.5232748 0.9611245 0.4961959
0.7469816 0.9564832 0.5279047
0.9636232 0.9589148 0.5210396
1.0000000 0.9205072 0.5017741
0.0000000 1.0000000 0.5726840
0.0000000 1.0000000 0.5630631
0.0000000 1.0000000 0.5227574
0.0906291 1.0000000 0.4888447
0.2580846 1.0000000 0.4461960
0.4785395 1.0000000 0.4419706
0.7034324 1.0000000 0.4645221
0.9113701 1.0000000 0.4929025
1.0000000 1.0000000 0.4587527
0.0000000 0.0000000 1.0000000
0.0424696 0.0000000 1.0000000
0.2299023 0.0000000 1.0000000
0.4247053 0.0000000 1.0000000
0.6130932 0.0000000 1.0000000
0.7947667 0.0000000 0.9937101
0.9745618 0.0000000 0.9671732
1.0000000 0.0000000 0.9595767
1.0000000 0.0000000 0.9493845
0.0000000 0.0393966 1.0000000
0.0000000 0.0000000 1.0000000
0.1840910 0.0000000 1.0000000
0.3688239 0.0000000 0.9930011
0.5568338 0.0000000 0.9741657
0.7534553 0.0000000 0.9598938
0.9424994 0.0000000 0.9366155
1.0000000 0.0000000 0.9259093
1.0000000 0.0000000 0.9162320
0.0000000 0.2027324 0.9755910
0.0000000 0.1197306 0.9682043
0.1246425 0.1283256 0.9631146
0.3442375 0.1348466 0.9536334
0.5255311 0.0939214 0.9359195
0.7169257 0.0673885 0.9209513
0.9073017 0.0751938 0.9016943
1.0000000 0.0835295 0.8936964
1.0000000 0.0757274 0.8843116
0.0000000 0.3738856 0.9306406
0.0000000 0.3277833 0.9218312
0.0549092 0.2818143 0.9151776
0.2887127 0.2918404 0.9120934
0.5000550 0.2875127 0.9019480
0.6823764 0.2458723 0.8845741
0.8735049 0.2486282 0.8681518
1.0000000 0.2611041 0.8634024
1.0000000 0.2529269 0.8544706
0.0000000 0.5381781 0.8921881
0.0000000 0.5193179 0.8827682
0.0020293 0.4572535 0.8728775
0.2094115 0.4473564 0.8651283
0.4550927 0.4571264 0.8643792
0.6513226 0.4382235 0.8513899
0.8405843 0.4281806 0.8355098
1.0000000 0.4396206 0.8331932
1.0000000 0.4300684 0.8241661
0.0000000 0.6943991 0.8596350
0.0000000 0.6853330 0.8504728
0.0000000 0.6474764 0.8390386
0.1608575 0.6294814 0.8269563
0.3763756 0.6123409 0.8162736
0.6177150 0.6184952 0.8183861
0.8082383 0.6036942 0.8034866
1.0000000 0.6017072 0.7976128
1.0000000 0.5820743 0.7813125
0.0000000 0.8329190 0.8135017
0.0000000 0.8239501 0.8048431
0.0000000 0.8134825 0.7959148
0.1681354 0.8031054 0.7890018
0.3727604 0.7927693 0.7821094
0.5751517 0.7824694 0.7752365
0.7825236 0.7819248 0.7779900
0.9796818 0.7521835 0.7480354
1.0000000 0.7306010 0.7263604
0.0000000 1.0000000 0.7914931
0.0000000 1.0000000 0.7829937
0.0000000 0.9995782 0.7670118
0.1613497 0.9865130 0.7604613
0.3578306 0.9747602 0.7515682
0.5396774 0.9607384 0.7314995
0.7216526 0.9414555 0.7046006
0.9555631 0.9516431 0.7263964
1.0000000 0.9221284 0.7108563
0.0000000 1.0000000 0.7641699
0.0000000 1.0000000 0.7554713
0.0000000 1.0000000 0.7356005
0.1268937 1.0000000 0.7237407
0.3073235 1.0000000 0.7029504
0.4777209 1.0000000 0.6665390
0.6752491 1.0000000 0.6479930
0.9010966 1.0000000 0.6792539
1.0000000 1.0000000 0.6626828
0.0000000 0.0000000 1.0000000
0.0374437 0.0000000 1.0000000
0.2241474 0.0000000 1.0000000
0.4192581 0.0000000 1.0000000
0.6085082 0.0000000 1.0000000
0.7914286 0.0000000 1.0000000
0.9872818 0.0000000 1.0000000
1.0000000 0.0000000 1.0000000
1.0000000 0.0000000 1.0000000
0.0000000 0.0337247 1.0000000
0.0000000 0.0000000 1.0000000
0.1774376 0.0000000 1.0000000
0.3641518 0.0000000 1.0000000
0.5488246 0.0000000 1.0000000
0.7470651 0.0000000 1.0000000
0.9482821 0.0000000 1.0000000
1.0000000 0.0000000 1.0000000
1.0000000 0.0000000 1.0000000
0.0000000 0.1965941 1.0000000
0.0000000 0.1126194 1.0000000
0.1146862 0.1169361 1.0000000
0.3376880 0.1275774 1.0000000
0.5196883 0.0908371 1.0000000
0.7045415 0.0551767 1.0000000
0.9037454 0.0425406 1.0000000
1.0000000 0.0502228 1.0000000
1.0000000 0.0415034 1.0000000
0.0000000 0.3691932 1.0000000
0.0000000 0.3229023 1.0000000
0.0458530 0.2681578 1.0000000
0.2758116 0.2779092 1.0000000
0.4960749 0.2838702 1.0000000
0.6725385 0.2396371 1.0000000
0.8644078 0.2103252 1.0000000
1.0000000 0.2194619 1.0000000
1.0000000 0.2121586 1.0000000
0.0000000 0.5363600 1.0000000
0.0000000 0.5176418 1.0000000
0.0000000 0.4343380 1.0000000
0.1968857 0.4309812 1.0000000
0.4408366 0.4421613 1.0000000
0.6479856 0.4381495 1.0000000
0.8286819 0.3959515 1.0000000
1.0000000 0.3991241 1.0000000
1.0000000 0.3962704 1.0000000
0.0000000 0.6955423 1.0000000
0.0000000 0.6865613 1.0000000
0.0000000 0.6183650 1.0000000
0.1291949 0.6019285 1.0000000
0.3599881 0.5928090 1.0000000
0.6038287 0.6039381 1.0000000
0.7974231 0.5852532 1.0000000
1.0000000 0.5755148 0.9946367
1.0000000 0.5780920 0.9865757
0.0000000 0.8518641 1.0000000
0.0000000 0.8427499 1.0000000
0.0000000 0.8071184 1.0000000
0.1055809 0.7898300 0.9972988
0.3098827 0.7715791 0.9810249
0.5248625 0.7544913 0.9680459
0.7639119 0.7627270 0.9731406
0.9652042 0.7477449 0.9552415
1.0000000 0.7526418 0.9533772
0.0000000 1.0000000 0.9753891
0.0000000 0.9946432 0.9652380
0.0000000 0.9808397 0.9537542
0.1162986 0.9681418 0.9458464
0.3186773 0.9559619 0.9380697
0.5225745 0.9441386 0.9304060
0.7207394 0.9325859 0.9228413
0.9367847 0.9338266 0.9277019
1.0000000 0.9056118 0.8995193
0.0000000 1.0000000 0.9482620
0.0000000 1.0000000 0.9391692
0.0000000 1.0000000 0.9215803
0.1090490 1.0000000 0.9157122
0.3115399 1.0000000 0.9098714
0.5120890 1.0000000 0.9025373
0.6940547 1.0000000 0.8850443
0.8722184 1.0000000 0.8521598
1.0000000 1.0000000 0.8657947
0.0000000 0.0000000 1.0000000
0.0333697 0.0000000 1.0000000
0.2192302 0.0000000 1.0000000
0.4143693 0.0000000 1.0000000
0.6037956 0.0000000 1.0000000
0.7867468 0.0000000 1.0000000
0.9812418 0.0000000 1.0000000
1.0000000 0.0000000 1.0000000
1.0000000 0.0000000 1.0000000
0.0000000 0.0281477 1.0000000
0.0000000 0.0000000 1.0000000
0.1733989 0.0000000 1.0000000
0.3599004 0.0000000 1.0000000
0.5459800 0.0000000 1.0000000
0.7447825 0.0000000 1.0000000
0.9444145 0.0000000 1.0000000
1.0000000 0.0000000 1.0000000
1.0000000 0.0000000 1.0000000
0.0000000 0.1897983 1.0000000
0.0000000 0.1092561 1.0000000
0.1112070 0.1109886 1.0000000
0.3334285 0.1211029 1.0000000
0.5154585 0.0845133 1.0000000
0.7003235 0.0491534 1.0000000
0.8990850 0.0363649 1.0000000
1.0000000 0.0441585 1.0000000
1.0000000 0.0354716 1.0000000
0.0000000 0.3623822 1.0000000
0.0000000 0.3187275 1.0000000
0.0427220 0.2615184 1.0000000
0.2720366 0.2715257 1.0000000
0.4917793 0.2769194 1.0000000
0.6683151 0.2326843 1.0000000
0.8596476 0.2028315 1.0000000
1.0000000 0.2086401 1.0000000
1.0000000 0.2008623 1.0000000
0.0000000 0.5298156 1.0000000
0.0000000 0.5131044 1.0000000
0.0000000 0.4273159 1.0000000
0.1929271 0.4240607 1.0000000
0.4362197 0.4351218 1.0000000
0.6439897 0.4320325 1.0000000
0.8227073 0.3882467 1.0000000
1.0000000 0.3809876 1.0000000
1.0000000 0.3783222 1.0000000
0.0000000 0.6895052 1.0000000
0.0000000 0.6809270 1.0000000
0.0000000 0.6081705 1.0000000
0.1215665 0.5915001 1.0000000
0.3538589 0.5837012 1.0000000
0.5970107 0.5951859 1.0000000
0.7933655 0.5812374 1.0000000
0.9999787 0.5522502 1.0000000
1.0000000 0.5532784 1.0000000
0.0000000 0.8471583 1.0000000
0.0000000 0.8385343 1.0000000
0.0000000 0.7955809 1.0000000
0.0849482 0.7742116 1.0000000
0.2902543 0.7549314 1.0000000
0.5142481 0.7410439 1.0000000
0.7548004 0.7521209 1.0000000
0.9533399 0.7272761 1.0000000
1.0000000 0.7237921 1.0000000
0.0000000 1.0000000 1.0000000
0.0000000 1.0000000 1.0000000
0.0000000 0.9916472 1.0000000
0.0782833 0.9696922 1.0000000
0.2734636 0.9494394 1.0000000
0.4750162 0.9282071 1.0000000
0.6760511 0.9061564 1.0000000
0.9179754 0.9140173 1.0000000
1.0000000 0.8975083 1.0000000
0.0000000 1.0000000 1.0000000
0.0000000 1.0000000 1.0000000
0.0000000 1.0000000 1.0000000
0.0719867 1.0000000 1.0000000
0.2691926 1.0000000 1.0000000
0.4729418 1.0000000 1.0000000
0.6711845 1.0000000 1.0000000
0.8693967 1.0000000 1.0000000
1.0000000 1.0000000 1.0000000
