rust/film_profiles/velvia_inspired/lut.cube
TITLE "Velvia Inspired"
LUT_3D_SIZE 5
DOMAIN_MIN 0.0 0.0 0.0
DOMAIN_MAX 1.0 1.0 1.0
0.0000000 0.0000000 0.0000000
0.2563559 0.0000000 0.0000000
0.6327502 0.0000000 0.0000000
1.0000000 0.0000000 0.0000000
1.0000000 0.0000000 0.0000000
0.0000000 0.2206602 0.0000000
0.1983093 0.2055327 0.0000000
0.5695407 0.1806926 0.0000000
0.9443430 0.1597553 0.0000000
1.0000000 0.1404094 0.0000000
0.0000000 0.5528225 0.0000000
0.1436309 0.5349591 0.0000000
0.5195056 0.5233098 0.0000000
0.8788813 0.4917761 0.0000000
1.0000000 0.4734656 0.0000000
0.0000000 0.8762369 0.0000000
0.1034487 0.8566732 0.0000000
0.4505658 0.8416469 0.0000000
0.8314077 0.8313015 0.0000000
1.0000000 0.7866002 0.0000000
0.0000000 1.0000000 0.0000000
0.0624195 1.0000000 0.0000000
0.4087378 1.0000000 0.0000000
0.7591414 1.0000000 0.0000000
1.0000000 1.0000000 0.0000000
0.0000000 0.0000000 0.2821451
0.2434087 0.0000000 0.2541447
0.6228270 0.0000000 0.2375068
1.0000000 0.0000000 0.2141123
1.0000000 0.0000000 0.1936901
0.0000000 0.2061983 0.2044249
0.1818663 0.1887524 0.1921625
0.5602329 0.1284474 0.1313965
0.9338756 0.0708698 0.0733326
1.0000000 0.0390853 0.0414170
0.0000000 0.5418046 0.1235241
0.0765242 0.5189735 0.0609623
0.5061518 0.5083240 0.0756040
0.8673299 0.4680036 0.0570816
1.0000000 0.4357899 0.0255801
0.0000000 0.8633676 0.0370212
0.0000000 0.8420010 0.0000000
0.4185718 0.8266835 0.0005254
0.8182737 0.8151698 0.0000000
1.0000000 0.7579095 0.0000000
0.0000000 1.0000000 0.0000000
0.0000000 1.0000000 0.0000000
0.3513502 1.0000000 0.0000000
0.7377262 1.0000000 0.0000000
1.0000000 1.0000000 0.0000000
0.0000000 0.0000000 0.6638764
0.2415178 0.0000000 0.6413351
0.6077646 0.0000000 0.6102577
0.9972852 0.0000000 0.5998004
1.0000000 0.0000000 0.5806549
0.0000000 0.2112368 0.5890560
0.1522303 0.1575193 0.5777488
0.5470033 0.1297228 0.5498983
0.9248766 0.1175321 0.5297053
1.0000000 0.0797267 0.4967082
0.0000000 0.5245017 0.5137090
0.0763384 0.5045379 0.4971742
0.4867093 0.4901007 0.4895640
0.8562380 0.4289313 0.4279432
1.0000000 0.3840252 0.3828607
0.0000000 0.8551701 0.4481954
0.0092839 0.8340082 0.3980599
0.3733065 0.8073570 0.3490974
0.8044762 0.8025736 0.3715103
1.0000000 0.7608292 0.3500610
0.0000000 1.0000000 0.3641268
0.0000000 1.0000000 0.2788950
0.2763183 1.0000000 0.2304635
0.7216724 1.0000000 0.2877766
1.0000000 1.0000000 0.2490073
0.0000000 0.0000000 1.0000000
0.2299023 0.0000000 1.0000000
0.6130932 0.0000000 1.0000000
0.9745618 0.0000000 0.9671732
1.0000000 0.0000000 0.9493845
0.0000000 0.2027324 0.9755910
0.1246425 0.1283256 0.9631146
0.5255311 0.0939214 0.9359195
0.9073017 0.0751938 0.9016943
1.0000000 0.0757274 0.8843116
0.0000000 0.5381781 0.8921881
0.0020293 0.4572535 0.8728775
0.4550927 0.4571264 0.8643792
0.8405843 0.4281806 0.8355098
1.0000000 0.4300684 0.8241661
0.0000000 0.8329190 0.8135017
0.0000000 0.8134825 0.7959148
0.3727604 0.7927693 0.7821094
0.7825236 0.7819248 0.7779900
1.0000000 0.7306010 0.7263604
0.0000000 1.0000000 0.7641699
0.0000000 1.0000000 0.7356005
0.3073235 1.0000000 0.7029504
0.6752491 1.0000000 0.6479930
1.0000000 1.0000000 0.6626828
0.0000000 0.0000000 1.0000000
0.2192302 0.0000000 1.0000000
0.6037956 0.0000000 1.0000000
0.9812418 0.0000000 1.0000000
1.0000000 0.0000000 1.0000000
0.0000000 0.1897983 1.0000000
0.1112070 0.1109886 1.0000000
0.5154585 0.0845133 1.0000000
0.8990850 0.0363649 1.0000000
1.0000000 0.0354716 1.0000000
0.0000000 0.5298156 1.0000000
0.0000000 0.4273159 1.0000000
0.4362197 0.4351218 1.0000000
0.8227073 0.3882467 1.0000000
1.0000000 0.3783222 1.0000000
0.0000000 0.8471583 1.0000000
0.0000000 0.7955809 1.0000000
0.2902543 0.7549314 1.0000000
0.7548004 0.7521209 1.0000000
1.0000000 0.7237921 1.0000000
0.0000000 1.0000000 1.0000000
0.0000000 1.0000000 1.0000000
0.2691926 1.0000000 1.0000000
0.6711845 1.0000000 1.0000000
1.0000000 1.0000000 1.0000000
